;FLAVOR:Marlin
;TIME:357
;Filament used: 0.158416m
;Layer height: 0.28
;MINX:103.496
;MINY:109.577
;MINZ:0.28
;MAXX:130.468
;MAXY:122.279
;MAXZ:6.72
;Generated with Cura_SteamEngine 4.8.0
M140 S60
M105
M190 S60
M104 S200
M105
M109 S200
M82 ;absolute extrusion mode
; Ender 3 Custom Start G-code
M117 PRINT PRINT PRINT
G92 E0 ; Reset Extruder
G28 ; Home all axes
G1 Z2.0 F3000 ; Move Z Axis up little to prevent scratching of Heat Bed
G1 X0.1 Y20 Z0.3 F5000.0 ; Move to start position
G1 X0.1 Y200.0 Z0.3 F1500.0 E15 ; Draw the first line
G1 X0.4 Y200.0 Z0.3 F5000.0 ; Move to side a little
G1 X0.4 Y20 Z0.3 F1500.0 E30 ; Draw the second line
G92 E0 ; Reset Extruder
G1 Z2.0 F3000 ; Move Z Axis up little to prevent scratching of Heat Bed
G1 X5 Y20 Z0.3 F5000.0 ; Move over to prevent blob squish
G92 E0
G92 E0
G1 F2700 E-5
;LAYER_COUNT:24
;LAYER:0
M107
M204 S500
M205 X8 Y8
G0 F6000 X105.934 Y112.646 Z0.28
;TYPE:SUPPORT
G1 F2700 E0
G1 F1200 X106.801 Y112.363 E0.04247
G1 X107.338 Y113.102 E0.085
G1 X106.801 Y113.841 E0.12754
G1 X105.934 Y113.558 E0.17001
G1 X105.934 Y112.646 E0.21247
G1 F2700 E-4.78753
G0 F6000 X108.102 Y114.478
G1 F2700 E0.21247
G1 F1200 X109.171 Y114.827 E0.26484
G1 X110.337 Y114.422 E0.32231
G1 X110.91 Y115.141 E0.36512
G1 X110.332 Y115.9 E0.40955
G1 X109.259 Y115.55 E0.4621
G1 X108.1 Y115.953 E0.51924
G1 X107.565 Y115.217 E0.56161
G1 X108.102 Y114.478 E0.60414
G1 F2700 E-4.39586
G0 F6000 X111.252 Y115.1
G1 F2700 E0.60414
G1 F1200 X111.847 Y114.321 E0.64979
G1 X112.278 Y114.321 E0.66986
G1 X112.84 Y115.095 E0.7144
G1 X112.303 Y115.834 E0.75693
G1 X111.395 Y115.538 E0.8014
G1 X111.252 Y115.1 E0.82286
G0 F6000 X112 Y114.601
G1 F1200 X112 Y115.441 E0.86197
G1 X111.617 Y115.316 E0.88073
G1 X111.564 Y115.154 E0.88867
G1 X111.986 Y114.601 E0.92106
G1 X112.135 Y114.601 E0.928
G1 F2700 E-4.072
G0 F6000 X110.242 Y114.752
G1 F2700 E0.928
G1 F1200 X109.174 Y115.122 E0.98063
G1 X108.21 Y114.807 E1.02785
G1 X107.912 Y115.217 E1.05145
G1 X108 Y115.338 E1.05842
G1 X108 Y115.095 E1.06974
G0 F6000 X107.016 Y116.137
G1 F1200 X107.851 Y116.549 E1.11309
G1 X108.258 Y117.308 E1.15319
G1 X108.258 Y118.288 E1.19883
G1 X107.225 Y118.624 E1.24941
G1 X106.818 Y119.094 E1.27836
G1 X108.041 Y120.285 E1.35785
G1 X108.216 Y120.82 E1.38406
G1 X108.046 Y121.34 E1.40953
G1 X107.602 Y121.663 E1.4351
G1 X107.087 Y121.663 E1.45908
G1 X106.441 Y120.84 E1.5078
G1 X105.842 Y119.932 E1.55845
G1 X105.174 Y119.086 E1.60864
G1 X104.421 Y119.165 E1.6439
G1 X103.851 Y118.379 E1.68911
G1 X104.429 Y117.582 E1.73495
G1 X104.883 Y117.582 E1.75609
G1 X105.593 Y118.412 E1.80695
G1 X106.12 Y117.998 E1.83816
G1 X106.572 Y117.264 E1.8783
G1 X106.823 Y116.255 E1.92671
G1 X107.016 Y116.137 E1.93725
G0 F6000 X107.058 Y116.47
G1 F1200 X106.834 Y117.373 E1.98057
G1 X106.333 Y118.187 E2.02508
G1 X105.555 Y118.798 E2.07114
G1 X104.754 Y117.862 E2.1285
G1 X104.572 Y117.862 E2.13698
G1 X104.197 Y118.379 E2.16672
G1 X104.553 Y118.869 E2.19492
G1 X105.299 Y118.792 E2.22984
G1 X106.069 Y119.768 E2.28773
G1 X106.674 Y120.684 E2.33885
G1 X107.223 Y121.383 E2.38023
G1 X107.51 Y121.383 E2.3936
G1 X107.808 Y121.166 E2.41076
G1 X107.922 Y120.82 E2.42772
G1 X107.797 Y120.437 E2.44648
G1 X107.347 Y120 E2.47569
G1 X106.221 Y120 E2.52812
G1 F2700 E-2.47188
G0 F6000 X114.045 Y115.34
G1 F2700 E2.52812
G1 F1200 X114.045 Y114.428 E2.57059
G1 X114.912 Y114.145 E2.61306
G1 X115.449 Y114.884 E2.65559
G1 X114.912 Y115.623 E2.69813
G1 X114.045 Y115.34 E2.7406
G1 F2700 E-2.2594
G0 F6000 X115.985 Y115.41
G1 F2700 E2.7406
G1 F1200 X116.084 Y114.177 E2.7982
G1 X117.187 Y113.788 E2.85266
G1 X117.399 Y113.137 E2.88454
G1 X117.856 Y112.804 E2.91087
G1 X118.392 Y112.804 E2.93583
G1 X118.996 Y113.49 E2.97839
G1 X119.383 Y114.166 E3.01466
G1 X118.817 Y114.944 E3.05946
G1 X117.76 Y114.636 E3.11072
G1 X117.592 Y114.808 E3.12192
G1 X117.919 Y115.832 E3.17197
G1 X117.697 Y116.699 E3.21364
G1 X117.259 Y117.018 E3.23888
G1 X116.713 Y117.018 E3.2643
G1 X116.277 Y116.701 E3.2894
G1 X115.985 Y115.41 E3.35103
G0 F6000 X116.405 Y116
G1 F1200 X117.587 Y116 E3.40607
G1 X117.451 Y116.531 E3.4316
G1 X117.167 Y116.738 E3.44796
G1 X116.805 Y116.738 E3.46482
G1 X116.526 Y116.536 E3.48086
G1 X116.268 Y115.39 E3.53555
G1 X116.349 Y114.381 E3.58269
G1 X117.411 Y114.006 E3.63513
G1 X117.637 Y113.311 E3.66916
G1 X117.948 Y113.084 E3.68709
G1 X118.266 Y113.084 E3.7019
G1 F2700 E-1.2981
G0 F6000 X120.324 Y113.696
G1 F2700 E3.7019
G1 F1200 X121.191 Y113.413 E3.74437
G1 X121.728 Y114.152 E3.7869
G1 X121.191 Y114.891 E3.82944
G1 X120.324 Y114.608 E3.87191
G1 X120.324 Y113.696 E3.91437
G1 F2700 E-1.08563
G0 F6000 X122.892 Y113.538
G1 F2700 E3.91437
G1 F1200 X123.759 Y113.255 E3.95684
G1 X124.322 Y114.03 E4.00144
G1 X124.223 Y114.333 E4.01629
G1 X124.802 Y115.223 E4.06573
G1 X124.906 Y116.236 E4.11314
G1 X124.919 Y116.438 E4.12257
G1 X123.93 Y115.936 E4.17422
G1 X123.344 Y115.6 E4.20567
G1 X122.892 Y114.553 E4.25877
G1 X122.892 Y113.538 E4.30603
G1 F2700 E-0.69397
G0 F6000 X124.936 Y116.708
G1 F2700 E4.30603
G1 F1200 X124.988 Y117.53 E4.34439
G1 X125.513 Y118.015 E4.37767
G1 X125.001 Y118.156 E4.4024
G1 X124.471 Y117.428 E4.44433
G1 X124.936 Y116.708 E4.48424
G1 F2700 E-0.51576
G0 F6000 X124 Y114.114
G1 F2700 E4.48424
G1 F1200 X124 Y114.065 E4.48652
G1 X124.011 Y114.08 E4.48738
G1 X123.915 Y114.374 E4.50179
G1 X124 Y114.505 E4.50906
G1 X124 Y115.653 E4.56251
G1 X123.564 Y115.404 E4.58589
G1 X123.172 Y114.495 E4.63199
G1 X123.172 Y113.741 E4.6671
G1 X123.651 Y113.584 E4.69057
G1 F2700 E-0.30943
G0 F6000 X125.413 Y111.353
G1 F2700 E4.69057
G1 F1200 X125.192 Y110.676 E4.72373
G1 X125.413 Y109.999 E4.75689
G1 X125.992 Y109.577 E4.79025
G1 X126.704 Y109.577 E4.82341
G1 X127.283 Y109.999 E4.85677
G1 X127.504 Y110.676 E4.88993
G1 X127.283 Y111.353 E4.92309
G1 X126.704 Y111.775 E4.95645
G1 X125.992 Y111.775 E4.9896
G1 X125.413 Y111.353 E5.02297
G1 F2700 E0.02297
G0 F6000 X129.65 Y116.787
G1 F2700 E5.02297
G1 F1200 X129.694 Y116.787 E5.02502
G1 X130.239 Y117.538 E5.06822
G1 X129.688 Y118.297 E5.1119
G1 X128.95 Y118.353 E5.14636
G1 X128.803 Y118.213 E5.15581
G1 X129.45 Y117.766 E5.19243
G1 X129.65 Y116.787 E5.23896
G1 F2700 E0.23896
;MESH:upper-robotic-arm.STL
G0 F6000 X128.267 Y116.784
G0 X128.085 Y116.84
;TYPE:WALL-INNER
G1 F2700 E5.23896
G1 F1200 X127.637 Y116.992 E5.26099
G1 X127.195 Y117.029 E5.28164
G1 X126.803 Y116.935 E5.30041
G1 X126.522 Y116.846 E5.31414
G1 X126.508 Y116.833 E5.31503
G1 X126.506 Y116.228 E5.3432
G1 X126.511 Y114.641 E5.41709
G1 X126.597 Y114.641 E5.4211
G1 X126.599 Y114.308 E5.4366
G1 X126.95 Y114.308 E5.45295
G1 X126.952 Y113.975 E5.46846
G1 X127.647 Y113.975 E5.50082
G1 X127.649 Y114.308 E5.51632
G1 X127.997 Y114.308 E5.53253
G1 X127.998 Y114.641 E5.54803
G1 X128.086 Y114.641 E5.55213
G1 X128.088 Y115.437 E5.5892
G1 X128.085 Y116.84 E5.65453
G0 F6000 X127.208 Y116.856
G0 X126.686 Y116.711
G0 X126.381 Y114.511
G0 X126.112 Y114.241
;TYPE:WALL-OUTER
G1 F1200 X126.199 Y114.241 E5.65858
G1 X126.201 Y113.908 E5.67408
G1 X126.552 Y113.908 E5.69043
G1 X126.554 Y113.575 E5.70593
G1 X128.045 Y113.575 E5.77536
G1 X128.047 Y113.908 E5.79087
G1 X128.396 Y113.908 E5.80712
G1 X128.397 Y114.241 E5.82262
G1 X128.485 Y114.241 E5.82672
G1 X128.488 Y115.438 E5.88246
G1 X128.486 Y117.003 E5.95533
G1 X128.298 Y117.195 E5.96784
G1 X127.992 Y117.283 E5.98267
G1 X127.743 Y117.38 E5.99511
G1 X127.436 Y117.427 E6.00958
G1 X127.172 Y117.429 E6.02187
G1 X126.92 Y117.398 E6.03369
G1 X126.678 Y117.315 E6.0456
G1 X126.305 Y117.198 E6.06381
G1 X126.109 Y116.996 E6.07691
G1 X126.106 Y116.227 E6.11272
G1 X126.112 Y114.241 E6.2052
G0 F6000 X126.987 Y114.698
;TYPE:SKIN
G1 F1200 X127.609 Y114.698 E6.23416
G1 X127.61 Y115.031 E6.24967
G1 X127.697 Y115.031 E6.25372
G1 X127.698 Y115.438 E6.27267
G1 X127.695 Y116.561 E6.32496
G1 X127.556 Y116.608 E6.33179
G1 X127.226 Y116.635 E6.34721
G1 X126.897 Y116.555 E6.36298
G1 X126.896 Y116.23 E6.37811
G1 X126.899 Y115.031 E6.43394
G1 X126.985 Y115.031 E6.43795
G1 X126.987 Y114.698 E6.45345
G0 F6000 X127.449 Y115.004
G1 F1200 X127.303 Y114.858 E6.46307
G0 F6000 X127.07 Y115.191
G1 F1200 X127.537 Y115.657 E6.49379
G0 F6000 X127.055 Y115.742
G1 F1200 X127.535 Y116.221 E6.52536
G0 F6000 X127.215 Y116.467
G1 F1200 X127.055 Y116.307 E6.5359
G0 F6000 X126.707 Y116.309
G1 F2700 E1.5359
;MESH:NONMESH
G0 F300 X126.707 Y116.309 Z0.56
G0 F6000 X126.616 Y116.308
G0 X126.325 Y114.455
G0 X105.798 Y112.486
;TIME_ELAPSED:21.335485
;LAYER:1
M106 S85
;TYPE:SUPPORT
G1 F2700 E6.5359
G1 F1126.6 X106.639 Y112.212 E6.57709
G1 X107.159 Y112.928 E6.61829
G1 X106.639 Y113.644 E6.6595
G1 X105.798 Y113.37 E6.70068
G1 X105.798 Y112.486 E6.74184
G1 F2700 E1.74184
G0 F7500 X108.315 Y114.61
G1 F2700 E6.74184
G1 F1126.6 X109.357 Y114.95 E6.79288
G1 X110.586 Y114.54 E6.85321
G1 X111.009 Y114.738 E6.87496
G1 X112.063 Y114.394 E6.92658
G1 X112.583 Y115.11 E6.96779
G1 X112.06 Y115.831 E7.00926
G1 X111.078 Y115.552 E7.0568
G1 X110.553 Y116.002 E7.089
G1 X109.479 Y115.652 E7.1416
G1 X108.314 Y116.041 E7.19879
G1 X107.795 Y115.326 E7.23993
G1 X108.315 Y114.61 E7.28113
G1 F2700 E2.28113
G0 F7500 X111.955 Y114.723
G1 F2700 E7.28113
G1 F1126.6 X110.991 Y115.039 E7.32837
G1 X110.569 Y114.841 E7.35008
G1 X109.358 Y115.245 E7.40952
G1 X108.423 Y114.939 E7.45533
G1 X108.141 Y115.327 E7.47766
G1 X108.419 Y115.71 E7.4997
G1 X109.478 Y115.357 E7.55168
G1 X110.49 Y115.687 E7.60125
G1 X111.01 Y115.241 E7.63314
G1 X111.948 Y115.509 E7.67857
G1 X112.237 Y115.111 E7.70147
G1 X112 Y114.785 E7.72024
G1 X112 Y115.438 E7.75065
G1 F2700 E2.75065
G0 F7500 X108.479 Y117.455
G1 F2700 E7.75065
G1 F1126.6 X108.479 Y118.364 E7.79297
G1 X107.578 Y118.657 E7.83709
G1 X106.669 Y118.199 E7.88449
G1 X106.409 Y117.472 E7.92044
G1 X106.479 Y117.276 E7.93013
G1 X107.127 Y117.316 E7.96036
G1 X107.252 Y117.111 E7.97154
G1 X106.894 Y116.507 E8.00423
G1 X107.446 Y116.899 E8.03576
G1 X108.479 Y117.455 E8.09039
G0 F7500 X108 Y118.226
G1 F1126.6 X108 Y117.514 E8.12354
G1 X108.199 Y117.621 E8.13406
G1 X108.199 Y118.161 E8.1592
G1 X107.601 Y118.355 E8.18848
G1 X106.894 Y117.999 E8.22534
G1 X106.742 Y117.573 E8.2464
G1 X107.278 Y117.606 E8.2714
G1 X107.498 Y117.244 E8.29113
G1 F2700 E3.29113
G0 F7500 X106.293 Y118.542
G1 F2700 E8.29113
G1 F1126.6 X106.929 Y119.416 E8.34146
G1 X107.631 Y120.129 E8.38805
G1 X108.185 Y120.494 E8.41894
G1 X108.348 Y120.994 E8.44343
G1 X108.183 Y121.499 E8.46817
G1 X107.75 Y121.814 E8.4931
G1 X107.247 Y121.814 E8.51653
G1 X106.646 Y121.097 E8.56009
G1 X105.945 Y120.114 E8.61631
G1 X105.42 Y119.773 E8.64546
G1 X105.328 Y118.802 E8.69088
G1 X106.293 Y118.542 E8.73741
G0 F7500 X105.257 Y118.289
G1 F1126.6 X105.144 Y118.634 E8.75432
G1 X105.231 Y118.726 E8.76021
G1 X104.22 Y118.998 E8.80896
G1 X103.679 Y118.253 E8.85184
G1 X104.241 Y117.479 E8.89638
G1 X104.669 Y117.479 E8.9163
G1 X105.257 Y118.289 E8.96291
G0 F7500 X106.179 Y118.862
G1 F1126.6 X105.629 Y119.01 E8.98943
G1 X105.686 Y119.612 E9.01759
G1 X106.142 Y119.908 E9.0429
G1 X106.87 Y120.93 E9.10133
G1 X107.377 Y121.534 E9.13805
G1 X107.658 Y121.534 E9.15114
G1 X107.945 Y121.325 E9.16767
G1 X108 Y121.158 E9.17586
G1 X108 Y120.829 E9.19118
G1 X107.95 Y120.675 E9.19871
G1 X107.452 Y120.346 E9.22651
G1 X107.111 Y120 E9.24913
G1 X106.206 Y120 E9.29127
G1 F2700 E4.29127
G0 F7500 X114.293 Y115.282
G1 F2700 E9.29127
G1 F1126.6 X114.293 Y114.398 E9.33243
G1 X115.2 Y114.103 E9.37684
G1 X115.9 Y114.41 E9.41243
G1 X116.478 Y113.99 E9.4457
G1 X117.238 Y113.99 E9.48109
G1 X117.349 Y112.922 E9.53109
G1 X117.773 Y112.613 E9.55552
G1 X118.319 Y112.613 E9.58094
G1 X118.763 Y112.936 E9.60651
G1 X119.143 Y114.121 E9.66446
G1 X118.535 Y114.957 E9.71259
G1 X117.84 Y115.149 E9.74617
G1 X117.928 Y116.372 E9.80326
G1 X117.755 Y116.903 E9.82927
G1 X117.322 Y117.218 E9.8542
G1 X116.792 Y117.218 E9.87888
G1 X116.361 Y116.905 E9.90368
G1 X116.087 Y115.989 E9.9482
G1 X115.975 Y115.032 E9.99307
G1 X115.734 Y114.951 E10.00491
G1 X115.153 Y115.562 E10.04417
G1 X114.293 Y115.282 E10.08628
G1 F2700 E5.08628
G0 F7500 X116.383 Y116
G1 F2700 E10.08628
G1 F1126.6 X117.621 Y116 E10.14393
G1 X117.645 Y116.337 E10.15966
G1 X117.517 Y116.729 E10.17886
G1 X117.23 Y116.938 E10.19539
G1 X116.884 Y116.938 E10.2115
G1 X116.602 Y116.734 E10.22771
G1 X116.361 Y115.926 E10.26697
G1 X116.233 Y114.823 E10.31868
G1 X116 Y114.745 E10.33012
G1 X116 Y114.683 E10.333
G1 X116.57 Y114.27 E10.36578
G1 X117.49 Y114.27 E10.40862
G1 X117.615 Y113.076 E10.46452
G1 X117.865 Y112.893 E10.47895
G1 X118.227 Y112.893 E10.4958
G1 F2700 E5.4958
G0 F7500 X120.133 Y113.813
G1 F2700 E10.4958
G1 F1126.6 X120.974 Y113.539 E10.53699
G1 X121.494 Y114.255 E10.5782
G1 X120.974 Y114.971 E10.6194
G1 X120.133 Y114.697 E10.66059
G1 X120.133 Y113.813 E10.70175
G1 F2700 E5.70175
G0 F7500 X122.824 Y113.769
G1 F2700 E10.70175
G1 F1126.6 X123.665 Y113.495 E10.74294
G1 X124.226 Y114.267 E10.78737
G1 X124.19 Y114.617 E10.80376
G1 X124.577 Y115.011 E10.82947
G1 X124.574 Y115.802 E10.86631
G1 X124.404 Y115.663 E10.87653
G1 X123.648 Y115.98 E10.9147
G1 X123.378 Y115.542 E10.93866
G1 X123.61 Y115.073 E10.96303
G1 X122.824 Y114.676 E11.00403
G1 X122.824 Y113.769 E11.04626
G0 F7500 X123.557 Y113.824
G1 F1126.6 X123.104 Y113.972 E11.06845
G1 X123.104 Y114.504 E11.09323
G1 X123.984 Y114.948 E11.13912
G1 X123.698 Y115.527 E11.16919
G1 X123.761 Y115.63 E11.17481
G1 X124.295 Y115.405 E11.2018
G1 X124.297 Y115.125 E11.21484
G1 X124 Y114.823 E11.23456
G1 X124 Y115.53 E11.26748
G0 F7500 X124.606 Y116.925
G1 F1126.6 X124.653 Y117.589 E11.29848
G1 X125.094 Y118.107 E11.33015
G1 X124.777 Y118.158 E11.3451
G1 X124.244 Y117.424 E11.38734
G1 X124.606 Y116.925 E11.41605
G1 F2700 E6.41605
G0 F7500 X129.443 Y118.18
G1 F2700 E11.41605
G1 F1126.6 X129.94 Y117.594 E11.45183
G1 X129.992 Y116.821 E11.4879
G1 X130.377 Y117.35 E11.51837
G1 X129.781 Y118.171 E11.56561
G1 X129.692 Y118.278 E11.57209
G1 X129.443 Y118.18 E11.58455
G1 F2700 E6.58455
G0 F7500 X126.851 Y111.75
G1 F2700 E11.58455
G1 F1126.6 X126.155 Y111.75 E11.61696
G1 X125.588 Y111.338 E11.64959
G1 X125.372 Y110.675 E11.68206
G1 X125.588 Y110.012 E11.71453
G1 X126.155 Y109.6 E11.74717
G1 X126.851 Y109.6 E11.77958
G1 X127.418 Y110.012 E11.81221
G1 X127.634 Y110.675 E11.84468
G1 X127.418 Y111.338 E11.87715
G1 X126.851 Y111.75 E11.90979
G1 F2700 E6.90979
;MESH:upper-robotic-arm.STL
G0 F7500 X126.851 Y113.795
G0 X126.179 Y114.308
;TYPE:WALL-INNER
G1 F2700 E11.90979
G1 F1126.6 X126.266 Y114.308 E11.91384
G1 X126.268 Y113.975 E11.92934
G1 X128.329 Y113.975 E12.02531
G1 X128.33 Y114.308 E12.04082
G1 X128.418 Y114.308 E12.04492
G1 X128.421 Y115.438 E12.09753
G1 X128.419 Y116.999 E12.17022
G1 X128.27 Y117.134 E12.17958
G1 X127.909 Y117.231 E12.19699
G1 X127.413 Y117.27 E12.22016
G1 X126.951 Y117.26 E12.24167
G1 X126.494 Y117.193 E12.26318
G1 X126.248 Y117.08 E12.27579
G1 X126.176 Y117.001 E12.28076
G1 X126.173 Y116.228 E12.31676
G1 X126.179 Y114.308 E12.40616
G0 F7500 X125.78 Y113.908
;TYPE:WALL-OUTER
G1 F1126.6 X125.868 Y113.908 E12.41026
G1 X125.87 Y113.575 E12.42577
G1 X128.728 Y113.575 E12.55885
G1 X128.729 Y113.908 E12.57435
G1 X128.817 Y113.908 E12.57845
G1 X128.821 Y115.438 E12.64969
G1 X128.819 Y117.123 E12.72815
G1 X128.757 Y117.225 E12.73371
G1 X128.569 Y117.421 E12.74636
G1 X128.437 Y117.499 E12.7535
G1 X128.2 Y117.583 E12.76521
G1 X127.961 Y117.628 E12.77653
G1 X127.693 Y117.658 E12.78909
G1 X127.431 Y117.67 E12.8013
G1 X127.184 Y117.671 E12.8128
G1 X126.924 Y117.66 E12.82492
G1 X126.671 Y117.633 E12.83677
G1 X126.39 Y117.58 E12.85008
G1 X126.151 Y117.497 E12.86186
G1 X125.986 Y117.386 E12.87112
G1 X125.792 Y117.175 E12.88447
G1 X125.776 Y117.12 E12.88714
G1 X125.773 Y116.227 E12.92872
G1 X125.78 Y113.908 E13.0367
G0 F7500 X126.656 Y114.365
;TYPE:SKIN
G1 F1126.6 X127.941 Y114.365 E13.09654
G1 X127.942 Y114.698 E13.11204
G1 X128.029 Y114.698 E13.11609
G1 X128.031 Y115.439 E13.1506
G1 X128.029 Y116.795 E13.21374
G1 X127.841 Y116.846 E13.22281
G1 X127.41 Y116.88 E13.24294
G1 X126.984 Y116.87 E13.26278
G1 X126.606 Y116.815 E13.28057
G1 X126.565 Y116.797 E13.28265
G1 X126.563 Y116.23 E13.30906
G1 X126.567 Y114.698 E13.38039
