;FLAVOR:Marlin
;TIME:220
;Filament used: 0.108211m
;Layer height: 0.28
;MINX:112.095
;MINY:112.638
;MINZ:0.28
;MAXX:122.901
;MAXY:122.735
;MAXZ:6.16
;Generated with Cura_SteamEngine 4.8.0
M140 S60
M105
M190 S60
M104 S200
M105
M109 S200
M82 ;absolute extrusion mode
; Ender 3 Custom Start G-code
M117 PRINT PRINT PRINT
G92 E0 ; Reset Extruder
G28 ; Home all axes
G1 Z2.0 F3000 ; Move Z Axis up little to prevent scratching of Heat Bed
G1 X0.1 Y20 Z0.3 F5000.0 ; Move to start position
G1 X0.1 Y200.0 Z0.3 F1500.0 E15 ; Draw the first line
G1 X0.4 Y200.0 Z0.3 F5000.0 ; Move to side a little
G1 X0.4 Y20 Z0.3 F1500.0 E30 ; Draw the second line
G92 E0 ; Reset Extruder
G1 Z2.0 F3000 ; Move Z Axis up little to prevent scratching of Heat Bed
G1 X5 Y20 Z0.3 F5000.0 ; Move over to prevent blob squish
G92 E0
G92 E0
G1 F2700 E-5
;LAYER_COUNT:22
;LAYER:0
M107
M204 S500
M205 X8 Y8
G0 F6000 X112.83 Y119.611 Z0.28
;TYPE:SUPPORT
G1 F2700 E0
G1 F1200 X113.266 Y120.299 E0.03793
G1 X113.306 Y120.409 E0.04338
G1 X114.215 Y121.843 E0.12244
G1 X113.659 Y121.966 E0.14895
G1 X112.967 Y121.375 E0.19133
G1 X112.518 Y120.207 E0.24959
G1 X112.83 Y119.611 E0.28092
G1 F2700 E-4.71908
;MESH:mahli-apxs-small.STL
G0 F6000 X114.567 Y119.75
G0 X116.281 Y121.787
G0 X121.063 Y121.962
;TYPE:WALL-INNER
G1 F2700 E0.28092
G1 F1200 X116.185 Y121.962 E0.50806
G1 X114.743 Y119.687 E0.63348
G1 X114.736 Y119.628 E0.63625
G1 X114.121 Y118.656 E0.6898
G1 X114.011 Y118.418 E0.70201
G1 X114.061 Y118.313 E0.70743
G1 X114.186 Y118.223 E0.7146
G1 X115.169 Y117.598 E0.76884
G1 X114.457 Y116.988 E0.8125
G1 X112.809 Y115.733 E0.90896
G1 X112.893 Y115.451 E0.92266
G1 X113.104 Y115.273 E0.93551
G1 X113.193 Y115.235 E0.94002
G1 X113.684 Y115.602 E0.96856
G1 X114.246 Y115.32 E0.99784
G1 X114.694 Y115.319 E1.0187
G1 X115.063 Y115.301 E1.0359
G1 X115.335 Y114.912 E1.05801
G1 X116.675 Y114.912 E1.1204
G1 X116.678 Y113.176 E1.20124
G1 X116.944 Y113.068 E1.2146
G1 X117.351 Y113.038 E1.23361
G1 X117.732 Y113.146 E1.25205
G1 X117.781 Y113.171 E1.25461
G1 X117.787 Y114.498 E1.3164
G1 X119.557 Y114.498 E1.39882
G1 X119.557 Y114.163 E1.41442
G1 X119.626 Y114.163 E1.41763
G1 X119.627 Y114.498 E1.43323
G1 X119.892 Y114.498 E1.44557
G1 X119.892 Y115.193 E1.47793
G1 X120.54 Y115.529 E1.51192
G1 X121.757 Y114.669 E1.58131
G1 X122.01 Y114.846 E1.59569
G1 X122.133 Y115.018 E1.60553
G1 X122.184 Y115.267 E1.61737
G1 X121.041 Y116.084 E1.68279
G1 X121.417 Y117.256 E1.7401
G1 X121.48 Y117.256 E1.74304
G1 X121.48 Y117.317 E1.74588
G1 X121.813 Y117.317 E1.76138
G1 X121.813 Y118.201 E1.80255
G1 X121.48 Y118.201 E1.81805
G1 X121.48 Y118.257 E1.82066
G1 X121.063 Y118.258 E1.84008
G1 X121.063 Y121.962 E2.01255
G0 F6000 X121.463 Y122.362
;TYPE:WALL-OUTER
G1 F1200 X115.965 Y122.362 E2.26856
G1 X114.356 Y119.824 E2.40849
G1 X114.349 Y119.765 E2.41125
G1 X113.963 Y119.155 E2.44487
G1 X113.942 Y119.169 E2.44604
G1 X113.842 Y118.974 E2.45625
G1 X113.641 Y118.624 E2.47504
G1 X113.604 Y118.408 E2.48525
G1 X113.646 Y118.214 E2.49449
G1 X113.769 Y118.032 E2.50472
G1 X113.971 Y117.885 E2.51635
G1 X114.498 Y117.55 E2.54543
G1 X114.205 Y117.299 E2.56339
G1 X112.388 Y115.915 E2.66975
G1 X112.4 Y115.736 E2.6781
G1 X112.464 Y115.431 E2.69261
G1 X112.555 Y115.23 E2.70289
G1 X112.72 Y115.043 E2.7145
G1 X112.917 Y114.918 E2.72536
G1 X113.247 Y114.777 E2.74207
G1 X113.725 Y115.134 E2.76985
G1 X113.946 Y115.023 E2.78137
G1 X113.946 Y114.921 E2.78612
G1 X114.684 Y114.919 E2.82048
G1 X114.848 Y114.911 E2.82813
G1 X115.087 Y114.569 E2.84756
G1 X115.101 Y114.512 E2.85029
G1 X116.276 Y114.512 E2.905
G1 X116.278 Y112.929 E2.97871
G1 X116.635 Y112.75 E2.99731
G1 X116.853 Y112.676 E3.00803
G1 X117.145 Y112.638 E3.02174
G1 X117.408 Y112.638 E3.03399
G1 X117.875 Y112.771 E3.0566
G1 X118.18 Y112.925 E3.07251
G1 X118.185 Y114.098 E3.12713
G1 X119.157 Y114.098 E3.17239
G1 X119.157 Y113.763 E3.18799
G1 X120.025 Y113.763 E3.22841
G1 X120.026 Y114.098 E3.244
G1 X120.292 Y114.098 E3.25639
G1 X120.292 Y114.95 E3.29606
G1 X120.508 Y115.062 E3.30739
G1 X121.708 Y114.214 E3.37581
G1 X121.862 Y114.272 E3.38348
G1 X122.156 Y114.429 E3.399
G1 X122.318 Y114.588 E3.40957
G1 X122.499 Y114.843 E3.42413
G1 X122.564 Y115.073 E3.43526
G1 X122.595 Y115.339 E3.44773
G1 X122.597 Y115.464 E3.45355
G1 X121.511 Y116.24 E3.5157
G1 X121.709 Y116.858 E3.54592
G1 X121.88 Y116.859 E3.55388
G1 X121.88 Y116.917 E3.55658
G1 X122.213 Y116.917 E3.57209
G1 X122.213 Y118.601 E3.6505
G1 X121.88 Y118.601 E3.66601
G1 X121.88 Y118.656 E3.66857
G1 X121.463 Y118.657 E3.68798
G1 X121.463 Y122.362 E3.8605
G0 F6000 X121.193 Y122.092
G0 X120.953 Y121.572
G0 X120.673 Y121.572
;TYPE:SKIN
G1 F1200 X116.399 Y121.572 E4.05952
G1 X115.12 Y119.555 E4.17073
G1 X115.113 Y119.494 E4.17359
G1 X114.482 Y118.496 E4.22857
G1 X115.822 Y117.645 E4.30249
G1 X114.702 Y116.684 E4.3712
G1 X113.786 Y115.987 E4.4248
G1 X114.339 Y115.71 E4.4536
G1 X114.704 Y115.709 E4.4706
G1 X115.273 Y115.681 E4.49712
G1 X115.539 Y115.302 E4.51868
G1 X117.065 Y115.302 E4.58974
G1 X117.068 Y113.449 E4.67602
G1 X117.393 Y113.455 E4.69116
G1 X117.399 Y114.888 E4.75789
G1 X119.502 Y114.888 E4.85581
G1 X119.502 Y115.431 E4.8811
G1 X120.571 Y115.985 E4.93716
G1 X120.595 Y115.968 E4.93853
G1 X121.09 Y117.515 E5.01416
G1 X121.09 Y117.707 E5.0231
G1 X121.423 Y117.707 E5.03861
G1 X121.423 Y117.811 E5.04345
G1 X121.09 Y117.811 E5.05896
G1 X121.09 Y117.867 E5.06157
G1 X120.673 Y117.868 E5.08098
G1 X120.673 Y121.572 E5.25346
G0 F6000 X120.953 Y121.572
G0 X116.885 Y121.852
G0 X116.885 Y121.41
G1 F1200 X115.793 Y120.319 E5.32533
G0 F6000 X115.422 Y120.553
G0 X114.531 Y119.098
G0 X114.903 Y118.863
G1 F1200 X117.451 Y121.41 E5.49309
G0 F6000 X118.016 Y121.41
G1 F1200 X114.976 Y118.371 E5.69325
G0 F6000 X115.322 Y118.151
G1 F1200 X118.582 Y121.41 E5.90789
G0 F6000 X119.148 Y121.41
G1 F1200 X115.669 Y117.931 E6.13699
G0 F6000 X116.015 Y117.712
G1 F1200 X119.713 Y121.41 E6.38051
G0 F6000 X120.279 Y121.41
G1 F1200 X114.735 Y115.867 E6.74556
G0 F6000 X114.24 Y115.937
G1 F1200 X115.213 Y116.91 E6.80963
G0 F6000 X114.926 Y117.245
G0 X113.013 Y115.666
G0 X115.128 Y115.419
G0 X115.274 Y115.84
G1 F1200 X120.512 Y121.078 E7.15456
G0 F6000 X120.512 Y120.512
G1 F1200 X115.555 Y115.555 E7.48099
G0 F6000 X116.027 Y115.462
G1 F1200 X120.512 Y119.947 E7.77633
G0 F6000 X120.512 Y119.381
G1 F1200 X116.593 Y115.462 E8.03441
G0 F6000 X117.159 Y115.462
G1 F1200 X120.512 Y118.815 E8.25521
G0 F6000 X120.512 Y118.25
G1 F1200 X117.31 Y115.047 E8.4661
G0 F6000 X117.876 Y115.047
G1 F1200 X120.535 Y117.707 E8.64123
G0 F6000 X120.927 Y117.533
G1 F1200 X118.441 Y115.047 E8.80494
G0 F6000 X119.007 Y115.047
G1 F1200 X119.341 Y115.381 E8.82693
G0 F6000 X119.646 Y115.686
G1 F1200 X120.662 Y116.702 E8.89384
G0 F6000 X120.838 Y116.03
;TYPE:SKIN
G1 F1200 X120.779 Y115.971 E8.89578
G0 F6000 X121.003 Y115.912
G1 F1200 X120.701 Y115.61 E8.90572
G0 F6000 X120.867 Y115.493
G1 F1200 X121.169 Y115.795 E8.91567
G0 F6000 X121.333 Y115.677
G1 F1200 X121.032 Y115.375 E8.92559
G0 F6000 X121.198 Y115.259
G1 F1200 X121.498 Y115.558 E8.93546
G0 F6000 X121.664 Y115.441
G1 F1200 X121.364 Y115.141 E8.94533
G0 F6000 X121.529 Y115.024
G1 F1200 X121.828 Y115.323 E8.95518
G0 F6000 X121.993 Y115.205
G1 F1200 X121.695 Y114.907 E8.96499
G0 F6000 X121.719 Y114.94
G1 F2700 E3.96499
;MESH:NONMESH
G0 F300 X121.719 Y114.94 Z0.56
G0 F6000 X121.669 Y114.867
G0 X120.059 Y115.477
G0 X119.71 Y114.68
G0 X117.606 Y114.68
G0 X117.603 Y113.295
G0 X117.332 Y113.211
G0 X116.855 Y113.296
G0 X116.857 Y115.094
G0 X115.426 Y115.087
G0 X114.287 Y115.492
G0 X113.177 Y115.447
G0 X113.013 Y115.666
G0 X115.482 Y117.621
G0 X114.213 Y118.425
G0 X114.138 Y119.058
G0 X112.802 Y119.903
;TIME_ELAPSED:20.113099
;LAYER:1
M106 S85
;TYPE:SUPPORT
G1 F2700 E8.96499
G1 F1270.4 X113.183 Y120.359 E8.99266
G1 X113.303 Y120.77 E9.0126
G1 X114.15 Y122.108 E9.08633
G1 X113.769 Y122.167 E9.10429
G1 X113.133 Y121.292 E9.15466
G1 X112.544 Y120.355 E9.20619
G1 X112.802 Y119.903 E9.23042
G1 F2700 E4.23042
;MESH:mahli-apxs-small.STL
G0 F7500 X114.582 Y120.138
G0 X116.049 Y121.787
G0 X121.063 Y121.962
;TYPE:WALL-INNER
G1 F2700 E9.23042
G1 F1270.4 X115.953 Y121.962 E9.46837
G1 X114.763 Y120.085 E9.57185
G1 X114.763 Y119.67 E9.59118
G1 X114.12 Y118.655 E9.64713
G1 X114.009 Y118.424 E9.65906
G1 X114.107 Y118.275 E9.66736
G1 X115.016 Y117.683 E9.71788
G1 X112.643 Y115.866 E9.85704
G1 X112.64 Y115.776 E9.86124
G1 X113.187 Y115.058 E9.90327
G1 X113.279 Y115.036 E9.90767
G1 X113.656 Y115.321 E9.92968
G1 X114.399 Y115.321 E9.96428
G1 X114.862 Y115.275 E9.98594
G1 X115.042 Y114.912 E10.00481
G1 X116.384 Y114.912 E10.0673
G1 X116.385 Y113.117 E10.15088
G1 X116.504 Y113.038 E10.15753
G1 X117.959 Y113.038 E10.22528
G1 X118.079 Y113.118 E10.232
G1 X118.08 Y114.496 E10.29616
G1 X119.297 Y114.496 E10.35283
G1 X119.297 Y114.163 E10.36834
G1 X119.892 Y114.163 E10.39604
G1 X119.892 Y115.509 E10.45872
G1 X120.81 Y115.082 E10.50586
G1 X121.672 Y114.47 E10.55509
G1 X121.762 Y114.495 E10.55944
G1 X122.353 Y115.327 E10.60696
G1 X122.349 Y115.411 E10.61087
G1 X121.395 Y116.094 E10.66551
G1 X121.659 Y116.925 E10.70611
G1 X121.813 Y116.926 E10.71328
G1 X121.813 Y118.59 E10.79076
G1 X121.063 Y118.591 E10.82568
G1 X121.063 Y121.962 E10.98265
G0 F7500 X121.463 Y122.362
;TYPE:WALL-OUTER
G1 F1270.4 X115.733 Y122.362 E11.24947
G1 X114.363 Y120.201 E11.36861
G1 X114.363 Y119.786 E11.38793
G1 X113.964 Y119.156 E11.42266
G1 X113.779 Y119.278 E11.43298
G1 X113.696 Y119.149 E11.44012
G1 X113.881 Y119.032 E11.45031
G1 X113.659 Y118.666 E11.47024
G1 X113.607 Y118.464 E11.47996
G1 X113.616 Y118.303 E11.48746
G1 X113.686 Y118.14 E11.49572
G1 X113.848 Y117.967 E11.50676
G1 X114.324 Y117.657 E11.53321
G1 X112.25 Y116.069 E11.65484
G1 X112.235 Y115.648 E11.67446
G1 X112.954 Y114.704 E11.72971
G1 X113.369 Y114.602 E11.74961
G1 X113.79 Y114.921 E11.77421
G1 X114.379 Y114.921 E11.80163
G1 X114.602 Y114.899 E11.81207
G1 X114.794 Y114.512 E11.83218
G1 X115.984 Y114.512 E11.8876
G1 X115.985 Y112.913 E11.96205
G1 X116.111 Y112.819 E11.96937
G1 X116.384 Y112.638 E11.98462
G1 X118.073 Y112.638 E12.06327
G1 X118.239 Y112.741 E12.07237
G1 X118.479 Y112.914 E12.08614
G1 X118.48 Y114.096 E12.14118
G1 X118.897 Y114.096 E12.1606
G1 X118.897 Y113.763 E12.17611
G1 X120.284 Y113.763 E12.24069
G1 X120.292 Y113.962 E12.24996
G1 X120.292 Y114.882 E12.2928
G1 X120.608 Y114.735 E12.30903
G1 X121.596 Y114.034 E12.36544
G1 X122.005 Y114.146 E12.38519
G1 X122.759 Y115.209 E12.44587
G1 X122.747 Y115.476 E12.45832
G1 X122.731 Y115.629 E12.46548
G1 X121.864 Y116.25 E12.51514
G1 X121.952 Y116.527 E12.52867
G1 X122.213 Y116.529 E12.54083
G1 X122.213 Y118.989 E12.65537
G1 X121.463 Y118.99 E12.6903
G1 X121.463 Y122.362 E12.84731
G0 F7500 X121.193 Y122.092
G0 X120.953 Y121.572
G0 X120.673 Y121.572
;TYPE:SKIN
G1 F1270.4 X116.167 Y121.572 E13.05713
G1 X115.153 Y119.972 E13.14533
G1 X115.153 Y119.557 E13.16466
G1 X114.482 Y118.496 E13.22311
G1 X115.691 Y117.709 E13.29029
G1 X113.144 Y115.757 E13.43971
G1 X113.305 Y115.545 E13.45211
G1 X113.525 Y115.711 E13.46494
G1 X114.418 Y115.711 E13.50652
G1 X115.116 Y115.642 E13.53918
G1 X115.284 Y115.302 E13.55684
G1 X116.774 Y115.302 E13.62622
G1 X116.775 Y113.428 E13.71348
G1 X117.689 Y113.428 E13.75604
G1 X117.69 Y114.886 E13.82393
G1 X119.502 Y114.886 E13.90831
G1 X119.502 Y116.121 E13.96581
G1 X121.007 Y115.421 E14.0431
G1 X121.628 Y114.98 E14.07857
G1 X121.848 Y115.289 E14.09623
G1 X120.937 Y115.942 E14.14842
G1 X121.373 Y117.313 E14.21541
G1 X121.423 Y117.313 E14.21774
G1 X121.423 Y118.2 E14.25904
G1 X120.673 Y118.201 E14.29397
G1 X120.673 Y121.572 E14.45093
G0 F7500 X120.136 Y121.41
G1 F1270.4 X120.512 Y121.035 E14.47566
G0 F7500 X120.512 Y120.469
G1 F1270.4 X119.571 Y121.41 E14.53763
G0 F7500 X119.005 Y121.41
G1 F1270.4 X120.512 Y119.904 E14.63683
G0 F7500 X120.512 Y119.338
G1 F1270.4 X118.439 Y121.41 E14.77331
G0 F7500 X117.873 Y121.41
G1 F1270.4 X120.512 Y118.772 E14.94706
G0 F7500 X120.512 Y118.207
G1 F1270.4 X117.308 Y121.41 E15.15802
G0 F7500 X116.742 Y121.41
G1 F1270.4 X121.116 Y117.037 E15.44602
G0 F7500 X121.253 Y117.465
G1 F1270.4 X120.677 Y118.041 E15.48395
G0 F7500 X120.923 Y118.451
G0 X121.631 Y118.408
G0 X121.631 Y117.107
G0 X121.401 Y116.475
G0 X120.979 Y116.608
G1 F1270.4 X116.225 Y121.362 E15.79701
G0 F7500 X116.005 Y121.016
G1 F1270.4 X120.842 Y116.179 E16.11553
G0 F7500 X120.732 Y115.724
G1 F1270.4 X115.785 Y120.67 E16.44127
G0 F7500 X115.566 Y120.324
G1 F1270.4 X119.674 Y116.216 E16.71179
G0 F7500 X119.341 Y115.983
G1 F1270.4 X115.347 Y119.977 E16.9748
G0 F7500 X115.288 Y119.47
G1 F1270.4 X119.341 Y115.418 E17.24166
G0 F7500 X119.147 Y115.046
G1 F1270.4 X115.069 Y119.124 E17.51021
G0 F7500 X114.85 Y118.777
G1 F1270.4 X115.804 Y117.823 E17.57303
G0 F7500 X115.934 Y117.693
G1 F1270.4 X118.581 Y115.046 E17.74734
G0 F7500 X118.016 Y115.046
G1 F1270.4 X115.614 Y117.448 E17.90551
G0 F7500 X115.294 Y117.202
G1 F1270.4 X117.528 Y114.967 E18.05266
G0 F7500 X117.528 Y114.402
G1 F1270.4 X116.933 Y114.997 E18.09184
G0 F7500 X116.934 Y114.431
G1 F1270.4 X117.528 Y113.837 E18.13096
G0 F7500 X117.211 Y113.588
G1 F1270.4 X116.934 Y113.865 E18.1492
G0 F7500 X116.495 Y113.864
G0 X116.469 Y115.022
G0 X116.469 Y115.461
G1 F1270.4 X114.974 Y116.956 E18.24765
G0 F7500 X114.653 Y116.711
G1 F1270.4 X115.903 Y115.461 E18.32996
G0 F7500 X114.984 Y115.814
G1 F1270.4 X114.333 Y116.466 E18.37286
G0 F7500 X114.013 Y116.22
G1 F1270.4 X114.363 Y115.87 E18.39591
G0 F7500 X113.797 Y115.87
G1 F1270.4 X113.692 Y115.975 E18.40283
G0 F7500 X113.478 Y116.254
G1 F2700 E13.40283
;MESH:NONMESH
G0 F300 X113.478 Y116.254 Z0.84
G0 F7500 X113.424 Y116.324
G0 X114.64 Y117.647
G0 X112.739 Y120.127
;TIME_ELAPSED:35.097474
;LAYER:2
M106 S170
;TYPE:SUPPORT
G1 F2700 E18.40283
G1 F1298.2 X112.966 Y120.449 E18.42117
G1 X112.989 Y120.5 E18.42378
G1 X112.791 Y120.386 E18.43442
G1 X112.739 Y120.127 E18.44672
G0 F9000 X113.432 Y121.342
G1 F1298.2 X114.08 Y122.362 E18.50299
G1 X113.875 Y122.371 E18.51254
G1 X113.315 Y121.601 E18.55687
G1 X113.432 Y121.342 E18.57011
G1 F2700 E13.57011
;MESH:mahli-apxs-small.STL
G0 F9000 X114.615 Y120.592
G0 X115.136 Y120.702
G0 X115.817 Y121.787
G0 X121.063 Y121.962
;TYPE:WALL-INNER
G1 F2700 E18.57011
G1 F1298.2 X115.721 Y121.962 E18.81885
G1 X114.735 Y120.407 E18.90459
G1 X114.763 Y120.34 E18.90797
G1 X114.763 Y119.67 E18.93917
G1 X114.103 Y118.626 E18.99668
G1 X114.013 Y118.436 E19.00647
G1 X114.053 Y118.326 E19.01192
G1 X114.164 Y118.236 E19.01858
G1 X114.918 Y117.751 E19.06032
G1 X112.553 Y115.945 E19.19888
G1 X112.548 Y115.897 E19.20113
G1 X113.281 Y114.935 E19.25745
G1 X113.326 Y114.928 E19.25957
G1 X113.852 Y115.324 E19.29023
G1 X114.695 Y115.312 E19.32948
G1 X114.867 Y114.912 E19.34976
G1 X116.184 Y114.912 E19.41108
G1 X116.183 Y113.093 E19.49578
G1 X116.249 Y113.038 E19.49978
G1 X118.212 Y113.038 E19.59119
G1 X118.275 Y113.089 E19.59496
G1 X118.278 Y113.427 E19.6107
G1 X118.267 Y114.163 E19.64498
G1 X120.009 Y114.163 E19.72609
G1 X120.012 Y114.701 E19.75114
G1 X120.658 Y115.035 E19.78501
G1 X121.623 Y114.355 E19.83998
G1 X121.668 Y114.364 E19.84211
G1 X122.442 Y115.454 E19.90436
G1 X122.435 Y115.502 E19.90662
G1 X121.813 Y115.945 E19.94218
G1 X121.813 Y118.846 E20.07726
G1 X121.063 Y118.847 E20.11219
G1 X121.063 Y121.962 E20.25723
G0 F9000 X121.463 Y122.362
;TYPE:WALL-OUTER
G1 F1298.2 X115.501 Y122.362 E20.53485
G1 X114.284 Y120.443 E20.64066
G1 X114.363 Y120.258 E20.65003
G1 X114.363 Y119.786 E20.67201
G1 X113.966 Y119.159 E20.70656
G1 X113.612 Y119.384 E20.72609
G1 X113.529 Y119.255 E20.73324
G1 X113.879 Y119.033 E20.75254
G1 X113.654 Y118.655 E20.77302
G1 X113.606 Y118.453 E20.78269
G1 X113.635 Y118.252 E20.79214
G1 X113.742 Y118.064 E20.80222
G1 X113.929 Y117.911 E20.81347
G1 X114.222 Y117.723 E20.82968
G1 X112.174 Y116.159 E20.94967
G1 X112.132 Y115.782 E20.96733
G1 X113.06 Y114.565 E21.03859
G1 X113.431 Y114.506 E21.05609
G1 X113.983 Y114.922 E21.08827
G1 X114.43 Y114.916 E21.10909
G1 X114.604 Y114.512 E21.12957
G1 X115.784 Y114.512 E21.18452
G1 X115.783 Y112.906 E21.2593
G1 X116.105 Y112.638 E21.27881
G1 X118.352 Y112.638 E21.38344
