;FLAVOR:Marlin
;TIME:884
;Filament used: 0.436081m
;Layer height: 0.28
;MINX:88.75
;MINY:107.201
;MINZ:0.28
;MAXX:146.25
;MAXY:127.799
;MAXZ:10.92
;Generated with Cura_SteamEngine 4.8.0
M140 S60
M105
M190 S60
M104 S200
M105
M109 S200
M82 ;absolute extrusion mode
; Ender 3 Custom Start G-code
M117 PRINT PRINT PRINT
G92 E0 ; Reset Extruder
G28 ; Home all axes
G1 Z2.0 F3000 ; Move Z Axis up little to prevent scratching of Heat Bed
G1 X0.1 Y20 Z0.3 F5000.0 ; Move to start position
G1 X0.1 Y200.0 Z0.3 F1500.0 E15 ; Draw the first line
G1 X0.4 Y200.0 Z0.3 F5000.0 ; Move to side a little
G1 X0.4 Y20 Z0.3 F1500.0 E30 ; Draw the second line
G92 E0 ; Reset Extruder
G1 Z2.0 F3000 ; Move Z Axis up little to prevent scratching of Heat Bed
G1 X5 Y20 Z0.3 F5000.0 ; Move over to prevent blob squish
G92 E0
G92 E0
G1 F2700 E-5
;LAYER_COUNT:39
;LAYER:0
M107
M204 S500
M205 X8 Y8
G0 F6000 X120.022 Y113.343 Z0.28
;TYPE:SUPPORT
G1 F2700 E0
G1 F1200 X120.476 Y113.013 E0.02613
G1 X121.456 Y112.895 E0.0721
G1 X121.49 Y112.792 E0.07715
G1 X122.302 Y113.512 E0.12768
G1 X122.107 Y113.527 E0.13679
G1 X121.737 Y113.259 E0.15806
G1 X121.525 Y113.355 E0.1689
G1 X121.435 Y114.398 E0.21764
G1 X121.012 Y114.706 E0.24201
G1 X120.466 Y114.706 E0.26743
G1 X120.022 Y114.383 E0.293
G1 X119.852 Y113.863 E0.31847
G1 X120.022 Y113.343 E0.34395
G1 F2700 E-4.65605
;MESH:legs-left.STL
G0 F6000 X122.506 Y120.217
G0 X116.046 Y123.383
G0 X114.462 Y123.95
G0 X114.107 Y126.141
G0 X114.104 Y126.48
G0 X113.359 Y126.67
;TYPE:WALL-INNER
G1 F2700 E0.34395
G1 F1200 X113.07 Y126.911 E0.36147
G1 X112.629 Y127.159 E0.38503
G1 X112.148 Y127.322 E0.40868
G1 X111.636 Y127.395 E0.43276
G1 X111.139 Y127.375 E0.45592
G1 X110.63 Y127.258 E0.48024
G1 X110.164 Y127.055 E0.50391
G1 X109.741 Y126.77 E0.52766
G1 X109.643 Y126.672 E0.53411
G1 X109.78 Y126.407 E0.548
G1 X109.165 Y125.521 E0.59823
G1 X108.912 Y125.6 E0.61057
G1 X108.876 Y125.519 E0.61469
G1 X108.753 Y125.011 E0.63903
G1 X108.749 Y124.969 E0.641
G1 X108.709 Y124.027 E0.6849
G1 X108.161 Y123.898 E0.71111
G1 X91.746 Y119.792 E1.49902
G1 X91.487 Y120.174 E1.52051
G1 X91.3 Y120.364 E1.53292
G1 X91.045 Y120.524 E1.54694
G1 X90.74 Y120.623 E1.56187
G1 X90.418 Y120.644 E1.57689
G1 X90.108 Y120.584 E1.5916
G1 X89.82 Y120.449 E1.60641
G1 X89.575 Y120.246 E1.62122
G1 X89.386 Y119.987 E1.63615
G1 X89.27 Y119.691 E1.65096
G1 X89.23 Y119.375 E1.66579
G1 X89.27 Y119.061 E1.68053
G1 X89.387 Y118.763 E1.69543
G1 X89.577 Y118.502 E1.71047
G1 X89.822 Y118.299 E1.72528
G1 X90.397 Y118.014 E1.75517
G1 X90.397 Y110.659 E2.09764
G1 X89.772 Y110.383 E2.12946
G1 X89.722 Y110.351 E2.13222
G1 X89.501 Y110.154 E2.14601
G1 X89.306 Y109.872 E2.16197
G1 X89.194 Y109.576 E2.17671
G1 X89.154 Y109.247 E2.19214
G1 X89.194 Y108.927 E2.20716
G1 X89.309 Y108.625 E2.22221
G1 X89.492 Y108.359 E2.23724
G1 X89.735 Y108.144 E2.25235
G1 X90.029 Y107.991 E2.26778
G1 X90.337 Y107.915 E2.28255
G1 X90.664 Y107.915 E2.29778
G1 X90.976 Y107.992 E2.31274
G1 X91.264 Y108.143 E2.32789
G1 X91.506 Y108.358 E2.34296
G1 X91.695 Y108.633 E2.3585
G1 X91.806 Y108.926 E2.37309
G1 X91.846 Y109.254 E2.38847
G1 X91.806 Y109.573 E2.40344
G1 X91.693 Y109.872 E2.41833
G1 X91.506 Y110.143 E2.43366
G1 X91.244 Y110.374 E2.44992
G1 X90.603 Y110.699 E2.48339
G1 X90.603 Y118.029 E2.8247
G1 X91.075 Y118.242 E2.84882
G1 X91.29 Y118.379 E2.86069
G1 X91.311 Y118.396 E2.86194
G1 X91.503 Y118.599 E2.87496
G1 X91.558 Y118.685 E2.87971
G1 X91.69 Y118.926 E2.8925
G1 X91.698 Y118.95 E2.89368
G1 X91.857 Y119.609 E2.92525
G1 X108.797 Y123.846 E3.73834
G1 X108.904 Y123.633 E3.74944
G1 X109.178 Y123.715 E3.76276
G1 X109.532 Y123.183 E3.79252
G1 X109.775 Y122.882 E3.81053
G1 X109.632 Y122.583 E3.82596
G1 X109.966 Y122.316 E3.84587
G1 X110.411 Y122.076 E3.86942
G1 X110.873 Y121.925 E3.89205
G1 X111.357 Y121.857 E3.91481
G1 X111.857 Y121.876 E3.93811
G1 X112.324 Y121.978 E3.96036
G1 X112.791 Y122.172 E3.98391
G1 X113.204 Y122.44 E4.00684
G1 X113.367 Y122.591 E4.01718
G1 X113.228 Y122.887 E4.03241
G1 X113.879 Y123.684 E4.08033
G1 X114.577 Y123.434 E4.11485
G1 X114.592 Y123.397 E4.11671
G1 X127.482 Y118.737 E4.75494
G1 X127.488 Y118.014 E4.78861
G1 X127.586 Y117.662 E4.80562
G1 X127.72 Y117.391 E4.8197
G1 X128.029 Y116.976 E4.84379
G1 X128.4 Y116.772 E4.86351
G1 X128.756 Y116.646 E4.88109
G1 X129.125 Y116.605 E4.89838
G1 X129.496 Y116.646 E4.91576
G1 X129.838 Y116.767 E4.93265
G1 X130.152 Y116.964 E4.94991
G1 X130.409 Y117.221 E4.96684
G1 X130.609 Y117.543 E4.98449
G1 X130.74 Y117.919 E5.00303
G1 X130.798 Y118.195 E5.01616
G1 X130.738 Y118.591 E5.03481
G1 X130.606 Y118.969 E5.05345
G1 X130.413 Y119.277 E5.07038
G1 X130.152 Y119.538 E5.08757
G1 X129.838 Y119.735 E5.10483
G1 X129.496 Y119.856 E5.12172
G1 X129.125 Y119.897 E5.1391
G1 X128.756 Y119.856 E5.15639
G1 X128.413 Y119.735 E5.17332
G1 X128.077 Y119.522 E5.19185
G1 X128.062 Y119.509 E5.19277
G1 X127.83 Y119.271 E5.20825
G1 X127.581 Y118.921 E5.22825
G1 X114.156 Y123.773 E5.89295
G1 X114.254 Y124.316 E5.91864
G1 X114.271 Y124.672 E5.93524
G1 X114.265 Y124.784 E5.94046
G1 X114.203 Y125.247 E5.96221
G1 X114.082 Y125.609 E5.97998
G1 X113.776 Y125.53 E5.9947
G1 X113.514 Y126.002 E6.01984
G1 X113.215 Y126.364 E6.0417
G1 X113.359 Y126.67 E6.05745
G0 F6000 X114.036 Y125.208
G0 X114.851 Y123.015
G0 X127.215 Y118.549
G0 X127.717 Y116.941
G0 X120.166 Y110.001
G1 F1200 X119.761 Y110.362 E6.08271
G1 X119.478 Y110.509 E6.09756
G1 X119.162 Y110.587 E6.11272
G1 X118.836 Y110.587 E6.1279
G1 X118.524 Y110.51 E6.14286
G1 X118.236 Y110.359 E6.158
G1 X117.994 Y110.144 E6.17308
G1 X117.805 Y109.869 E6.18861
G1 X117.694 Y109.576 E6.2032
G1 X117.654 Y109.247 E6.21863
G1 X117.694 Y108.927 E6.23365
G1 X117.809 Y108.625 E6.2487
G1 X117.992 Y108.359 E6.26373
G1 X118.235 Y108.144 E6.27884
G1 X118.529 Y107.991 E6.29427
G1 X118.837 Y107.915 E6.30905
G1 X119.164 Y107.915 E6.32427
G1 X119.476 Y107.992 E6.33924
G1 X119.764 Y108.143 E6.35438
G1 X120.006 Y108.358 E6.36945
G1 X120.194 Y108.63 E6.38485
G1 X120.305 Y108.928 E6.39966
G1 X120.345 Y109.261 E6.41527
G1 X120.303 Y109.592 E6.43081
G1 X120.166 Y110.001 E6.45089
G1 F2700 E1.45089
G0 F6000 X127.87 Y116.757
G0 X130.314 Y116.757
G0 X131.067 Y118.161
G0 X143.102 Y118.742
G0 X144.218 Y117.817
G0 X144.298 Y110.61
G1 F2700 E6.45089
G1 F1200 X144.044 Y110.521 E6.46343
G1 X143.736 Y110.359 E6.47963
G1 X143.494 Y110.144 E6.4947
G1 X143.305 Y109.869 E6.51024
G1 X143.194 Y109.576 E6.52483
G1 X143.154 Y109.247 E6.54026
G1 X143.194 Y108.927 E6.55528
G1 X143.309 Y108.625 E6.57033
G1 X143.492 Y108.359 E6.58536
G1 X143.735 Y108.144 E6.60047
G1 X144.029 Y107.991 E6.6159
G1 X144.337 Y107.915 E6.63067
G1 X144.664 Y107.915 E6.6459
G1 X144.976 Y107.992 E6.66087
G1 X145.264 Y108.143 E6.67601
G1 X145.506 Y108.358 E6.69108
G1 X145.695 Y108.633 E6.70662
G1 X145.806 Y108.926 E6.72121
G1 X145.846 Y109.254 E6.73659
G1 X145.806 Y109.573 E6.75156
G1 X145.692 Y109.875 E6.7666
G1 X145.506 Y110.145 E6.78186
G1 X145.266 Y110.358 E6.7968
G1 X144.975 Y110.51 E6.81209
G1 X144.641 Y110.592 E6.82811
G1 X144.298 Y110.61 E6.8441
G0 F6000 X144.304 Y118.26
G0 X143.743 Y118.579
G0 X143.405 Y119.108
G0 X143.436 Y119.644
G0 X143.67 Y120.075
G0 X144.418 Y120.644
G1 F1200 X144.108 Y120.584 E6.8588
G1 X143.823 Y120.45 E6.87347
G1 X143.572 Y120.242 E6.88865
G1 X143.385 Y119.984 E6.90348
G1 X143.27 Y119.69 E6.91818
G1 X143.226 Y119.344 E6.93442
G1 X143.235 Y119.063 E6.94751
G1 X143.443 Y118.669 E6.96826
G1 X143.623 Y118.456 E6.98125
G1 X143.841 Y118.288 E6.99406
G1 X144.273 Y118.085 E7.01629
G1 X144.734 Y118.125 E7.03783
G1 X145.04 Y118.226 E7.05284
G1 X145.313 Y118.399 E7.06789
G1 X145.529 Y118.631 E7.08265
G1 X145.679 Y118.903 E7.09711
G1 X145.76 Y119.22 E7.11235
G1 X145.76 Y119.532 E7.12688
G1 X145.68 Y119.847 E7.14201
G1 X145.531 Y120.119 E7.15645
G1 X145.308 Y120.356 E7.1716
G1 X145.039 Y120.526 E7.18642
G1 X144.74 Y120.623 E7.20106
G1 X144.418 Y120.644 E7.21608
G1 F2700 E2.21608
G0 F6000 X143.014 Y119.752
G0 X142.966 Y118.974
G0 X131.043 Y118.4
G0 X129.551 Y120.113
G0 X127.478 Y119.241
G0 X114.462 Y123.95
G0 X113.964 Y125.392
G0 X113.139 Y126.621
G0 X112.559 Y127.002
G0 X112.109 Y127.155
G0 X111.627 Y127.223
G0 X111.163 Y127.205
G0 X110.685 Y127.095
G0 X110.243 Y126.903
G0 X109.865 Y126.635
G0 X109.162 Y125.986
G0 X108.906 Y126.08
G0 X108.724 Y126.16
;TYPE:WALL-OUTER
G1 F2700 E7.21608
G1 F1200 X108.495 Y125.646 E7.24229
G1 X108.358 Y125.08 E7.2694
G1 X108.349 Y124.989 E7.27366
G1 X108.322 Y124.347 E7.30358
G1 X108.064 Y124.286 E7.31593
G1 X91.92 Y120.248 E8.09082
G1 X91.802 Y120.422 E8.10061
G1 X91.624 Y120.612 E8.11273
G1 X91.536 Y120.688 E8.11814
G1 X91.218 Y120.888 E8.13564
G1 X90.815 Y121.019 E8.15537
G1 X90.392 Y121.046 E8.1751
G1 X89.984 Y120.968 E8.19445
G1 X89.604 Y120.789 E8.21401
G1 X89.281 Y120.521 E8.23355
G1 X89.033 Y120.181 E8.25314
G1 X88.879 Y119.79 E8.27271
G1 X88.826 Y119.375 E8.29219
G1 X88.879 Y118.962 E8.31158
G1 X89.033 Y118.571 E8.33115
G1 X89.285 Y118.225 E8.35108
G1 X89.603 Y117.962 E8.3703
G1 X89.997 Y117.766 E8.39079
G1 X89.997 Y110.92 E8.70957
G1 X89.58 Y110.736 E8.73079
G1 X89.479 Y110.669 E8.73643
G1 X89.208 Y110.429 E8.75329
G1 X89.192 Y110.411 E8.75441
G1 X88.949 Y110.059 E8.77433
G1 X88.803 Y109.671 E8.79363
G1 X88.751 Y109.247 E8.81352
G1 X88.803 Y108.832 E8.833
G1 X88.952 Y108.438 E8.85261
G1 X89.192 Y108.09 E8.8723
G1 X89.507 Y107.812 E8.89186
G1 X89.884 Y107.615 E8.91167
G1 X90.29 Y107.515 E8.93114
G1 X90.711 Y107.515 E8.95074
G1 X91.12 Y107.616 E8.97036
G1 X91.492 Y107.811 E8.98991
G1 X91.811 Y108.094 E9.00977
G1 X92.051 Y108.443 E9.02949
G1 X92.197 Y108.831 E9.0488
G1 X92.249 Y109.255 E9.06869
G1 X92.197 Y109.67 E9.08816
G1 X92.049 Y110.061 E9.10763
G1 X91.809 Y110.41 E9.12735
G1 X91.489 Y110.693 E9.14725
G1 X91.43 Y110.729 E9.15046
G1 X91.003 Y110.945 E9.17275
G1 X91.003 Y117.771 E9.49059
G1 X91.268 Y117.891 E9.50414
G1 X91.523 Y118.053 E9.51821
G1 X91.579 Y118.097 E9.52152
G1 X91.82 Y118.353 E9.53789
G1 X91.901 Y118.48 E9.54491
G1 X92.059 Y118.767 E9.56016
G1 X92.084 Y118.843 E9.56389
G1 X92.189 Y119.28 E9.58482
G1 X108.583 Y123.38 E10.3717
G1 X108.724 Y123.099 E10.38634
G1 X108.724 Y123.162 E10.38927
G1 X109.009 Y123.247 E10.40312
G1 X109.209 Y122.946 E10.41995
G1 X109.305 Y122.827 E10.42707
G1 X109.196 Y122.6 E10.43879
G1 X109.069 Y122.6 E10.44471
G1 X109.3 Y122.337 E10.46101
G1 X109.745 Y121.981 E10.48754
G1 X110.251 Y121.708 E10.51432
G1 X110.784 Y121.534 E10.54042
G1 X111.338 Y121.456 E10.56647
G1 X111.907 Y121.477 E10.59299
G1 X112.443 Y121.594 E10.61853
G1 X112.977 Y121.816 E10.64546
G1 X113.451 Y122.124 E10.67178
G1 X113.867 Y122.51 E10.69821
G1 X113.939 Y122.6 E10.70358
G1 X113.805 Y122.6 E10.70981
G1 X113.697 Y122.829 E10.7216
G1 X114.01 Y123.212 E10.74464
G1 X114.276 Y123.117 E10.75779
G1 X114.291 Y123.081 E10.7596
G1 X127.084 Y118.455 E11.39305
G1 X127.088 Y117.96 E11.4161
G1 X127.212 Y117.515 E11.43761
G1 X127.377 Y117.181 E11.45496
G1 X127.723 Y116.717 E11.48191
G1 X120.461 Y110.274 E11.93396
G1 X119.991 Y110.693 E11.96328
G1 X119.621 Y110.885 E11.98269
G1 X119.21 Y110.987 E12.00241
G1 X118.789 Y110.987 E12.02201
G1 X118.38 Y110.886 E12.04163
G1 X118.008 Y110.691 E12.06119
G1 X117.689 Y110.408 E12.08104
G1 X117.449 Y110.059 E12.10077
G1 X117.303 Y109.671 E12.12007
G1 X117.251 Y109.247 E12.13996
G1 X117.303 Y108.832 E12.15944
G1 X117.452 Y108.438 E12.17905
G1 X117.692 Y108.09 E12.19874
G1 X118.007 Y107.812 E12.2183
G1 X118.384 Y107.615 E12.23811
G1 X118.79 Y107.515 E12.25758
G1 X119.211 Y107.515 E12.27718
G1 X119.62 Y107.616 E12.2968
G1 X119.992 Y107.811 E12.31635
G1 X120.311 Y108.094 E12.33621
G1 X120.551 Y108.443 E12.35593
G1 X120.696 Y108.831 E12.37522
G1 X120.748 Y109.263 E12.39548
G1 X120.695 Y109.68 E12.41506
G1 X120.56 Y110.083 E12.43485
G1 X127.889 Y116.596 E12.8914
G1 X128.231 Y116.408 E12.90957
G1 X128.669 Y116.253 E12.9312
G1 X129.125 Y116.202 E12.95257
G1 X129.581 Y116.253 E12.97393
G1 X130.017 Y116.406 E12.99545
G1 X130.403 Y116.649 E13.01669
G1 X130.724 Y116.97 E13.03783
G1 X130.973 Y117.37 E13.05977
G1 X131.127 Y117.812 E13.08156
G1 X131.174 Y118.037 E13.09227
G1 X142.873 Y118.893 E13.63848
G1 X143.11 Y118.443 E13.66216
G1 X143.344 Y118.166 E13.67904
G1 X143.631 Y117.945 E13.69591
G1 X144.085 Y117.732 E13.71926
G1 X144.085 Y110.959 E14.03464
G1 X143.883 Y110.888 E14.04461
G1 X143.508 Y110.691 E14.06433
G1 X143.189 Y110.408 E14.08419
G1 X142.949 Y110.059 E14.10391
G1 X142.803 Y109.671 E14.12322
G1 X142.751 Y109.247 E14.14311
G1 X142.803 Y108.832 E14.16258
G1 X142.952 Y108.438 E14.1822
G1 X143.192 Y108.09 E14.20188
G1 X143.507 Y107.812 E14.22145
G1 X143.884 Y107.615 E14.24125
G1 X144.29 Y107.515 E14.26072
G1 X144.711 Y107.515 E14.28033
G1 X145.12 Y107.616 E14.29994
G1 X145.492 Y107.811 E14.3195
G1 X145.811 Y108.094 E14.33936
G1 X146.051 Y108.443 E14.35908
G1 X146.197 Y108.831 E14.37838
G1 X146.249 Y109.255 E14.39827
G1 X146.197 Y109.67 E14.41775
G1 X146.049 Y110.061 E14.43722
G1 X145.807 Y110.412 E14.45707
G1 X145.493 Y110.69 E14.4766
G1 X145.119 Y110.886 E14.49626
G1 X144.699 Y110.989 E14.5164
G1 X144.285 Y111.011 E14.5357
G1 X144.285 Y117.685 E14.84647
G1 X144.813 Y117.73 E14.87114
G1 X145.213 Y117.862 E14.89076
G1 X145.569 Y118.088 E14.91039
G1 X145.855 Y118.394 E14.9299
G1 X146.055 Y118.757 E14.9492
G1 X146.16 Y119.168 E14.96895
G1 X146.16 Y119.584 E14.98832
G1 X146.055 Y119.995 E15.00807
G1 X145.855 Y120.358 E15.02737
G1 X145.566 Y120.666 E15.04704
G1 X145.212 Y120.89 E15.06654
G1 X144.815 Y121.019 E15.08598
G1 X144.392 Y121.046 E15.10572
G1 X143.984 Y120.968 E15.12506
G1 X143.604 Y120.789 E15.14462
G1 X143.278 Y120.518 E15.16436
G1 X143.033 Y120.18 E15.1838
G1 X142.879 Y119.788 E15.20341
G1 X142.825 Y119.362 E15.2234
G1 X142.834 Y119.092 E15.23598
G1 X131.196 Y118.24 E15.77935
G1 X131.127 Y118.692 E15.80064
G1 X130.97 Y119.141 E15.82279
G1 X130.727 Y119.529 E15.8441
G1 X130.403 Y119.853 E15.86544
G1 X130.017 Y120.096 E15.88668
G1 X129.581 Y120.249 E15.90819
G1 X129.125 Y120.3 E15.92956
G1 X128.669 Y120.249 E15.95093
G1 X128.236 Y120.096 E15.97231
G1 X127.843 Y119.847 E15.99397
G1 X127.791 Y119.803 E15.99714
G1 X127.52 Y119.525 E16.01522
G1 X127.431 Y119.4 E16.02237
G1 X114.61 Y124.034 E16.65717
G1 X114.653 Y124.271 E16.66838
G1 X114.671 Y124.664 E16.6867
G1 X114.663 Y124.821 E16.69402
G1 X114.593 Y125.342 E16.7185
G1 X114.408 Y125.898 E16.74578
G1 X114.276 Y126.138 E16.75854
G1 X114.276 Y126.071 E16.76166
G1 X113.976 Y125.994 E16.77608
G1 X113.847 Y126.227 E16.78848
G1 X113.685 Y126.423 E16.80032
G1 X113.793 Y126.652 E16.81211
G1 X113.926 Y126.652 E16.8183
G1 X113.756 Y126.859 E16.83078
G1 X113.296 Y127.243 E16.85868
G1 X112.792 Y127.526 E16.88559
G1 X112.244 Y127.712 E16.91254
G1 X111.655 Y127.796 E16.94024
G1 X111.086 Y127.774 E16.96676
G1 X110.506 Y127.64 E16.99448
G1 X109.972 Y127.408 E17.02159
G1 X109.484 Y127.078 E17.04902
G1 X109.068 Y126.665 E17.07632
G1 X109.202 Y126.652 E17.08258
G1 X109.314 Y126.437 E17.09387
G1 X109.004 Y125.991 E17.11916
G1 X108.724 Y126.079 E17.13283
G1 X108.724 Y126.16 E17.1366
G0 F6000 X108.906 Y126.08
G0 X108.905 Y125.173
G0 X109.177 Y125.108
;TYPE:SKIN
G1 F1200 X109.139 Y124.948 E17.14426
G1 X109.103 Y124.107 E17.18346
G1 X109.342 Y124.171 E17.19498
G1 X109.852 Y123.408 E17.23771
G1 X110.233 Y122.935 E17.26599
G1 X110.117 Y122.694 E17.27845
G1 X110.182 Y122.642 E17.28232
G1 X110.563 Y122.437 E17.30247
G1 X110.964 Y122.306 E17.32211
G1 X111.374 Y122.249 E17.34139
G1 X111.808 Y122.264 E17.36161
G1 X112.207 Y122.351 E17.38062
G1 X112.607 Y122.518 E17.40081
G1 X112.886 Y122.699 E17.41629
G1 X112.77 Y122.943 E17.42887
G1 X113.751 Y124.144 E17.50108
G1 X113.822 Y124.119 E17.50459
G1 X113.866 Y124.359 E17.51595
G1 X113.88 Y124.671 E17.53049
G1 X113.875 Y124.76 E17.53464
G1 X113.825 Y125.14 E17.55249
G1 X113.581 Y125.077 E17.56422
G1 X113.189 Y125.784 E17.60187
G1 X112.757 Y126.306 E17.63342
G1 X112.878 Y126.563 E17.64664
G1 X112.846 Y126.59 E17.64859
G1 X112.468 Y126.802 E17.66877
G1 X112.059 Y126.941 E17.68889
G1 X111.618 Y127.003 E17.70963
G1 X111.189 Y126.987 E17.72962
G1 X110.751 Y126.886 E17.75055
G1 X110.357 Y126.714 E17.77056
