;FLAVOR:Marlin
;TIME:884
;Filament used: 0.435956m
;Layer height: 0.28
;MINX:88.75
;MINY:107.201
;MINZ:0.28
;MAXX:146.25
;MAXY:127.799
;MAXZ:10.92
;Generated with Cura_SteamEngine 4.8.0
M140 S60
M105
M190 S60
M104 S200
M105
M109 S200
M82 ;absolute extrusion mode
; Ender 3 Custom Start G-code
M117 PRINT PRINT PRINT
G92 E0 ; Reset Extruder
G28 ; Home all axes
G1 Z2.0 F3000 ; Move Z Axis up little to prevent scratching of Heat Bed
G1 X0.1 Y20 Z0.3 F5000.0 ; Move to start position
G1 X0.1 Y200.0 Z0.3 F1500.0 E15 ; Draw the first line
G1 X0.4 Y200.0 Z0.3 F5000.0 ; Move to side a little
G1 X0.4 Y20 Z0.3 F1500.0 E30 ; Draw the second line
G92 E0 ; Reset Extruder
G1 Z2.0 F3000 ; Move Z Axis up little to prevent scratching of Heat Bed
G1 X5 Y20 Z0.3 F5000.0 ; Move over to prevent blob squish
G92 E0
G92 E0
G1 F2700 E-5
;LAYER_COUNT:39
;LAYER:0
M107
M204 S500
M205 X8 Y8
G0 F6000 X120.019 Y120.628 Z0.28
;TYPE:SUPPORT
G1 F2700 E0
G1 F1200 X120.463 Y120.305 E0.02557
G1 X121.009 Y120.305 E0.05099
G1 X121.432 Y120.613 E0.07536
G1 X121.532 Y121.708 E0.12656
G1 X120.441 Y121.975 E0.17886
G1 X120.019 Y121.668 E0.20316
G1 X119.849 Y121.148 E0.22863
G1 X120.019 Y120.628 E0.2541
G1 F2700 E-4.7459
G0 F6000 X121.622 Y121.737
G1 F2700 E0.2541
G1 F1200 X122.18 Y121.602 E0.28084
G1 X121.609 Y122.11 E0.31642
G1 X121.622 Y121.737 E0.3338
G1 F2700 E-4.6662
;MESH:legs-right.STL
G0 F6000 X122.48 Y122.703
G0 X120.407 Y124.875
G0 X120.04 Y126.294
G0 X119.706 Y126.672
G0 X118.836 Y127.085
;TYPE:WALL-INNER
G1 F2700 E0.3338
G1 F1200 X118.524 Y127.008 E0.34877
G1 X118.236 Y126.857 E0.36391
G1 X117.994 Y126.642 E0.37898
G1 X117.805 Y126.367 E0.39452
G1 X117.694 Y126.074 E0.40911
G1 X117.654 Y125.745 E0.42454
G1 X117.694 Y125.425 E0.43956
G1 X117.809 Y125.123 E0.45461
G1 X117.992 Y124.857 E0.46964
G1 X118.235 Y124.642 E0.48475
G1 X118.529 Y124.489 E0.50018
G1 X118.837 Y124.413 E0.51495
G1 X119.165 Y124.413 E0.53023
G1 X119.476 Y124.49 E0.54515
G1 X119.77 Y124.646 E0.56064
G1 X120.168 Y125.003 E0.58554
G1 X120.304 Y125.415 E0.60574
G1 X120.346 Y125.752 E0.62155
G1 X120.306 Y126.072 E0.63657
G1 X120.191 Y126.376 E0.65171
G1 X120.008 Y126.641 E0.6667
G1 X119.765 Y126.856 E0.68181
G1 X119.471 Y127.009 E0.69724
G1 X119.163 Y127.085 E0.71201
G1 X118.836 Y127.085 E0.72724
G1 F2700 E-4.27276
G0 F6000 X120.423 Y126.498
G0 X120.407 Y124.875
G0 X127.872 Y118.242
G0 X130.314 Y118.243
G0 X131.062 Y116.84
G0 X143.102 Y116.258
G0 X144.218 Y117.183
G0 X144.217 Y124.131
G0 X142.891 Y125.745
G0 X143.086 Y126.124
G0 X144.336 Y127.085
G1 F2700 E0.72724
G1 F1200 X144.024 Y127.008 E0.7422
G1 X143.736 Y126.857 E0.75735
G1 X143.494 Y126.642 E0.77242
G1 X143.305 Y126.367 E0.78796
G1 X143.194 Y126.074 E0.80255
G1 X143.154 Y125.745 E0.81798
G1 X143.194 Y125.425 E0.833
G1 X143.308 Y125.125 E0.84794
G1 X143.498 Y124.851 E0.86347
G1 X143.736 Y124.642 E0.87822
G1 X144.058 Y124.474 E0.89513
G1 X144.297 Y124.389 E0.90694
G1 X144.648 Y124.409 E0.92331
G1 X144.978 Y124.49 E0.93913
G1 X145.264 Y124.641 E0.95419
G1 X145.506 Y124.856 E0.96926
G1 X145.695 Y125.131 E0.9848
G1 X145.806 Y125.424 E0.99939
G1 X145.846 Y125.752 E1.01478
G1 X145.806 Y126.073 E1.02984
G1 X145.691 Y126.375 E1.04489
G1 X145.508 Y126.641 E1.05992
G1 X145.265 Y126.856 E1.07503
G1 X144.971 Y127.009 E1.09046
G1 X144.663 Y127.085 E1.10523
G1 X144.336 Y127.085 E1.12046
G0 F6000 X143.623 Y126.529
G0 X143.361 Y126.032
G0 X143.361 Y125.468
G0 X143.628 Y124.966
G0 X144.125 Y124.632
G0 X144.275 Y116.915
G1 F1200 X143.841 Y116.712 E1.14277
G1 X143.622 Y116.544 E1.15562
G1 X143.443 Y116.33 E1.16862
G1 X143.235 Y115.937 E1.18932
G1 X143.226 Y115.645 E1.20292
G1 X143.268 Y115.311 E1.2186
G1 X143.389 Y115.009 E1.23375
G1 X143.575 Y114.755 E1.24841
G1 X143.82 Y114.551 E1.26325
G1 X144.108 Y114.416 E1.27806
G1 X144.418 Y114.356 E1.29277
G1 X144.74 Y114.377 E1.30779
G1 X145.039 Y114.474 E1.32243
G1 X145.308 Y114.644 E1.33725
G1 X145.531 Y114.881 E1.3524
G1 X145.678 Y115.149 E1.36663
G1 X145.76 Y115.468 E1.38197
G1 X145.76 Y115.78 E1.3965
G1 X145.679 Y116.097 E1.41173
G1 X145.53 Y116.368 E1.42613
G1 X145.306 Y116.606 E1.44135
G1 X145.035 Y116.775 E1.45622
G1 X144.727 Y116.875 E1.4713
G1 X144.275 Y116.915 E1.49243
G1 F2700 E-3.50757
G0 F6000 X143.102 Y116.258
G0 X131.062 Y116.84
G0 X129.551 Y118.611
G0 X127.341 Y117.425
G0 X127.218 Y116.453
G0 X114.529 Y111.863
G0 X114.096 Y112.49
G0 X113.973 Y112.223
G0 X110.814 Y113.33
G0 X109.4 Y112.564
G0 X109.051 Y112.19
G0 X108.636 Y111.473
G0 X92.07 Y115.612
G0 X90.869 Y117.16
G0 X90.869 Y124.145
G0 X92.061 Y126.133
G0 X90.663 Y127.085
G1 F2700 E1.49243
G1 F1200 X90.336 Y127.085 E1.50766
G1 X90.024 Y127.008 E1.52262
G1 X89.736 Y126.857 E1.53776
G1 X89.494 Y126.642 E1.55284
G1 X89.305 Y126.367 E1.56837
G1 X89.194 Y126.074 E1.58296
G1 X89.154 Y125.745 E1.5984
G1 X89.194 Y125.427 E1.61332
G1 X89.307 Y125.128 E1.6282
G1 X89.494 Y124.857 E1.64354
G1 X89.747 Y124.632 E1.6593
G1 X89.772 Y124.617 E1.66066
G1 X90.397 Y124.316 E1.69296
G1 X90.398 Y116.99 E2.03409
G1 X89.825 Y116.701 E2.06397
G1 X89.576 Y116.497 E2.07896
G1 X89.387 Y116.236 E2.09397
G1 X89.27 Y115.939 E2.10883
G1 X89.23 Y115.624 E2.12362
G1 X89.27 Y115.309 E2.1384
G1 X89.386 Y115.013 E2.1532
G1 X89.575 Y114.754 E2.16813
G1 X89.82 Y114.551 E2.18295
G1 X90.108 Y114.416 E2.19776
G1 X90.418 Y114.356 E2.21246
G1 X90.74 Y114.377 E2.22749
G1 X91.039 Y114.474 E2.24213
G1 X91.326 Y114.656 E2.25795
G1 X91.791 Y115.192 E2.29099
G1 X92.278 Y115.074 E2.31432
G1 X108.662 Y110.978 E3.10071
G1 X108.727 Y110.459 E3.12507
G1 X108.747 Y110.053 E3.144
G1 X108.764 Y109.944 E3.14913
G1 X108.878 Y109.473 E3.1717
G1 X108.917 Y109.388 E3.17605
G1 X109.19 Y109.467 E3.18929
G1 X109.491 Y108.988 E3.21563
G1 X109.775 Y108.613 E3.23753
G1 X109.637 Y108.334 E3.25203
G1 X109.743 Y108.229 E3.25897
G1 X110.172 Y107.94 E3.28306
G1 X110.629 Y107.743 E3.30623
G1 X111.139 Y107.626 E3.3306
G1 X111.645 Y107.605 E3.35418
G1 X112.148 Y107.677 E3.37784
G1 X112.639 Y107.845 E3.402
G1 X113.078 Y108.094 E3.4255
G1 X113.358 Y108.329 E3.44253
G1 X113.214 Y108.635 E3.45827
G1 X113.515 Y108.998 E3.48023
G1 X113.774 Y109.473 E3.50542
G1 X114.083 Y109.394 E3.52027
G1 X114.204 Y109.757 E3.53809
G1 X114.272 Y110.267 E3.56205
G1 X114.272 Y110.309 E3.56401
G1 X114.209 Y111.245 E3.60769
G1 X127.539 Y116.066 E4.26774
G1 X127.866 Y115.687 E4.29104
G1 X128.059 Y115.494 E4.30375
G1 X128.099 Y115.459 E4.30623
G1 X128.409 Y115.267 E4.32321
G1 X128.756 Y115.144 E4.34035
G1 X129.125 Y115.103 E4.35764
G1 X129.496 Y115.144 E4.37502
G1 X129.838 Y115.265 E4.39191
G1 X130.149 Y115.46 E4.409
G1 X130.415 Y115.728 E4.42659
G1 X130.611 Y116.043 E4.44386
G1 X130.735 Y116.403 E4.46159
G1 X130.797 Y116.795 E4.48007
G1 X130.74 Y117.09 E4.49406
G1 X130.604 Y117.473 E4.51299
G1 X130.415 Y117.773 E4.5295
G1 X130.152 Y118.036 E4.54682
G1 X129.838 Y118.233 E4.56408
G1 X129.496 Y118.354 E4.58097
G1 X129.122 Y118.395 E4.59849
G1 X128.756 Y118.353 E4.61564
G1 X128.391 Y118.224 E4.63367
G1 X128.028 Y118.023 E4.65299
G1 X127.722 Y117.612 E4.67685
G1 X127.586 Y117.335 E4.69122
G1 X127.487 Y116.981 E4.70834
G1 X127.485 Y116.265 E4.74168
G1 X114.613 Y111.609 E5.37906
G1 X114.603 Y111.574 E5.38075
G1 X113.882 Y111.315 E5.41642
G1 X113.226 Y112.114 E5.46456
G1 X113.367 Y112.413 E5.47995
G1 X113.217 Y112.553 E5.48951
G1 X112.793 Y112.827 E5.51302
G1 X112.326 Y113.021 E5.53656
G1 X111.854 Y113.124 E5.55906
G1 X111.346 Y113.142 E5.58273
G1 X110.872 Y113.075 E5.60502
G1 X110.403 Y112.92 E5.62802
G1 X109.961 Y112.68 E5.65144
G1 X109.635 Y112.419 E5.67088
G1 X109.78 Y112.099 E5.68724
G1 X109.517 Y111.795 E5.70596
G1 X109.178 Y111.284 E5.73451
G1 X108.887 Y111.371 E5.74866
G1 X108.768 Y111.163 E5.75982
G1 X91.846 Y115.393 E6.57202
G1 X91.701 Y116.038 E6.6028
G1 X91.671 Y116.117 E6.60674
G1 X91.542 Y116.351 E6.61918
G1 X91.498 Y116.403 E6.62235
G1 X91.31 Y116.602 E6.6351
G1 X91.161 Y116.697 E6.64333
G1 X90.603 Y117.002 E6.67294
G1 X90.602 Y124.318 E7.0136
G1 X91.018 Y124.506 E7.03486
G1 X91.273 Y124.646 E7.04841
G1 X91.501 Y124.847 E7.06256
G1 X91.694 Y125.128 E7.07843
G1 X91.806 Y125.424 E7.09317
G1 X91.846 Y125.752 E7.10855
G1 X91.806 Y126.073 E7.12362
G1 X91.691 Y126.375 E7.13867
G1 X91.508 Y126.641 E7.1537
G1 X91.265 Y126.856 E7.16881
G1 X90.971 Y127.009 E7.18424
G1 X90.663 Y127.085 E7.19901
G1 F2700 E2.19901
G0 F6000 X92.061 Y126.133
G0 X90.869 Y124.145
G0 X90.869 Y117.16
G0 X92.07 Y115.612
G0 X108.636 Y111.473
G0 X108.941 Y112.012
G0 X109.4 Y112.564
G0 X112.404 Y113.271
G0 X113.973 Y112.223
G0 X114.529 Y111.863
G0 X127.218 Y116.453
G0 X127.717 Y118.059
G0 X120.241 Y124.707
G0 X118.086 Y124.425
G0 X117.672 Y126.1
G0 X118.812 Y127.286
G0 X118.789 Y127.485
;TYPE:WALL-OUTER
G1 F2700 E7.19901
G1 F1200 X118.38 Y127.384 E7.21863
G1 X118.008 Y127.189 E7.23819
G1 X117.689 Y126.906 E7.25804
G1 X117.449 Y126.557 E7.27777
G1 X117.303 Y126.169 E7.29707
G1 X117.251 Y125.745 E7.31696
G1 X117.303 Y125.33 E7.33644
G1 X117.452 Y124.936 E7.35605
G1 X117.692 Y124.588 E7.37573
G1 X118.007 Y124.31 E7.3953
G1 X118.384 Y124.113 E7.4151
G1 X118.79 Y124.013 E7.43457
G1 X119.213 Y124.013 E7.45427
G1 X119.621 Y124.114 E7.47384
G1 X120.001 Y124.316 E7.49388
G1 X120.466 Y124.733 E7.52297
G1 X127.723 Y118.283 E7.97506
G1 X127.38 Y117.823 E8.00178
G1 X127.211 Y117.478 E8.01967
G1 X127.087 Y117.036 E8.04104
G1 X127.086 Y116.546 E8.06386
G1 X114.287 Y111.916 E8.69763
G1 X114.277 Y111.882 E8.69928
G1 X114.012 Y111.787 E8.71239
G1 X113.696 Y112.172 E8.73558
G1 X113.804 Y112.401 E8.74737
G1 X113.94 Y112.401 E8.75371
G1 X113.84 Y112.518 E8.76087
G1 X113.481 Y112.854 E8.78377
G1 X113.455 Y112.876 E8.78535
G1 X112.98 Y113.182 E8.81167
G1 X112.445 Y113.405 E8.83865
G1 X111.903 Y113.523 E8.86448
G1 X111.327 Y113.543 E8.89132
G1 X110.78 Y113.466 E8.91704
G1 X110.241 Y113.288 E8.94347
G1 X109.742 Y113.017 E8.96991
G1 X109.304 Y112.666 E8.99605
G1 X109.073 Y112.401 E9.01242
G1 X109.204 Y112.401 E9.01852
G1 X109.31 Y112.167 E9.03048
G1 X109.194 Y112.033 E9.03873
G1 X109.008 Y111.752 E9.05443
G1 X108.723 Y111.837 E9.06827
G1 X108.723 Y111.887 E9.0706
G1 X108.572 Y111.624 E9.08472
G1 X92.182 Y115.721 E9.87139
G1 X92.084 Y116.158 E9.89225
G1 X92.037 Y116.281 E9.89838
G1 X91.872 Y116.581 E9.91432
G1 X91.8 Y116.665 E9.91947
G1 X91.566 Y116.914 E9.93538
G1 X91.364 Y117.042 E9.94652
G1 X91.003 Y117.239 E9.96567
G1 X91.002 Y124.06 E10.28328
G1 X91.196 Y124.148 E10.2932
G1 X91.42 Y124.264 E10.30495
G1 X91.521 Y124.331 E10.31059
G1 X91.789 Y124.568 E10.32725
G1 X91.808 Y124.589 E10.32857
G1 X92.051 Y124.941 E10.34849
G1 X92.197 Y125.329 E10.36779
G1 X92.249 Y125.753 E10.38768
G1 X92.197 Y126.168 E10.40716
G1 X92.048 Y126.562 E10.42677
G1 X91.808 Y126.91 E10.44646
G1 X91.493 Y127.188 E10.46602
G1 X91.116 Y127.385 E10.48583
G1 X90.71 Y127.485 E10.5053
G1 X90.289 Y127.485 E10.5249
G1 X89.88 Y127.384 E10.54452
G1 X89.508 Y127.189 E10.56407
G1 X89.189 Y126.906 E10.58393
G1 X88.949 Y126.557 E10.60365
G1 X88.803 Y126.169 E10.62296
G1 X88.751 Y125.745 E10.64285
G1 X88.803 Y125.33 E10.66232
G1 X88.951 Y124.939 E10.68179
G1 X89.191 Y124.59 E10.70151
G1 X89.511 Y124.307 E10.7214
G1 X89.574 Y124.269 E10.72483
G1 X89.997 Y124.065 E10.7467
G1 X89.998 Y117.236 E11.06468
G1 X89.605 Y117.038 E11.08518
G1 X89.282 Y116.773 E11.10463
G1 X89.034 Y116.431 E11.1243
G1 X88.879 Y116.038 E11.14397
G1 X88.826 Y115.624 E11.16341
G1 X88.879 Y115.21 E11.18284
G1 X89.033 Y114.819 E11.20241
G1 X89.281 Y114.479 E11.22201
G1 X89.604 Y114.211 E11.24155
G1 X89.984 Y114.032 E11.26111
G1 X90.392 Y113.954 E11.28045
G1 X90.815 Y113.981 E11.30019
G1 X91.212 Y114.11 E11.31963
G1 X91.571 Y114.337 E11.3394
G1 X91.621 Y114.384 E11.3426
G1 X91.934 Y114.746 E11.36488
G1 X92.183 Y114.686 E11.37681
G1 X108.299 Y110.656 E12.15034
G1 X108.328 Y110.424 E12.16123
G1 X108.349 Y110.007 E12.18067
G1 X108.372 Y109.863 E12.18746
G1 X108.496 Y109.349 E12.21208
G1 X108.723 Y108.842 E12.23795
G1 X108.723 Y108.915 E12.24135
G1 X109.012 Y108.999 E12.25536
G1 X109.164 Y108.758 E12.26863
G1 X109.307 Y108.569 E12.27967
G1 X109.197 Y108.347 E12.2912
G1 X109.072 Y108.329 E12.29708
G1 X109.49 Y107.917 E12.32441
G1 X109.975 Y107.59 E12.35165
G1 X110.508 Y107.36 E12.37868
G1 X111.086 Y107.227 E12.4063
G1 X111.663 Y107.204 E12.43319
G1 X112.241 Y107.286 E12.46037
G1 X112.804 Y107.479 E12.48808
G1 X113.306 Y107.763 E12.51494
G1 X113.753 Y108.138 E12.54211
G1 X113.924 Y108.347 E12.55468
G1 X113.792 Y108.347 E12.56083
G1 X113.684 Y108.576 E12.57262
G1 X113.848 Y108.774 E12.58459
G1 X113.976 Y109.008 E12.59701
G1 X114.277 Y108.931 E12.61148
G1 X114.277 Y108.864 E12.6146
G1 X114.408 Y109.102 E12.62725
G1 X114.594 Y109.662 E12.65472
G1 X114.672 Y110.244 E12.68207
G1 X114.672 Y110.321 E12.68565
G1 X114.628 Y110.971 E12.71599
G1 X127.416 Y115.596 E13.3492
G1 X127.577 Y115.41 E13.36065
G1 X127.784 Y115.203 E13.37429
G1 X127.863 Y115.135 E13.37914
G1 X128.233 Y114.905 E13.39942
G1 X128.669 Y114.751 E13.42096
G1 X129.125 Y114.7 E13.44232
G1 X129.581 Y114.751 E13.46369
G1 X130.017 Y114.904 E13.4852
G1 X130.4 Y115.145 E13.50627
G1 X130.731 Y115.478 E13.52814
G1 X130.974 Y115.869 E13.54957
G1 X131.125 Y116.305 E13.57106
G1 X131.197 Y116.76 E13.59251
G1 X142.834 Y115.908 E14.13583
G1 X142.825 Y115.627 E14.14892
G1 X142.878 Y115.209 E14.16854
G1 X143.035 Y114.815 E14.18829
G1 X143.281 Y114.479 E14.20768
G1 X143.604 Y114.211 E14.22722
G1 X143.984 Y114.032 E14.24678
G1 X144.392 Y113.954 E14.26612
G1 X144.815 Y113.981 E14.28586
G1 X145.212 Y114.11 E14.3053
G1 X145.566 Y114.334 E14.3248
G1 X145.855 Y114.642 E14.34447
G1 X146.055 Y115.005 E14.36377
G1 X146.16 Y115.416 E14.38352
G1 X146.16 Y115.832 E14.40289
G1 X146.055 Y116.243 E14.42264
G1 X145.855 Y116.606 E14.44194
G1 X145.56 Y116.919 E14.46197
G1 X145.206 Y117.141 E14.48143
G1 X144.811 Y117.269 E14.50076
G1 X144.285 Y117.316 E14.52535
G1 X144.285 Y123.988 E14.83603
G1 X144.708 Y124.012 E14.85576
G1 X145.122 Y124.114 E14.87561
G1 X145.492 Y124.309 E14.89509
G1 X145.811 Y124.592 E14.91494
G1 X146.051 Y124.941 E14.93466
G1 X146.197 Y125.329 E14.95397
G1 X146.249 Y125.753 E14.97386
G1 X146.197 Y126.168 E14.99333
G1 X146.048 Y126.562 E15.01295
G1 X145.808 Y126.91 E15.03263
G1 X145.493 Y127.188 E15.0522
G1 X145.116 Y127.385 E15.072
G1 X144.71 Y127.485 E15.09147
G1 X144.289 Y127.485 E15.11108
G1 X143.88 Y127.384 E15.13069
G1 X143.508 Y127.189 E15.15025
G1 X143.189 Y126.906 E15.17011
G1 X142.949 Y126.557 E15.18983
G1 X142.803 Y126.169 E15.20913
G1 X142.751 Y125.745 E15.22903
G1 X142.803 Y125.33 E15.2485
G1 X142.952 Y124.936 E15.26812
G1 X143.195 Y124.585 E15.28799
G1 X143.509 Y124.309 E15.30746
G1 X143.9 Y124.106 E15.32797
G1 X144.085 Y124.04 E15.33712
G1 X144.085 Y117.268 E15.65245
G1 X143.631 Y117.055 E15.6758
G1 X143.342 Y116.833 E15.69277
G1 X143.112 Y116.558 E15.70947
G1 X142.873 Y116.107 E15.73323
G1 X131.172 Y116.963 E16.27954
G1 X131.127 Y117.195 E16.29054
G1 X130.967 Y117.646 E16.31282
G1 X130.727 Y118.027 E16.33379
G1 X130.403 Y118.351 E16.35513
G1 X130.017 Y118.594 E16.37637
G1 X129.581 Y118.747 E16.39788
G1 X129.125 Y118.798 E16.41925
G1 X128.663 Y118.745 E16.4409
G1 X128.226 Y118.59 E16.46249
G1 X127.889 Y118.403 E16.48044
G1 X120.561 Y124.917 E16.93699
G1 X120.696 Y125.325 E16.957
G1 X120.749 Y125.752 E16.97703
G1 X120.697 Y126.169 E16.9966
G1 X120.548 Y126.562 E17.01617
G1 X120.308 Y126.91 E17.03585
G1 X119.993 Y127.188 E17.05542
G1 X119.616 Y127.385 E17.07522
G1 X119.21 Y127.485 E17.09469
G1 X118.789 Y127.485 E17.1143
G0 F6000 X118.881 Y126.695
;TYPE:SKIN
G1 F1200 X118.665 Y126.642 E17.12465
G1 X118.461 Y126.535 E17.13538
G1 X118.29 Y126.382 E17.14607
G1 X118.154 Y126.185 E17.15721
G1 X118.076 Y125.981 E17.16738
G1 X118.048 Y125.742 E17.17859
G1 X118.075 Y125.52 E17.189
G1 X118.157 Y125.303 E17.1998
G1 X118.285 Y125.119 E17.21024
G1 X118.46 Y124.964 E17.22112
G1 X118.668 Y124.856 E17.23204
G1 X118.883 Y124.803 E17.24235
G1 X119.119 Y124.803 E17.25334
G1 X119.332 Y124.856 E17.26356
G1 X119.543 Y124.968 E17.27468
G1 X119.831 Y125.226 E17.29269
G1 X119.922 Y125.501 E17.30617
G1 X119.953 Y125.751 E17.3179
G1 X119.925 Y125.977 E17.32851
G1 X119.844 Y126.19 E17.33912
G1 X119.712 Y126.382 E17.34997
