; generated by PrusaSlicer 2.3.0+win64 on 2021-03-28 at 19:00:25 UTC

; 

; external perimeters extrusion width = 0.45mm
; perimeters extrusion width = 0.45mm
; infill extrusion width = 0.45mm
; solid infill extrusion width = 0.45mm
; top infill extrusion width = 0.40mm
; support material extrusion width = 0.35mm
; first layer extrusion width = 0.42mm

M201 X9000 Y9000 Z500 E10000 ; sets maximum accelerations, mm/sec^2
M203 X500 Y500 Z12 E120 ; sets maximum feedrates, mm/sec
M204 P1500 R1500 T1500 ; sets acceleration (P, T) and retract acceleration (R), mm/sec^2
M205 X10.00 Y10.00 Z0.20 E2.50 ; sets the jerk limits, mm/sec
M205 S0 T0 ; sets the minimum extruding and travel feed rate, mm/sec
M107
M190 S60 ; set bed temperature and wait for it to be reached
M104 S200 ; set temperature
;TYPE:Custom
G28 ; home all axes
G1 Z5 F5000 ; lift nozzle
M109 S200 ; set temperature and wait for it to be reached
G21 ; set units to millimeters
G90 ; use absolute coordinates
M82 ; use absolute distances for extrusion
G92 E0
; Ender 3 Custom Start G-code
M117 PRINT PRINT PRINT!
G92 E0 ; Reset Extruder
G28 ; Home all axes
G1 Z2.0 F3000 ; Move Z Axis up little to prevent scratching of Heat Bed
G1 X0.1 Y20 Z0.3 F5000.0 ; Move to start position
G1 X0.1 Y200.0 Z0.3 F1500.0 E15 ; Draw the first line
G1 X0.4 Y200.0 Z0.3 F5000.0 ; Move to side a little
G1 X0.4 Y20 Z0.3 F1500.0 E30 ; Draw the second line
G92 E0 ; Reset Extruder
G1 Z2.0 F3000 ; Move Z Axis up little to prevent scratching of Heat Bed
G1 X5 Y20 Z0.3 F5000.0 ; Move over to prevent blob squish
;LAYER_CHANGE
;Z:0.35
;HEIGHT:0.35
G1 Z0.350 F7800.000
G1 E-2.00000 F2400.000
G92 E0
G1 X85.560 Y90.312 F7800.000
G1 E2.00000 F2400.000
;TYPE:Skirt
;WIDTH:0.42
G1 F1800.000
G1 X87.184 Y89.397 E2.09353
G1 X101.313 Y83.386 E2.86409
G1 X102.485 Y83.036 E2.92552
G1 X103.710 Y82.918 E2.98726
G1 X112.150 Y83.076 E3.41093
G1 X113.085 Y83.170 E3.45804
G1 X116.141 Y83.795 E3.61460
G1 X140.688 Y89.428 E4.87855
G1 X142.570 Y90.101 E4.97884
G1 X144.290 Y91.103 E5.07874
G1 X145.798 Y92.403 E5.17864
G1 X147.049 Y93.966 E5.27917
G1 X147.817 Y95.349 E5.35851
G1 X148.175 Y96.230 E5.40625
G1 X148.608 Y97.711 E5.48370
G1 X148.830 Y99.508 E5.57458
G1 X148.815 Y135.772 E7.39452
G1 X148.443 Y137.964 E7.50610
G1 X147.941 Y139.377 E7.58135
G1 X147.537 Y140.197 E7.62722
G1 X146.757 Y141.455 E7.70151
G1 X145.761 Y142.625 E7.77862
G1 X145.125 Y143.229 E7.82262
G1 X143.908 Y144.157 E7.89942
G1 X142.171 Y145.075 E7.99803
G1 X140.472 Y145.621 E8.08760
G1 X116.113 Y151.344 E9.34335
G1 X111.454 Y152.185 E9.58097
G1 X103.470 Y152.077 E9.98170
G1 X102.396 Y151.945 E10.03597
G1 X101.361 Y151.633 E10.09025
G1 X87.212 Y145.608 E10.86204
G1 X85.848 Y144.881 E10.93960
G1 X84.539 Y143.898 E11.02175
G1 X83.313 Y142.627 E11.11038
G1 X82.741 Y141.882 E11.15750
G1 X82.039 Y140.714 E11.22593
G1 X78.722 Y134.482 E11.58022
G1 X78.365 Y133.620 E11.62703
G1 X78.140 Y132.721 E11.67352
G1 X75.306 Y115.546 E12.54715
G1 X75.289 Y103.212 E13.16611
G1 X75.392 Y102.217 E13.21634
G1 X75.653 Y101.244 E13.26688
G1 X76.184 Y100.114 E13.32955
G1 X76.931 Y99.106 E13.39253
G1 X83.886 Y91.717 E13.90176
G1 X85.514 Y90.350 E14.00845
G1 E12.00845 F2400.000
G92 E0
G1 X84.391 Y100.423 F7800.000
G1 E2.00000 F2400.000
;TYPE:Support material
G1 F1800.000
G1 X84.391 Y106.023 E2.28105
G1 X85.080 Y106.023 E2.31567
G1 X85.080 Y100.578 E2.58892
G1 X85.770 Y100.578 E2.62354
G1 X85.770 Y106.023 E2.89680
G1 X86.460 Y106.023 E2.93142
G1 X86.460 Y100.578 E3.20468
G1 X86.965 Y100.578 E3.23000
G1 X87.031 Y100.849 E3.24403
G1 X87.150 Y101.121 E3.25888
G1 X87.150 Y103.233 E3.36489
G1 X87.840 Y103.233 E3.39951
G1 X87.840 Y102.313 E3.44570
G1 X87.923 Y102.427 E3.45283
G1 X88.529 Y103.030 E3.49574
G1 X88.529 Y103.388 E3.51370
G1 X91.288 Y105.813 F7800.000
G1 F1800.000
G1 X91.288 Y106.033 E3.52473
G1 X90.930 Y105.855 E3.54482
G1 X90.599 Y105.768 E3.56201
G1 X90.599 Y105.724 E3.56417
G1 X90.285 Y105.646 E3.58040
G1 X89.909 Y105.633 E3.59929
G1 X89.909 Y105.675 E3.60139
G1 X89.602 Y105.670 E3.61680
G1 X89.219 Y105.740 E3.63633
G1 X89.219 Y105.697 E3.63847
G1 X88.965 Y105.745 E3.65142
G1 X88.529 Y105.927 E3.67514
G1 X88.529 Y105.972 E3.67741
G1 X88.359 Y106.048 E3.68676
G1 X87.840 Y106.414 E3.71865
G1 X87.840 Y106.359 E3.72138
G1 X87.364 Y106.862 E3.75609
G1 X87.150 Y107.223 E3.77716
G1 X87.150 Y107.305 E3.78128
G1 X87.056 Y107.472 E3.79089
G1 X86.864 Y108.052 E3.82155
G1 X86.790 Y108.701 E3.85433
G1 X86.864 Y109.392 E3.88924
G1 X87.056 Y109.972 E3.91990
G1 X87.150 Y110.139 E3.92950
G1 X87.150 Y110.221 E3.93363
G1 X87.364 Y110.582 E3.95470
G1 X87.840 Y111.084 E3.98941
G1 X87.840 Y111.030 E3.99213
G1 X88.359 Y111.396 E4.02402
G1 X88.529 Y111.472 E4.03337
G1 X88.529 Y111.517 E4.03565
G1 X88.965 Y111.699 E4.05937
G1 X89.219 Y111.746 E4.07231
G1 X89.219 Y111.704 E4.07445
G1 X89.602 Y111.774 E4.09399
G1 X89.909 Y111.769 E4.10939
G1 X89.909 Y111.811 E4.11149
G1 X90.285 Y111.798 E4.13038
G1 X90.599 Y111.719 E4.14661
G1 X90.599 Y111.676 E4.14878
G1 X90.930 Y111.588 E4.16596
G1 X91.288 Y111.411 E4.18605
G1 X91.288 Y111.631 E4.19709
G1 E2.19709 F2400.000
G92 E0
G1 X93.292 Y112.051 F7800.000
G1 E2.00000 F2400.000
;TYPE:Support material interface
;WIDTH:0.35
G1 F1800.000
G1 X93.292 Y111.018 E2.04131
G1 X93.002 Y111.018 E2.05291
G1 X93.002 Y111.920 E2.08900
G1 X92.713 Y111.920 E2.10059
G1 X92.713 Y111.018 E2.13668
G1 X92.423 Y111.018 E2.14828
G1 X92.423 Y111.920 E2.18437
G1 X92.391 Y111.920 E2.18564
G1 X92.391 Y114.710 E2.29724
G1 X92.133 Y114.710 E2.30756
G1 X92.133 Y111.260 E2.44557
G1 X91.843 Y111.495 E2.46050
G1 X91.843 Y114.710 E2.58909
G1 X91.553 Y114.710 E2.60069
G1 X91.553 Y111.681 E2.72186
G1 X91.263 Y111.824 E2.73480
G1 X91.263 Y114.710 E2.85023
G1 X90.973 Y114.710 E2.86183
G1 X90.973 Y111.953 E2.97213
G1 X90.683 Y112.025 E2.98409
G1 X90.683 Y114.710 E3.09148
G1 X90.393 Y114.710 E3.10307
G1 X90.393 Y112.098 E3.20755
G1 X90.103 Y112.122 E3.21919
G1 X90.103 Y114.710 E3.32272
G1 X89.813 Y114.710 E3.33431
G1 X89.813 Y112.131 E3.43746
G1 X89.524 Y112.125 E3.44906
G1 X89.524 Y114.710 E3.55247
G1 X89.234 Y114.710 E3.56407
G1 X89.234 Y112.072 E3.66960
G1 X88.944 Y112.018 E3.68139
G1 X88.944 Y114.710 E3.78906
G1 X88.654 Y114.710 E3.80065
G1 X88.654 Y111.913 E3.91254
G1 X88.364 Y111.792 E3.92510
G1 X88.364 Y114.710 E4.04183
G1 X88.074 Y114.710 E4.05342
G1 X88.074 Y111.635 E4.17643
G1 X87.784 Y111.433 E4.19057
G1 X87.784 Y114.710 E4.32166
G1 X87.494 Y114.710 E4.33326
G1 X87.494 Y111.189 E4.47411
G1 X87.204 Y110.877 E4.49115
G1 X87.204 Y114.710 E4.64450
G1 X86.914 Y114.710 E4.65609
G1 X86.914 Y110.447 E4.82664
G1 X86.744 Y110.159 E4.83999
G1 X86.624 Y109.811 E4.85470
G1 X86.624 Y111.920 E4.93905
G1 X86.335 Y111.920 E4.95065
G1 X86.335 Y106.340 E5.17384
G1 X86.624 Y106.340 E5.18544
G1 X86.624 Y107.632 E5.23712
G1 X86.744 Y107.284 E5.25183
G1 X86.914 Y106.997 E5.26518
G1 X86.914 Y103.550 E5.40305
G1 X87.204 Y103.550 E5.41465
G1 X87.204 Y106.567 E5.53532
G1 X87.494 Y106.255 E5.55237
G1 X87.494 Y103.550 E5.66054
G1 X87.784 Y103.550 E5.67214
G1 X87.784 Y106.011 E5.77056
G1 X88.074 Y105.809 E5.78470
G1 X88.074 Y103.550 E5.87503
G1 X88.364 Y103.550 E5.88663
G1 X88.364 Y105.652 E5.97068
G1 X88.654 Y105.531 E5.98324
G1 X88.654 Y103.550 E6.06245
G1 X88.944 Y103.550 E6.07405
G1 X88.944 Y105.425 E6.14904
G1 X89.234 Y105.372 E6.16083
G1 X89.234 Y103.550 E6.23370
G1 X89.352 Y103.550 E6.23845
G1 X89.524 Y103.626 E6.24594
G1 X89.524 Y105.319 E6.31363
G1 X89.813 Y105.312 E6.32523
G1 X89.813 Y103.755 E6.38752
G1 X90.103 Y103.882 E6.40018
G1 X90.103 Y105.322 E6.45776
G1 X90.393 Y105.346 E6.46940
G1 X90.393 Y103.954 E6.52508
G1 X90.683 Y104.023 E6.53701
G1 X90.683 Y105.418 E6.59282
G1 X90.973 Y105.491 E6.60477
G1 X90.973 Y104.090 E6.66080
G1 X91.263 Y104.107 E6.67241
G1 X91.263 Y105.619 E6.73292
G1 X91.553 Y105.763 E6.74585
G1 X91.553 Y104.122 E6.81148
G1 X91.843 Y104.137 E6.82309
G1 X91.843 Y105.946 E6.89546
G1 X92.133 Y106.179 E6.91033
G1 X92.133 Y104.102 E6.99341
G1 X92.391 Y104.068 E7.00382
G1 X92.391 Y106.340 E7.09470
G1 X92.423 Y106.340 E7.09598
G1 X92.423 Y106.426 E7.09939
G1 X92.713 Y106.426 E7.11099
G1 X92.713 Y106.340 E7.11441
G1 X93.002 Y106.340 E7.12601
G1 X93.002 Y106.426 E7.12942
G1 X93.292 Y106.426 E7.14102
G1 X93.292 Y106.210 E7.14965
G1 X93.358 Y106.178 F7800.000
;TYPE:Support material
;WIDTH:0.42
G1 F1800.000
G1 X93.358 Y103.688 E7.27462
G1 E5.27462 F2400.000
G92 E0
G1 X84.305 Y106.210 F7800.000
G1 E2.00000 F2400.000
;TYPE:Support material interface
;WIDTH:0.35
G1 F1800.000
G1 X84.305 Y111.920 E2.22841
G1 X84.595 Y111.920 E2.24001
G1 X84.595 Y106.340 E2.46320
G1 X84.885 Y106.340 E2.47480
G1 X84.885 Y111.920 E2.69800
G1 X85.175 Y111.920 E2.70959
G1 X85.175 Y106.340 E2.93279
G1 X85.465 Y106.340 E2.94438
G1 X85.465 Y111.920 E3.16758
G1 X85.755 Y111.920 E3.17917
G1 X85.755 Y106.340 E3.40237
G1 X86.045 Y106.340 E3.41397
G1 X86.045 Y112.051 E3.64238
G1 X81.632 Y115.048 F7800.000
;TYPE:Support material
;WIDTH:0.42
G1 F1800.000
G1 X81.632 Y103.368 E4.22855
G1 X82.321 Y103.368 E4.26316
G1 X82.321 Y114.893 E4.84154
G1 X83.011 Y114.893 E4.87616
G1 X83.011 Y103.368 E5.45453
G1 X83.701 Y103.368 E5.48915
G1 X83.701 Y114.893 E6.06753
G1 X83.839 Y114.893 E6.07444
G1 X83.839 Y117.683 E6.21445
G1 X84.391 Y117.683 E6.24216
G1 X84.391 Y112.238 E6.51542
G1 X85.080 Y112.238 E6.55004
G1 X85.080 Y117.683 E6.82330
G1 X85.770 Y117.683 E6.85791
G1 X85.770 Y112.238 E7.13117
G1 X86.460 Y112.238 E7.16579
G1 X86.460 Y117.683 E7.43905
G1 X87.150 Y117.683 E7.47366
G1 X87.150 Y115.027 E7.60691
G1 X87.840 Y115.027 E7.64153
G1 X87.840 Y117.683 E7.77477
G1 X88.529 Y117.683 E7.80939
G1 X88.529 Y115.027 E7.94263
G1 X89.219 Y115.027 E7.97725
G1 X89.219 Y117.683 E8.11049
G1 X89.909 Y117.683 E8.14511
G1 X89.909 Y115.027 E8.27836
G1 X90.599 Y115.027 E8.31297
G1 X90.599 Y117.683 E8.44622
G1 X91.288 Y117.683 E8.48084
G1 X91.288 Y115.027 E8.61408
G1 X91.978 Y115.027 E8.64870
G1 X91.978 Y117.683 E8.78194
G1 X92.668 Y117.683 E8.81656
G1 X92.668 Y115.027 E8.94980
G1 X92.708 Y115.027 E8.95182
G1 X92.708 Y112.238 E9.09184
G1 X93.358 Y112.238 E9.12444
G1 X93.358 Y112.473 E9.13625
G1 X93.212 Y112.473 E9.14357
G1 X92.979 Y112.706 E9.16009
G1 X92.979 Y115.144 E9.28248
G1 X93.212 Y115.377 E9.29900
G1 X93.358 Y115.377 E9.30632
G1 X93.358 Y115.675 E9.32126
G1 E7.32126 F2400.000
G92 E0
G1 X93.358 Y119.952 F7800.000
G1 E2.00000 F2400.000
G1 F1800.000
G1 X93.358 Y124.053 E2.20579
G1 X92.708 Y124.053 E2.23839
G1 X92.708 Y122.762 E2.30314
G1 X92.668 Y122.762 E2.30516
G1 X92.668 Y120.107 E2.43840
G1 X91.978 Y120.107 E2.47302
G1 X91.978 Y122.762 E2.60627
G1 X91.288 Y122.762 E2.64088
G1 X91.288 Y120.107 E2.77413
G1 X90.599 Y120.107 E2.80875
G1 X90.599 Y122.762 E2.94199
G1 X89.909 Y122.762 E2.97661
G1 X89.909 Y120.107 E3.10985
G1 X89.219 Y120.107 E3.14447
G1 X89.219 Y122.762 E3.27771
G1 X88.529 Y122.762 E3.31233
G1 X88.529 Y120.107 E3.44558
G1 X87.840 Y120.107 E3.48019
G1 X87.840 Y122.762 E3.61344
G1 X87.150 Y122.762 E3.64805
G1 X87.150 Y120.107 E3.78130
G1 X86.460 Y120.107 E3.81592
G1 X86.460 Y131.632 E4.39429
G1 X87.150 Y131.632 E4.42891
G1 X87.150 Y126.187 E4.70217
G1 X87.840 Y126.187 E4.73679
G1 X87.840 Y131.632 E5.01005
G1 X88.529 Y131.632 E5.04466
G1 X88.529 Y126.187 E5.31792
G1 X89.219 Y126.187 E5.35254
G1 X89.219 Y131.490 E5.61867
G1 X89.909 Y131.167 E5.65691
G1 X89.909 Y126.187 E5.90680
G1 X90.512 Y126.187 E5.93709
G1 X90.599 Y126.250 E5.94246
G1 X90.599 Y130.968 E6.17921
G1 X90.908 Y130.891 E6.19521
G1 X91.288 Y130.866 E6.21433
G1 X91.288 Y126.452 E6.43585
G1 X91.446 Y126.470 E6.44381
G1 X91.978 Y126.470 E6.47052
G1 X91.978 Y130.854 E6.69052
G1 X92.668 Y130.937 E6.72538
G1 X92.668 Y126.470 E6.94955
G1 X93.358 Y126.470 E6.98417
G1 X93.358 Y131.311 E7.22710
G1 E5.22710 F2400.000
G92 E0
G1 X92.133 Y124.211 F7800.000
G1 E2.00000 F2400.000
;TYPE:Support material interface
;WIDTH:0.35
G1 F1800.000
G1 X92.133 Y123.080 E2.04523
G1 X91.843 Y123.080 E2.05683
G1 X91.843 Y124.080 E2.09685
G1 X91.553 Y124.080 E2.10844
G1 X91.553 Y123.080 E2.14846
G1 X91.263 Y123.080 E2.16006
G1 X91.263 Y124.080 E2.20007
G1 X90.973 Y124.089 E2.21167
G1 X90.973 Y123.080 E2.25206
G1 X90.683 Y123.080 E2.26365
G1 X90.683 Y124.126 E2.30549
G1 X90.585 Y124.145 E2.30951
G1 X90.393 Y124.225 E2.31781
G1 X90.393 Y123.080 E2.36363
G1 X90.103 Y123.080 E2.37523
G1 X90.103 Y124.572 E2.43491
G1 X89.813 Y126.000 F7800.000
G1 F1800.000
G1 X89.813 Y123.080 E2.55173
G1 X89.524 Y123.080 E2.56332
G1 X89.524 Y125.870 E2.67492
G1 X89.234 Y125.870 E2.68652
G1 X89.234 Y123.080 E2.79812
G1 X88.944 Y123.080 E2.80971
G1 X88.944 Y125.870 E2.92131
G1 X88.654 Y125.870 E2.93291
G1 X88.654 Y123.080 E3.04451
G1 X88.364 Y123.080 E3.05610
G1 X88.364 Y125.870 E3.16770
G1 X88.074 Y125.870 E3.17930
G1 X88.074 Y123.080 E3.29090
G1 X87.784 Y123.080 E3.30249
G1 X87.784 Y125.870 E3.41409
G1 X87.494 Y125.870 E3.42569
G1 X87.494 Y123.080 E3.53728
G1 X87.204 Y123.080 E3.54888
G1 X87.204 Y125.870 E3.66048
G1 X86.914 Y125.870 E3.67208
G1 X86.914 Y122.949 E3.78889
G1 X84.391 Y119.952 F7800.000
;TYPE:Support material
;WIDTH:0.42
G1 F1800.000
G1 X84.391 Y131.632 E4.37506
G1 X85.080 Y131.632 E4.40968
G1 X85.080 Y120.107 E4.98805
G1 X85.770 Y120.107 E5.02267
G1 X85.770 Y131.787 E5.60884
G1 E3.60884 F2400.000
G92 E0
G1 X103.704 Y145.737 F7800.000
G1 E2.00000 F2400.000
G1 F1800.000
G1 X103.704 Y133.050 E2.63668
G1 X104.394 Y133.050 E2.67130
G1 X104.394 Y145.582 E3.30019
G1 X105.084 Y145.582 E3.33481
G1 X105.084 Y133.050 E3.96370
G1 X105.774 Y133.050 E3.99832
G1 X105.774 Y145.737 E4.63500
G1 E2.63500 F2400.000
G92 E0
G1 X109.223 Y133.659 F7800.000
G1 E2.00000 F2400.000
G1 F1800.000
G1 X109.223 Y133.309 E2.01760
G1 E0.01760 F2400.000
G92 E0
G1 X106.628 Y132.905 F7800.000
G1 E2.00000 F2400.000
;TYPE:Support material interface
;WIDTH:0.35
G1 F1800.000
G1 X106.628 Y137.029 E2.16498
G1 X106.656 Y137.029 E2.16610
G1 X106.918 Y136.637 E2.18499
G1 X106.918 Y133.035 E2.32903
G1 X107.208 Y133.035 E2.34063
G1 X107.208 Y136.491 E2.47883
G1 X107.286 Y136.475 E2.48203
G1 X107.498 Y136.616 E2.49220
G1 X107.498 Y133.035 E2.63542
G1 X107.602 Y133.035 E2.63958
G1 X107.788 Y133.221 E2.65010
G1 X107.788 Y136.966 E2.79989
G1 E0.79989 F2400.000
G92 E0
G1 X111.982 Y137.846 F7800.000
G1 E2.00000 F2400.000
;TYPE:Support material
;WIDTH:0.42
G1 F1800.000
G1 X111.982 Y136.992 E2.04286
G1 X111.292 Y136.992 E2.07748
G1 X111.292 Y137.387 E2.09726
G1 X111.847 Y135.980 F7800.000
;TYPE:Support material interface
;WIDTH:0.35
G1 F1800.000
G1 X111.847 Y133.035 E2.21506
G1 X111.557 Y133.035 E2.22666
G1 X111.557 Y135.850 E2.33924
G1 X111.267 Y135.850 E2.35084
G1 X111.267 Y133.035 E2.46342
G1 X110.977 Y133.035 E2.47502
G1 X110.977 Y135.850 E2.58760
G1 X110.687 Y135.850 E2.59920
G1 X110.687 Y133.203 E2.70509
G1 X110.667 Y133.223 E2.70623
G1 X110.474 Y133.223 E2.71395
G1 X110.397 Y133.356 E2.72010
G1 X110.397 Y135.850 E2.81986
G1 X110.107 Y135.850 E2.83145
G1 X110.107 Y133.697 E2.91759
G1 X110.013 Y133.768 E2.92232
G1 X109.817 Y133.852 E2.93085
G1 X109.817 Y135.850 E3.01076
G1 X109.527 Y135.850 E3.02235
G1 X109.527 Y133.906 E3.10012
G1 X109.237 Y133.842 E3.11200
G1 X109.237 Y135.850 E3.19234
G1 X108.948 Y135.850 E3.20393
G1 X108.948 Y133.656 E3.29169
G1 X108.807 Y133.525 E3.29939
G1 X108.658 Y133.305 E3.31002
G1 X108.658 Y135.850 E3.41182
G1 X108.368 Y135.850 E3.42341
G1 X108.368 Y133.223 E3.52850
G1 X108.078 Y133.223 E3.54010
G1 X108.078 Y137.003 E3.69128
G1 X108.118 Y137.029 E3.69322
G1 X108.368 Y137.029 E3.70320
G1 X108.368 Y136.623 E3.71944
G1 X108.658 Y136.817 E3.73338
G1 X108.658 Y137.029 E3.74188
G1 X108.948 Y137.029 E3.75348
G1 X108.948 Y136.853 E3.76052
G1 X109.223 Y137.192 F7800.000
;TYPE:Support material
;WIDTH:0.42
G1 F1800.000
G1 X109.223 Y137.733 E3.78768
G1 X109.912 Y138.193 E3.82928
G1 X109.912 Y137.686 E3.85469
G1 X110.602 Y138.146 E3.89629
G1 X110.602 Y138.652 E3.92169
G1 X111.292 Y139.112 E3.96330
G1 X111.292 Y138.606 E3.98870
G1 X111.982 Y139.066 E4.03031
G1 X111.982 Y139.759 E4.06507
G1 X110.602 Y139.872 F7800.000
G1 F1800.000
G1 X110.602 Y141.170 E4.13022
G1 X110.255 Y141.691 E4.16162
G1 X109.912 Y141.462 E4.18229
