;FLAVOR:Marlin
;TIME:566
;Filament used: 0.31606m
;Layer height: 0.28
;MINX:111.7
;MINY:105.512
;MINZ:0.28
;MAXX:123.528
;MAXY:129.488
;MAXZ:9.8
;Generated with Cura_SteamEngine 4.8.0
M140 S60
M105
M190 S60
M104 S200
M105
M109 S200
M82 ;absolute extrusion mode
; Ender 3 Custom Start G-code
M117 PRINT PRINT PRINT
G92 E0 ; Reset Extruder
G28 ; Home all axes
G1 Z2.0 F3000 ; Move Z Axis up little to prevent scratching of Heat Bed
G1 X0.1 Y20 Z0.3 F5000.0 ; Move to start position
G1 X0.1 Y200.0 Z0.3 F1500.0 E15 ; Draw the first line
G1 X0.4 Y200.0 Z0.3 F5000.0 ; Move to side a little
G1 X0.4 Y20 Z0.3 F1500.0 E30 ; Draw the second line
G92 E0 ; Reset Extruder
G1 Z2.0 F3000 ; Move Z Axis up little to prevent scratching of Heat Bed
G1 X5 Y20 Z0.3 F5000.0 ; Move over to prevent blob squish
G92 E0
G92 E0
G1 F2700 E-5
;LAYER_COUNT:35
;LAYER:0
M107
M204 S500
M205 X8 Y8
G0 F6000 X116.408 Y109.115 Z0.28
;TYPE:SUPPORT
G1 F2700 E0
G1 F1200 X116.831 Y108.807 E0.02436
G1 X117.379 Y108.807 E0.04988
G1 X117.995 Y109.25 E0.08521
G1 X118.284 Y109.856 E0.11648
G1 X119.066 Y109.856 E0.15289
G1 X119.548 Y110.206 E0.18063
G1 X119.731 Y110.769 E0.20819
G1 X119.546 Y111.339 E0.2361
G1 X118.696 Y112.054 E0.28782
G1 X119.103 Y112.945 E0.33343
G1 X119.013 Y114.05 E0.38505
G1 X119.612 Y114.487 E0.41958
G1 X119.777 Y114.991 E0.44427
G1 X119.175 Y115.902 E0.49512
G1 X118.614 Y117.396 E0.56943
G1 X119.947 Y117.979 E0.63717
G1 X120.13 Y118.544 E0.66483
G1 X120.061 Y119.473 E0.70821
G1 X120.745 Y119.972 E0.74763
G1 X120.952 Y120.606 E0.77869
G1 X120.745 Y121.24 E0.80974
G1 X120.221 Y121.622 E0.83994
G1 X119.244 Y121.425 E0.88634
G1 X118.535 Y120.975 E0.92545
G1 X118.259 Y121.817 E0.96671
G1 X118.986 Y122.818 E1.02431
G1 X118.956 Y122.922 E1.02935
G1 X117.067 Y122.923 E1.11731
G1 X117.169 Y122.27 E1.14809
G1 X117.515 Y122.018 E1.16802
G1 X117.478 Y121.777 E1.17937
G1 X116.823 Y121.556 E1.21156
G1 X116.011 Y121.985 E1.25432
G1 X115.464 Y121.985 E1.2798
G1 X115.031 Y121.67 E1.30473
G1 X114.861 Y121.148 E1.33029
G1 X114.981 Y120.398 E1.36566
G1 X113.216 Y119.662 E1.4547
G1 X112.98 Y118.939 E1.49012
G1 X113.225 Y118.19 E1.52681
G1 X113.865 Y117.724 E1.56368
G1 X114.649 Y117.724 E1.60018
G1 X115.483 Y118.369 E1.64928
G1 X116.538 Y119.155 E1.71054
G1 X117.247 Y119.122 E1.74359
G1 X116.758 Y117.233 E1.83445
G1 X117.287 Y116.06 E1.89436
G1 X117.467 Y114.998 E1.94452
G1 X117.166 Y113.818 E2.00122
G1 X117.19 Y112.65 E2.05562
G1 X116.946 Y111.992 E2.0883
G1 X117.152 Y111.361 E2.11921
G1 X116.327 Y110.054 E2.19118
G1 X116.408 Y109.115 E2.23506
G0 F6000 X117.289 Y109.087
G1 F1200 X116.923 Y109.087 E2.25211
G1 X116.676 Y109.267 E2.26634
G1 X116.614 Y109.984 E2.29985
G1 X117.459 Y111.323 E2.37358
G1 X117.243 Y111.985 E2.406
G1 X117.248 Y112 E2.40674
G1 X118.364 Y112 E2.4587
G1 X118.818 Y112.995 E2.50963
G1 X118.722 Y114.183 E2.56513
G1 X119.374 Y114.661 E2.60277
G1 X119.469 Y114.949 E2.61689
G1 X118.924 Y115.774 E2.66293
G1 X118.838 Y116 E2.67419
G1 X117.582 Y116 E2.73268
G1 X117.557 Y116.143 E2.73944
G1 X117.053 Y117.258 E2.79642
G1 X117.604 Y119.385 E2.89873
G1 X116.451 Y119.439 E2.95247
G1 X115.314 Y118.592 E3.01849
G1 X114.554 Y118.004 E3.06324
G1 X113.957 Y118.004 E3.09104
G1 X113.463 Y118.364 E3.1195
G1 X113.274 Y118.939 E3.14768
G1 X113.442 Y119.452 E3.17282
G1 X114.754 Y120 E3.23903
G1 X120.308 Y120 E3.49764
G1 X120 Y119.776 E3.51538
G1 X120 Y121.291 E3.58592
G1 X119.352 Y121.161 E3.6167
G1 X118.381 Y120.545 E3.67024
G1 X117.948 Y121.866 E3.73497
G1 X118.512 Y122.642 E3.77964
G1 X117.394 Y122.643 E3.8317
G1 X117.428 Y122.428 E3.84184
G1 X117.817 Y122.144 E3.86426
G1 X117.729 Y121.566 E3.89149
G1 X116.799 Y121.252 E3.93719
G1 X116 Y121.675 E3.97929
G1 X116 Y119.104 E4.09901
G1 F2700 E-0.90099
;MESH:chemcam-small.STL
G0 F6000 X116 Y124.323
G0 X121.216 Y124.704
G0 X121.398 Y128.422
;TYPE:WALL-INNER
G1 F2700 E4.09901
G1 F1200 X113.602 Y128.422 E4.46202
G1 X113.602 Y124.638 E4.63822
G1 X113.458 Y124.523 E4.6468
G1 X121.547 Y124.522 E5.02346
G1 X121.398 Y124.643 E5.0324
G1 X121.398 Y128.422 E5.20836
G0 F6000 X121.798 Y128.822
;TYPE:WALL-OUTER
G1 F1200 X113.202 Y128.822 E5.60863
G1 X113.202 Y124.83 E5.79451
G1 X112.841 Y124.541 E5.81605
G1 X112.314 Y124.541 E5.84058
G1 X112.122 Y124.537 E5.84953
G1 X112.121 Y124.123 E5.8688
G1 X122.878 Y124.122 E6.3697
G1 X122.878 Y124.537 E6.38902
G1 X122.692 Y124.54 E6.39768
G1 X122.158 Y124.54 E6.42255
G1 X121.798 Y124.833 E6.44416
G1 X121.798 Y128.822 E6.62991
G0 F6000 X121.528 Y128.552
G0 X121.288 Y128.032
G0 X121.008 Y128.032
;TYPE:SKIN
G1 F1200 X113.992 Y128.032 E6.9566
G1 X113.992 Y124.913 E7.10183
G1 X121.008 Y124.912 E7.42853
G1 X121.008 Y128.032 E7.57381
G0 F6000 X121.288 Y128.032
G0 X121.288 Y125.373
G0 X120.848 Y125.373
G1 F1200 X120.546 Y125.071 E7.5937
G0 F6000 X119.98 Y125.071
G1 F1200 X120.848 Y125.939 E7.65085
G0 F6000 X120.848 Y126.504
G1 F1200 X119.414 Y125.071 E7.74525
G0 F6000 X118.849 Y125.071
G1 F1200 X120.848 Y127.07 E7.87689
G0 F6000 X120.848 Y127.636
G1 F1200 X118.283 Y125.071 E8.0458
G0 F6000 X117.717 Y125.071
G1 F1200 X120.517 Y127.871 E8.23018
G0 F6000 X119.951 Y127.871
G1 F1200 X117.152 Y125.072 E8.4145
G0 F6000 X116.587 Y125.072
G1 F1200 X119.385 Y127.871 E8.59879
G0 F6000 X118.82 Y127.871
G1 F1200 X116.021 Y125.072 E8.78311
G0 F6000 X115.455 Y125.072
G1 F1200 X118.254 Y127.871 E8.96743
G0 F6000 X117.688 Y127.871
G1 F1200 X114.89 Y125.072 E9.15171
G0 F6000 X114.324 Y125.072
G1 F1200 X117.123 Y127.871 E9.33603
G0 F6000 X116.557 Y127.871
G1 F1200 X114.151 Y125.465 E9.49447
G0 F6000 X114.151 Y126.031
G1 F1200 X115.991 Y127.871 E9.61564
G0 F6000 X115.425 Y127.871
G1 F1200 X114.151 Y126.596 E9.69957
G0 F6000 X114.151 Y127.162
G1 F1200 X114.86 Y127.871 E9.74626
G0 F6000 X114.294 Y127.871
G1 F1200 X114.151 Y127.728 E9.75567
G0 F6000 X113.802 Y127.728
G1 F2700 E4.75567
;MESH:NONMESH
G0 F300 X113.802 Y127.728 Z0.56
G0 F6000 X113.712 Y127.728
G0 X113.784 Y124.705
G0 X116.884 Y124.323
G0 X116.883 Y108.868
;TIME_ELAPSED:19.552412
;LAYER:1
M106 S85
;TYPE:SUPPORT
G1 F2700 E9.75567
G1 F1350 X117.598 Y108.745 E9.78946
G1 X118.009 Y109.044 E9.81312
G1 X118.235 Y109.937 E9.85601
G1 X119.266 Y109.756 E9.90476
G1 X119.719 Y110.086 E9.93085
G1 X119.898 Y110.634 E9.9577
G1 X119.72 Y111.179 E9.98439
G1 X118.865 Y111.767 E10.03271
G1 X118.865 Y113.003 E10.09027
G1 X118.908 Y113.943 E10.13408
G1 X119.766 Y114.357 E10.17844
G1 X119.925 Y114.842 E10.20221
G1 X119.52 Y115.661 E10.24475
G1 X118.603 Y116.771 E10.31179
G1 X118.796 Y117.362 E10.34074
G1 X119.847 Y117.782 E10.39345
G1 X120.128 Y118.544 E10.43126
G1 X119.794 Y119.362 E10.47241
G1 X120.952 Y120.208 E10.53918
G1 X121.154 Y120.829 E10.56959
G1 X120.956 Y121.436 E10.59932
G1 X120.211 Y121.846 E10.63892
G1 X119.568 Y121.846 E10.66886
G1 X118.64 Y120.821 E10.73324
G1 X118.345 Y121.731 E10.77779
G1 X118.967 Y122.185 E10.81365
G1 X119.083 Y122.688 E10.83768
G1 X117.19 Y122.688 E10.92583
G1 X117.384 Y121.99 E10.95956
G1 X116.738 Y121.519 E10.99679
G1 X116.086 Y122.165 E11.03953
G1 X115.415 Y122.162 E11.07077
G1 X114.811 Y121.332 E11.11857
G1 X114.931 Y120.173 E11.17283
G1 X113.647 Y120.09 E11.23274
G1 X113.014 Y119.63 E11.26918
G1 X112.775 Y118.895 E11.30516
G1 X113.014 Y118.16 E11.34115
G1 X113.635 Y117.709 E11.37689
G1 X114.642 Y117.792 E11.42394
G1 X115.573 Y118.416 E11.47613
G1 X116.418 Y119.217 E11.53034
G1 X116.886 Y119.383 E11.55346
G1 X117.062 Y119.232 E11.56426
G1 X116.824 Y117.984 E11.62342
G1 X116.908 Y116.577 E11.68905
G1 X117.471 Y115.544 E11.74384
G1 X117.409 Y114.35 E11.79951
G1 X116.934 Y112.991 E11.86654
G1 X117.302 Y111.694 E11.92932
G1 X116.629 Y110.567 E11.99044
G1 X116.286 Y109.689 E12.03434
G1 X116.883 Y108.868 E12.0816
G0 F7500 X117.528 Y109.041
G1 F1350 X117.044 Y109.125 E12.10448
G1 X116.602 Y109.731 E12.1394
G1 X116.877 Y110.434 E12.17455
G1 X117.604 Y111.655 E12.24072
G1 X117.507 Y112 E12.25741
G1 X118.585 Y112 E12.30761
G1 X118.585 Y113.01 E12.35464
G1 X118.636 Y114.122 E12.40647
G1 X119.538 Y114.557 E12.4531
G1 X119.624 Y114.821 E12.46603
G1 X119.284 Y115.508 E12.50172
G1 X118.876 Y116 E12.53148
G1 X117.542 Y116 E12.5936
G1 X117.184 Y116.655 E12.62836
G1 X117.106 Y117.969 E12.68965
G1 X117.367 Y119.339 E12.75459
G1 X116.945 Y119.701 E12.78048
G1 X116.268 Y119.461 E12.81393
G1 X115.395 Y118.633 E12.86995
G1 X114.547 Y118.065 E12.91748
G1 X113.717 Y117.996 E12.95626
G1 X113.252 Y118.334 E12.98303
G1 X113.069 Y118.895 E13.01051
G1 X113.252 Y119.456 E13.03798
G1 X113.746 Y119.816 E13.06645
G1 X115.239 Y119.913 E13.13611
G1 X115.23 Y120 E13.14019
G1 X120.193 Y120 E13.37128
G1 X120 Y119.86 E13.38239
G1 X120 Y121.566 E13.46183
G1 X119.691 Y121.566 E13.47621
G1 X118.523 Y120.275 E13.55728
G1 X118.016 Y121.837 E13.63375
G1 X118.718 Y122.35 E13.67423
G1 X118.731 Y122.408 E13.677
G1 X117.559 Y122.408 E13.73158
G1 X117.706 Y121.878 E13.75719
G1 X116.71 Y121.152 E13.81458
G1 X116 Y121.857 E13.86117
G1 X116 Y119.207 E13.98456
G1 F2700 E8.98456
;MESH:chemcam-small.STL
G0 F7500 X116 Y124.108
G0 X121.807 Y124.485
G0 X121.731 Y128.755
;TYPE:WALL-INNER
G1 F2700 E13.98456
G1 F1350 X113.269 Y128.755 E14.37859
G1 X113.269 Y124.798 E14.56284
G1 X112.864 Y124.474 E14.58699
G1 X112.338 Y124.474 E14.61149
G1 X112.243 Y124.397 E14.61718
G1 X112.243 Y124.288 E14.62226
G1 X122.758 Y124.288 E15.11188
G1 X122.758 Y124.397 E15.11695
G1 X122.664 Y124.473 E15.12258
G1 X122.134 Y124.473 E15.14726
G1 X121.731 Y124.801 E15.17146
G1 X121.731 Y128.755 E15.35557
G0 F7500 X122.07 Y129.155
;TYPE:WALL-OUTER
G1 F1350 X112.93 Y129.155 E15.78117
G1 X112.869 Y129.094 E15.78519
G1 X112.869 Y124.99 E15.97629
G1 X112.724 Y124.874 E15.98493
G1 X112.196 Y124.874 E16.00952
G1 X111.843 Y124.588 E16.03067
G1 X111.843 Y124.003 E16.05791
G1 X111.958 Y123.888 E16.06549
G1 X123.042 Y123.888 E16.5816
G1 X123.158 Y124.003 E16.58921
G1 X123.158 Y124.588 E16.61645
G1 X122.805 Y124.873 E16.63757
G1 X122.276 Y124.873 E16.66221
G1 X122.131 Y124.991 E16.67091
G1 X122.131 Y129.094 E16.86197
G1 X122.07 Y129.155 E16.86598
G0 F7500 X121.861 Y128.885
G0 X121.621 Y128.365
G0 X121.341 Y128.365
;TYPE:SKIN
G1 F1350 X113.659 Y128.365 E17.22369
G1 X113.659 Y124.678 E17.39537
G1 X121.341 Y124.678 E17.75308
G1 X121.341 Y128.365 E17.92476
G0 F7500 X120.697 Y128.204
G1 F1350 X121.181 Y127.72 E17.95663
G0 F7500 X121.181 Y127.154
G1 F1350 X120.131 Y128.204 E18.02578
G0 F7500 X119.566 Y128.204
G1 F1350 X121.181 Y126.589 E18.13213
G0 F7500 X121.181 Y126.023
G1 F1350 X119 Y128.204 E18.27575
G0 F7500 X118.434 Y128.204
G1 F1350 X121.181 Y125.457 E18.45664
G0 F7500 X121.181 Y124.892
G1 F1350 X117.869 Y128.204 E18.67474
G0 F7500 X117.303 Y128.204
G1 F1350 X120.67 Y124.836 E18.8965
G0 F7500 X120.104 Y124.836
G1 F1350 X116.737 Y128.204 E19.11825
G0 F7500 X116.171 Y128.204
G1 F1350 X119.539 Y124.836 E19.34004
G0 F7500 X118.973 Y124.836
G1 F1350 X115.606 Y128.204 E19.5618
G0 F7500 X115.04 Y128.204
G1 F1350 X118.407 Y124.836 E19.78355
G0 F7500 X117.842 Y124.836
G1 F1350 X114.474 Y128.204 E20.00534
G0 F7500 X113.909 Y128.204
G1 F1350 X117.276 Y124.836 E20.2271
G0 F7500 X116.71 Y124.836
G1 F1350 X113.818 Y127.728 E20.41754
G0 F7500 X113.818 Y127.163
G1 F1350 X116.145 Y124.836 E20.57078
G0 F7500 X115.579 Y124.836
G1 F1350 X113.818 Y126.597 E20.68674
G0 F7500 X113.818 Y126.031
G1 F1350 X115.013 Y124.836 E20.76544
G0 F7500 X114.448 Y124.836
G1 F1350 X113.818 Y125.466 E20.80692
G0 F7500 X113.818 Y124.9
G1 F1350 X113.882 Y124.836 E20.81114
G0 F7500 X113.882 Y124.488
G1 F2700 E15.81114
;MESH:NONMESH
G0 F300 X113.882 Y124.488 Z0.84
G0 F7500 X113.882 Y124.398
G0 X116.663 Y124.108
G0 X116.663 Y108.839
;TIME_ELAPSED:35.371690
;LAYER:2
M106 S170
;TYPE:SUPPORT
G1 F2700 E20.81114
G1 F1500 X117.094 Y108.525 E20.83597
G1 X117.574 Y108.525 E20.85832
G1 X118.186 Y109.368 E20.90683
G1 X118.06 Y109.976 E20.93574
G1 X119.48 Y109.703 E21.00307
G1 X119.92 Y110.023 E21.0284
G1 X120.095 Y110.557 E21.05457
G1 X119.926 Y111.074 E21.0799
G1 X118.707 Y111.696 E21.14362
G1 X118.934 Y113.209 E21.21486
G1 X118.803 Y113.947 E21.24976
G1 X120.019 Y114.361 E21.30958
G1 X120.171 Y114.827 E21.3324
G1 X119.909 Y115.509 E21.36642
G1 X118.841 Y115.909 E21.41953
G1 X118.651 Y117.254 E21.48278
G1 X119.507 Y117.254 E21.52263
G1 X119.964 Y117.587 E21.54896
G1 X120.143 Y118.133 E21.57572
G1 X119.911 Y119.389 E21.63519
G1 X121.149 Y120.308 E21.70699
G1 X121.347 Y120.915 E21.73672
G1 X121.151 Y121.517 E21.7662
G1 X120.533 Y121.92 E21.80055
G1 X119.947 Y121.92 E21.82784
G1 X118.69 Y121.015 E21.89996
G1 X118.45 Y121.238 E21.91522
G1 X119.337 Y122.688 E21.99437
G1 X117.123 Y122.688 E22.09746
G1 X117.424 Y122.181 E22.12491
G1 X116.667 Y121.577 E22.17001
G1 X116.023 Y122.308 E22.21537
G1 X115.111 Y122.011 E22.26003
G1 X114.809 Y121.388 E22.29227
G1 X115.376 Y120.199 E22.35361
G1 X113.989 Y120.067 E22.41849
G1 X113.378 Y120.053 E22.44694
G1 X112.76 Y119.604 E22.48251
G1 X112.526 Y118.887 E22.51763
G1 X112.812 Y118.097 E22.55676
G1 X113.416 Y117.658 E22.59152
G1 X114.434 Y117.816 E22.63949
G1 X115.429 Y118.303 E22.69108
G1 X116.582 Y119.138 E22.75737
G1 X116.748 Y119.402 E22.77189
G1 X117.044 Y119.307 E22.78636
G1 X116.97 Y118.033 E22.84579
G1 X116.733 Y117.359 E22.87905
G1 X117.243 Y116.194 E22.93827
G1 X117.355 Y115.204 E22.98466
G1 X117.186 Y113.961 E23.04308
G1 X117.175 Y112.776 E23.09826
G1 X116.958 Y112.159 E23.12871
G1 X117.251 Y111.099 E23.17992
G1 X116.297 Y110.49 E23.23262
G1 X116.13 Y109.976 E23.25779
G1 X116.663 Y108.839 E23.31626
G0 F9000 X117.431 Y108.805
G1 F1500 X117.186 Y108.805 E23.32767
G1 X116.885 Y109.024 E23.345
G1 X116.431 Y109.994 E23.39487
G1 X116.532 Y110.308 E23.41023
G1 X117.576 Y110.974 E23.46789
G1 X117.294 Y112 E23.51744
G1 X118.47 Y112 E23.5722
G1 X118.65 Y113.205 E23.62893
G1 X118.485 Y114.135 E23.67291
G1 X119.796 Y114.581 E23.73739
G1 X119.874 Y114.818 E23.74901
G1 X119.692 Y115.292 E23.77265
G1 X118.587 Y115.705 E23.82758
G1 X118.545 Y116 E23.84146
G1 X117.547 Y116 E23.88793
G1 X117.516 Y116.268 E23.90049
G1 X117.033 Y117.37 E23.95652
G1 X117.247 Y117.977 E23.98649
G1 X117.336 Y119.507 E24.05785
G1 X116.626 Y119.735 E24.09258
G1 X116.374 Y119.333 E24.11467
G1 X115.286 Y118.545 E24.17722
G1 X114.348 Y118.086 E24.22585
G1 X113.488 Y117.953 E24.26637
G1 X113.045 Y118.275 E24.29187
G1 X112.821 Y118.891 E24.32239
G1 X112.998 Y119.429 E24.34876
G1 X113.473 Y119.775 E24.37613
G1 X114.006 Y119.787 E24.40095
G1 X115.801 Y119.958 E24.48491
G1 X115.78 Y120 E24.4871
G1 X120.265 Y120 E24.69594
G1 X120 Y119.804 E24.71129
G1 X120 Y121.613 E24.79552
G1 X118.668 Y120.654 E24.87195
G1 X118.092 Y121.189 E24.90856
G1 X118.837 Y122.408 E24.97508
G1 X117.615 Y122.408 E25.03198
G1 X117.789 Y122.114 E25.04789
G1 X116.633 Y121.192 E25.11674
G1 X116 Y121.912 E25.16138
G1 X116 Y119.063 E25.29404
G1 F2700 E20.29404
;MESH:chemcam-small.STL
G0 F9000 X116 Y124.108
G0 X122.337 Y124.485
G0 X122.041 Y129.088
;TYPE:WALL-INNER
G1 F2700 E25.29404
G1 F1500 X112.959 Y129.088 E25.71694
G1 X112.936 Y129.065 E25.71845
G1 X112.936 Y124.959 E25.90964
G1 X112.116 Y124.295 E25.95878
G1 X112.123 Y124.288 E25.95924
G1 X122.877 Y124.288 E26.45999
G1 X122.885 Y124.295 E26.46048
G1 X122.064 Y124.958 E26.50962
G1 X122.064 Y129.065 E26.70086
G1 X122.041 Y129.088 E26.70238
G0 F9000 X122.207 Y129.488
;TYPE:WALL-OUTER
G1 F1500 X112.793 Y129.488 E27.14073
G1 X112.536 Y129.231 E27.15765
G1 X112.536 Y125.15 E27.34768
G1 X111.702 Y124.475 E27.39764
G1 X111.7 Y124.145 E27.41301
G1 X111.958 Y123.888 E27.42997
G1 X123.042 Y123.888 E27.94608
G1 X123.3 Y124.145 E27.96304
G1 X123.3 Y124.474 E27.97836
G1 X122.464 Y125.149 E28.02839
G1 X122.464 Y129.231 E28.21847
G1 X122.207 Y129.488 E28.23539
G0 F9000 X121.674 Y128.698
;TYPE:SKIN
G1 F1500 X113.326 Y128.698 E28.62411
G1 X113.326 Y124.773 E28.80687
G1 X113.209 Y124.678 E28.81389
G1 X121.789 Y124.678 E29.21341
G1 X121.674 Y124.771 E29.2203
G1 X121.674 Y128.698 E29.40316
G0 F9000 X121.954 Y128.698
G0 X121.954 Y124.908
G0 X121.514 Y124.908
G1 F1500 X121.443 Y124.837 E29.40783
G0 F9000 X120.877 Y124.837
G1 F1500 X121.514 Y125.473 E29.44975
G0 F9000 X121.514 Y126.039
G1 F1500 X120.312 Y124.837 E29.5289
G0 F9000 X119.746 Y124.837
