;FLAVOR:Marlin
;TIME:3151
;Filament used: 1.86007m
;Layer height: 0.28
;MINX:95.828
;MINY:97.772
;MINZ:0.28
;MAXX:139.227
;MAXY:137.449
;MAXZ:11.76
;Generated with Cura_SteamEngine 4.8.0
M140 S60
M105
M190 S60
M104 S200
M105
M109 S200
M82 ;absolute extrusion mode
; Ender 3 Custom Start G-code
M117 PRINT PRINT PRINT
G92 E0 ; Reset Extruder
G28 ; Home all axes
G1 Z2.0 F3000 ; Move Z Axis up little to prevent scratching of Heat Bed
G1 X0.1 Y20 Z0.3 F5000.0 ; Move to start position
G1 X0.1 Y200.0 Z0.3 F1500.0 E15 ; Draw the first line
G1 X0.4 Y200.0 Z0.3 F5000.0 ; Move to side a little
G1 X0.4 Y20 Z0.3 F1500.0 E30 ; Draw the second line
G92 E0 ; Reset Extruder
G1 Z2.0 F3000 ; Move Z Axis up little to prevent scratching of Heat Bed
G1 X5 Y20 Z0.3 F5000.0 ; Move over to prevent blob squish
G92 E0
G92 E0
G1 F2700 E-5
;LAYER_COUNT:42
;LAYER:0
M107
M204 S500
M205 X8 Y8
G0 F6000 X106.361 Y101.402 Z0.28
;TYPE:SUPPORT
G1 F2700 E0
G1 F1200 X107.189 Y100.614 E0.05322
G1 X107.496 Y100.457 E0.06928
G1 X108.501 Y100.788 E0.11855
G1 X108.473 Y100.897 E0.12379
G1 X107.337 Y101.629 E0.18672
G1 X106.637 Y102.578 E0.24163
G1 X106.361 Y102.385 E0.25731
G1 X106.361 Y101.402 E0.30308
G1 F2700 E-4.69692
G0 F6000 X106.217 Y103.281
G1 F2700 E0.30308
G1 F1200 X106.095 Y104.249 E0.34851
G1 X106.242 Y105.597 E0.41165
G1 X105.533 Y105.177 E0.45003
G1 X105.25 Y104.128 E0.50062
G1 X105.488 Y103.519 E0.53106
G1 X106.217 Y103.281 E0.56677
G0 F6000 X105.885 Y103.684
G1 F1200 X105.7 Y103.745 E0.57584
G1 X105.544 Y104.143 E0.59575
G1 X105.773 Y104.993 E0.63674
G1 X105.903 Y105.07 E0.64378
G1 X105.813 Y104.246 E0.68237
G1 X105.844 Y104 E0.69392
G1 X105.601 Y104 E0.70523
G1 F2700 E-4.29477
G0 F6000 X107.497 Y107.545
G1 F2700 E0.70523
G1 F1200 X108.471 Y108.202 E0.75994
G1 X109.685 Y108.485 E0.81798
G1 X109.617 Y108.834 E0.83454
G1 X109.23 Y109.116 E0.85684
G1 X107.815 Y108.777 E0.92459
G1 X107.21 Y108.031 E0.96932
G1 X107.497 Y107.545 E0.9956
G0 F6000 X107.587 Y107.944
G1 F1200 X107.55 Y108.006 E0.99896
G1 X107.972 Y108.527 E1.03018
G1 X108 Y108.533 E1.03151
G1 X108 Y108.223 E1.04595
G1 X107.671 Y108 E1.06445
G1 X107.554 Y108 E1.0699
G1 F2700 E-3.9301
G0 F6000 X111.153 Y108.367
G1 F2700 E1.0699
G1 F1200 X112.243 Y107.908 E1.12497
G1 X113.098 Y107.104 E1.17962
G1 X113.293 Y107.49 E1.19976
G1 X112.999 Y108.483 E1.24798
G1 X112.132 Y108.991 E1.29477
G1 X111.16 Y108.488 E1.34574
G1 X111.153 Y108.367 E1.35138
G0 F6000 X112.554 Y108
G1 F1200 X112.849 Y108 E1.36512
G1 X112.761 Y108.298 E1.37958
G1 X112.124 Y108.671 E1.41396
G1 X112 Y108.606 E1.42048
G1 X112 Y108.313 E1.43412
G1 X112.398 Y108.146 E1.45422
G1 X112.963 Y107.615 E1.49032
G1 F2700 E-3.50968
G0 F6000 X113.816 Y105.825
G1 F2700 E1.49032
G1 F1200 X114.048 Y105.08 E1.52665
G1 X113.978 Y103.626 E1.59444
G1 X113.946 Y103.52 E1.59959
G1 X114.787 Y104.136 E1.64813
G1 X114.819 Y105.03 E1.68979
G1 X114.327 Y105.536 E1.72265
G1 X113.816 Y105.825 E1.74999
G1 F2700 E-3.25001
G0 F6000 X113.464 Y102.487
G1 F2700 E1.74999
G1 F1200 X112.728 Y101.535 E1.80602
G1 X111.69 Y100.917 E1.86227
G1 X112.096 Y100.389 E1.89329
G1 X112.173 Y100.359 E1.89713
G1 X113.353 Y100.906 E1.9577
G1 X113.92 Y101.858 E2.00929
G1 X113.464 Y102.487 E2.04547
G1 F2700 E-2.95453
G0 F6000 X117.535 Y103.28
G1 F2700 E2.04547
G1 F1200 X117.703 Y103.4 E2.05508
G1 X117.628 Y103.601 E2.06507
G1 X117.535 Y103.28 E2.08063
G1 F2700 E-2.91937
G0 F6000 X117.607 Y105.573
G1 F2700 E2.08063
G1 F1200 X117.761 Y106.106 E2.10647
G1 X117.786 Y106.217 E2.11176
G1 X117.437 Y106.154 E2.12828
G1 X117.607 Y105.573 E2.15647
G1 F2700 E-2.84353
G0 F6000 X120.413 Y105.32
G1 F2700 E2.15647
G1 F1200 X120.273 Y104.299 E2.20445
G1 X121.026 Y103.495 E2.25575
G1 X121.328 Y103.495 E2.26981
G1 X121.11 Y104.817 E2.3322
G1 X121.139 Y105.556 E2.36664
G1 X120.413 Y105.32 E2.40218
G0 F6000 X120.937 Y104
G1 F1200 X120.96 Y104 E2.40325
G1 X120.829 Y104.8 E2.441
G1 X120.843 Y105.166 E2.45806
G1 X120.666 Y105.108 E2.46673
G1 X120.568 Y104.394 E2.50029
G1 X120.966 Y103.969 E2.5274
G0 F6000 X121.676 Y102.623
G1 F1200 X121.236 Y102.018 E2.56223
G1 X121.867 Y101.083 E2.61476
G1 X122.727 Y100.574 E2.66129
G1 X123.842 Y100.355 E2.7142
G1 X124.22 Y100.797 E2.74128
G1 X123.161 Y101.155 E2.79334
G1 X122.027 Y102.098 E2.86201
G1 X121.676 Y102.623 E2.89142
G1 F2700 E-2.10858
G0 F6000 X126.332 Y100.795
G1 F2700 E2.89142
G1 F1200 X127.19 Y100.473 E2.93409
G1 X128.058 Y100.901 E2.97916
G1 X128.759 Y101.89 E3.0356
G1 X128.464 Y102.586 E3.0708
G1 X127.751 Y101.649 E3.12563
G1 X126.525 Y100.919 E3.19207
G1 X126.332 Y100.795 E3.20275
G0 F6000 X127.175 Y100.777
G1 F1200 X126.966 Y100.855 E3.21314
G1 X127.941 Y101.436 E3.26599
G1 X128.394 Y102.032 E3.30085
G1 X128.44 Y101.924 E3.30631
G1 X128 Y101.304 E3.34171
G1 X128 Y101.513 E3.35145
G1 F2700 E-1.64855
G0 F6000 X128.8 Y103.229
G1 F2700 E3.35145
G1 F1200 X128.905 Y103.229 E3.35634
G1 X129.814 Y104.223 E3.41906
G1 X129.945 Y105.051 E3.45809
G1 X129.283 Y105.591 E3.49787
G1 X128.988 Y105.489 E3.51241
G1 X129.084 Y104.217 E3.5718
G1 X128.8 Y103.229 E3.61967
G1 F2700 E-1.38033
G0 F6000 X127.954 Y107.443
G1 F2700 E3.61967
G1 F1200 X127.901 Y108.211 E3.65552
G1 X127.925 Y108.61 E3.67413
G1 X126.784 Y109.123 E3.73238
G1 X126.278 Y109.123 E3.75595
G1 X125.84 Y108.542 E3.78983
G1 X126.841 Y108.258 E3.83828
G1 X127.954 Y107.443 E3.90251
G1 F2700 E-1.09749
G0 F6000 X124.712 Y108.603
G1 F2700 E3.90251
G1 F1200 X124.653 Y108.959 E3.91931
G1 X124.264 Y109.243 E3.94174
G1 X123.181 Y109.049 E3.99297
G1 X122.136 Y108.545 E4.047
G1 X121.909 Y108.351 E4.0609
G1 X122.413 Y107.676 E4.10013
G1 X122.51 Y107.676 E4.10464
G1 X123.59 Y108.357 E4.16409
G1 X124.712 Y108.603 E4.21758
G0 F6000 X124 Y108.911
G1 F1200 X124 Y108.734 E4.22582
G1 X124.374 Y108.815 E4.24364
G1 X124.195 Y108.946 E4.25397
G1 X123.267 Y108.78 E4.29787
G1 X122.29 Y108.308 E4.34839
G1 X122.514 Y108.009 E4.36579
G1 F2700 E-0.63421
G0 F6000 X120.107 Y113.434
G1 F2700 E4.36579
G1 F1200 X120.594 Y113.925 E4.39799
G1 X120.151 Y114.54 E4.43328
G1 X119.13 Y113.844 E4.49082
G1 X117.913 Y113.559 E4.54902
G1 X117.971 Y113.212 E4.5654
G1 X118.378 Y112.916 E4.58884
G1 X118.919 Y112.916 E4.61403
G1 X120.107 Y113.434 E4.67438
G0 F6000 X120 Y114.098
G1 F1200 X120 Y113.724 E4.69179
G1 X120.228 Y113.954 E4.70687
G1 X120.083 Y114.155 E4.71841
G1 X119.245 Y113.584 E4.76563
G1 X118.255 Y113.352 E4.81298
G1 X118.47 Y113.196 E4.82535
G1 X118.862 Y113.196 E4.8436
G1 F2700 E-0.1564
G0 F6000 X116.436 Y113.556
G1 F2700 E4.8436
G1 F1200 X116.446 Y113.679 E4.84935
G1 X115.358 Y114.139 E4.90435
G1 X114.35 Y115.087 E4.96878
G1 X114.287 Y115.1 E4.97178
G1 X114.287 Y114.17 E5.01508
G1 X114.637 Y113.568 E5.04751
G1 X115.434 Y113.075 E5.09115
G1 X116.436 Y113.556 E5.1429
G1 F2700 E0.1429
G0 F6000 X113.796 Y116.194
G1 F2700 E5.1429
G1 F1200 X113.516 Y117.435 E5.20214
G1 X113.697 Y118.552 E5.25483
G1 X113.353 Y118.571 E5.27087
G1 X112.701 Y117.745 E5.31987
G1 X112.685 Y116.624 E5.37208
G1 X112.755 Y116.32 E5.3866
G1 X113.796 Y116.194 E5.43543
G1 F2700 E0.43543
G0 F6000 X109.998 Y116.2
G1 F2700 E5.43543
G1 F1200 X109.992 Y116.267 E5.43856
G1 X109.982 Y116.2 E5.44172
G1 X109.998 Y116.2 E5.44246
G1 F2700 E0.44246
G0 F6000 X107.442 Y117.088
G1 F2700 E5.44246
G1 F1200 X107.461 Y118.13 E5.49099
G1 X107.401 Y118.41 E5.50432
G1 X106.431 Y118.423 E5.5495
G1 X106.563 Y117.117 E5.61062
G1 X106.633 Y116.903 E5.6211
G1 X107.442 Y117.088 E5.65975
G1 F2700 E0.65975
G0 F6000 X106.511 Y115.022
G1 F2700 E5.65975
G1 F1200 X105.927 Y115.336 E5.69062
G1 X105.232 Y114.485 E5.74178
G1 X104.115 Y113.82 E5.80231
G1 X104.133 Y113.684 E5.8087
G1 X104.713 Y113.323 E5.84051
G1 X105.781 Y113.777 E5.89455
G1 X106.555 Y114.62 E5.94784
G1 X106.511 Y115.022 E5.96667
G1 F2700 E0.96667
G0 F6000 X100.977 Y113.851
G1 F2700 E5.96667
G1 F1200 X99.842 Y114.581 E6.02951
G1 X99.209 Y115.451 E6.07961
G1 X98.911 Y114.754 E6.1149
G1 X99.48 Y113.737 E6.16917
G1 X100.014 Y113.41 E6.19833
G1 X101.007 Y113.714 E6.24668
G1 X100.977 Y113.851 E6.25321
G0 F6000 X100.053 Y113.715
G1 F1200 X99.69 Y113.937 E6.27303
G1 X99.223 Y114.771 E6.31753
G1 X99.272 Y114.886 E6.32335
G1 X99.646 Y114.374 E6.35288
G1 X100 Y114.147 E6.37246
G1 X100 Y113.747 E6.39109
G1 F2700 E1.39109
G0 F6000 X98.843 Y116.204
G1 F2700 E6.39109
G1 F1200 X98.599 Y117.189 E6.43834
G1 X98.751 Y118.573 E6.50317
G1 X98.091 Y118.171 E6.53915
G1 X97.765 Y117.101 E6.59124
G1 X98.001 Y116.743 E6.61121
G1 X98.606 Y116.204 E6.64894
G1 X98.843 Y116.204 E6.65997
G1 F2700 E1.65997
G0 F6000 X100.146 Y120.625
G1 F2700 E6.65997
G1 F1200 X101.433 Y121.32 E6.72808
G1 X101.656 Y121.37 E6.73872
G1 X101.242 Y121.894 E6.76982
G1 X100.464 Y121.805 E6.80628
G1 X99.87 Y121.073 E6.85018
G1 X100.146 Y120.625 E6.87468
G1 F2700 E1.87468
G0 F6000 X104.069 Y121.218
G1 F2700 E6.87468
G1 F1200 X105.139 Y120.573 E6.93285
G1 X105.407 Y120.305 E6.9505
G1 X105.567 Y120.784 E6.97402
G1 X105.237 Y121.512 E7.01124
G1 X104.8 Y121.68 E7.03304
G1 X104.069 Y121.218 E7.0733
G1 F2700 E2.0733
G0 F6000 X113.661 Y120.182
G1 F2700 E7.0733
G1 F1200 X114.125 Y119.544 E7.11004
G1 X114.873 Y120.51 E7.16693
G1 X116.032 Y121.2 E7.22973
G1 X115.405 Y121.666 E7.26611
G1 X114.306 Y121.061 E7.32453
G1 X113.661 Y120.182 E7.37529
G1 F2700 E2.37529
G0 F6000 X117.897 Y121.436
G1 F2700 E7.37529
G1 F1200 X119.03 Y121.213 E7.42906
G1 X120.257 Y120.423 E7.49701
G1 X120.511 Y120.14 E7.51472
G1 X121.029 Y120.836 E7.55512
G1 X120.183 Y121.53 E7.60607
G1 X119.318 Y122.009 E7.65211
G1 X119.246 Y121.789 E7.66289
G1 X118.312 Y121.958 E7.70709
G1 X117.897 Y121.436 E7.73814
G1 F2700 E2.73814
G0 F6000 X120 Y120.921
G1 F2700 E7.73814
G1 F1200 X120 Y121.312 E7.75635
G1 X119.479 Y121.6 E7.78407
G1 X119.436 Y121.47 E7.79044
G1 X118.427 Y121.652 E7.83819
G1 X118.403 Y121.622 E7.83998
G1 X119.136 Y121.478 E7.87476
G1 X120.44 Y120.638 E7.94699
G1 X120.491 Y120.581 E7.95055
G1 F2700 E2.95055
G0 F6000 X121.3 Y118.662
G1 F2700 E7.95055
G1 F1200 X121.514 Y117.343 E8.01277
G1 X121.478 Y116.509 E8.05164
G1 X122.234 Y116.455 E8.08693
G1 X122.343 Y117.494 E8.13558
G1 X122.147 Y118.406 E8.17901
G1 X121.745 Y118.7 E8.2022
G1 X121.3 Y118.662 E8.223
G1 F2700 E3.223
G0 F6000 X127.591 Y117.281
G1 F2700 E8.223
G1 F1200 X127.764 Y116.283 E8.27017
G1 X128.38 Y115.107 E8.33198
G1 X129.196 Y114.449 E8.38079
G1 X129.675 Y114.449 E8.4031
G1 X129.857 Y114.687 E8.41705
G1 X129.02 Y115.639 E8.47607
G1 X128.539 Y116.946 E8.54092
G1 X128.125 Y117.383 E8.56895
G1 X127.591 Y117.281 E8.59427
G0 F6000 X128.229 Y116
G1 F1200 X128.587 Y116 E8.61094
G1 X128.295 Y116.795 E8.65038
G1 X128.027 Y117.079 E8.66856
G1 X128 Y117.073 E8.66985
G1 X128 Y116.563 E8.69359
G1 X128.033 Y116.374 E8.70253
G1 X128.601 Y115.289 E8.75955
G1 X129.295 Y114.729 E8.80108
G1 X129.447 Y114.729 E8.80816
G1 F2700 E3.80816
G0 F6000 X131.175 Y113.904
G1 F2700 E8.80816
G1 F1200 X131.232 Y113.406 E8.8315
G1 X131.942 Y112.845 E8.87363
G1 X133.251 Y112.986 E8.93494
G1 X133.83 Y113.784 E8.98085
G1 X133.778 Y113.943 E8.98864
G1 X132.657 Y113.688 E9.04217
G1 X131.31 Y113.853 E9.10536
G1 X131.175 Y113.904 E9.11208
G0 F6000 X132 Y113.157
G1 F1200 X132 Y113.487 E9.12744
G1 X131.507 Y113.547 E9.15057
G1 X132.026 Y113.137 E9.18137
G1 F2700 E4.18137
G0 F6000 X130.889 Y110.399
G1 F2700 E9.18137
G1 F1200 X130.844 Y110.408 E9.1835
G1 X130.858 Y110.39 E9.18457
G1 X130.889 Y110.399 E9.18607
G1 F2700 E4.18607
G0 F6000 X134.874 Y113.847
G1 F2700 E9.18607
G1 F1200 X135.322 Y113.847 E9.20693
G1 X136.379 Y114.882 E9.27581
G1 X136.545 Y115.708 E9.31505
G1 X136.136 Y116.218 E9.34549
G1 X135.689 Y115.321 E9.39215
G1 X134.622 Y114.319 E9.46031
G1 X134.507 Y114.254 E9.46646
G1 X134.874 Y113.847 E9.49198
G0 F6000 X135.207 Y114.127
G1 F1200 X134.999 Y114.127 E9.50167
G1 X134.92 Y114.215 E9.50717
G1 X135.917 Y115.151 E9.57085
G1 X136.192 Y115.702 E9.59952
G1 X136.246 Y115.635 E9.60353
G1 X136.122 Y115.022 E9.63265
G1 X136 Y114.903 E9.64059
G1 X136 Y115.317 E9.65987
G1 F2700 E4.65987
G0 F6000 X136.135 Y119.147
G1 F2700 E9.65987
G1 F1200 X136.519 Y119.697 E9.6911
G1 X136.192 Y120.844 E9.74664
G1 X135.433 Y121.424 E9.79112
G1 X134.646 Y121.168 E9.82966
G1 X134.774 Y120.936 E9.84199
G1 X135.763 Y119.944 E9.90722
G1 X136.135 Y119.147 E9.94817
G0 F6000 X136.183 Y119.705
G1 F1200 X136 Y120.098 E9.96836
G1 X136 Y120.498 E9.98699
G1 X136.141 Y120 E10.01109
G1 X136.046 Y120 E10.01551
G1 F2700 E5.01551
G0 F6000 X133.023 Y121.716
G1 F2700 E10.01551
G1 F1200 X133.148 Y122.44 E10.04972
G1 X132.051 Y122.479 E10.10084
G1 X131.461 Y121.668 E10.14753
G1 X131.464 Y121.521 E10.15438
G1 X132.475 Y121.683 E10.20206
G1 X133.023 Y121.716 E10.22762
G0 F6000 X132 Y121.931
G1 F1200 X132 Y121.891 E10.22948
G1 X132.444 Y121.962 E10.25042
G1 X132.785 Y121.982 E10.26633
G1 X132.817 Y122.171 E10.27525
G1 X132.191 Y122.193 E10.30442
G1 X131.966 Y121.885 E10.32218
G1 F2700 E5.32218
G0 F6000 X130.067 Y120.831
G1 F2700 E10.32218
G1 F1200 X129.461 Y121 E10.35148
G1 X128.53 Y120.453 E10.40176
G1 X128.377 Y119.688 E10.43808
G1 X128.854 Y119.335 E10.46571
G1 X129.378 Y120.238 E10.51433
G1 X130.067 Y120.831 E10.55666
G0 F6000 X128.723 Y120
G1 F1200 X128.916 Y120 E10.56564
G1 X129.16 Y120.42 E10.58826
G1 X129.45 Y120.669 E10.60606
G1 X128.78 Y120.276 E10.64223
G1 X128.686 Y119.808 E10.66446
G1 X128.769 Y119.747 E10.66925
G1 F2700 E5.66925
G0 F6000 X130.452 Y124.915
G1 F2700 E10.66925
G1 F1200 X130.807 Y124.987 E10.68612
G1 X130.603 Y125.043 E10.69597
G1 X130.452 Y124.915 E10.70519
G1 F2700 E5.70519
G0 F6000 X128.488 Y128.649
G1 F2700 E10.70519
G1 F1200 X129.132 Y129.537 E10.75627
G1 X129.312 Y130.153 E10.78615
G1 X129.634 Y130.998 E10.82826
G1 X129.413 Y131.286 E10.84516
G1 X128.597 Y131.655 E10.88686
G1 X128.798 Y130.767 E10.92926
G1 X128.631 Y129.41 E10.99292
G1 X128.266 Y128.649 E11.03222
G1 X128.488 Y128.649 E11.04256
G0 F6000 X127.676 Y127.841
G1 F1200 X126.849 Y127.132 E11.09328
G1 X126.038 Y126.785 E11.13436
G1 X126.136 Y126.193 E11.1623
G1 X126.316 Y126.082 E11.17214
G1 X127.461 Y126.698 E11.23269
G1 X127.79 Y127.643 E11.27928
G1 X127.676 Y127.841 E11.28992
G1 F2700 E6.28992
G0 F6000 X123.28 Y126.894
G1 F2700 E11.28992
G1 F1200 X122.252 Y127.484 E11.34511
G1 X121.786 Y127.978 E11.37673
G1 X121.476 Y127.479 E11.40409
G1 X121.92 Y126.629 E11.44874
G1 X122.78 Y126.113 E11.49544
G1 X123.262 Y126.692 E11.53052
G1 X123.28 Y126.894 E11.53996
G1 F2700 E6.53996
G0 F6000 X121.19 Y128.6
G1 F2700 E11.53996
G1 F1200 X121.261 Y128.742 E11.54736
G1 X120.835 Y130.025 E11.61031
G1 X120.907 Y131.486 E11.67842
G1 X121.032 Y131.841 E11.69594
G1 X120.405 Y131.624 E11.72684
G1 X119.972 Y130.538 E11.78128
G1 X119.953 Y130.214 E11.79639
G1 X120.374 Y130.025 E11.81788
G1 X120.374 Y128.866 E11.87185
G1 X121.19 Y128.6 E11.91181
G1 F2700 E6.91181
G0 F6000 X121.421 Y132.625
G1 F2700 E11.91181
G1 F1200 X122.156 Y133.574 E11.9677
G1 X123.405 Y134.316 E12.03535
G1 X123.457 Y134.334 E12.03791
G1 X122.699 Y134.741 E12.07798
G1 X121.841 Y134.318 E12.12252
G1 X120.972 Y133.238 E12.18707
G1 X121.421 Y132.625 E12.22245
G1 F2700 E7.22245
G0 F6000 X125.239 Y134.495
G1 F2700 E12.22245
G1 F1200 X126.313 Y134.274 E12.27351
G1 X127.548 Y133.478 E12.34192
G1 X128.196 Y132.6 E12.39274
G1 X128.625 Y133.197 E12.42697
G1 X128.008 Y134.055 E12.47618
G1 X127.359 Y134.641 E12.51689
G1 X126.237 Y134.349 E12.57088
G1 X125.309 Y134.577 E12.61538
G1 X125.239 Y134.495 E12.6204
G1 F2700 E7.6204
G0 F6000 X128 Y133.337
G1 F2700 E12.6204
G1 F1200 X128 Y133.587 E12.63204
G1 X127.797 Y133.869 E12.64822
G1 X127.284 Y134.332 E12.68039
G1 X126.895 Y134.231 E12.69911
G1 X127.743 Y133.685 E12.74607
G1 X128.193 Y133.076 E12.78133
G1 F2700 E7.78133
;MESH:wheel-small.STL
G0 F6000 X109.628 Y111.191
G0 X108.406 Y110.678
;TYPE:WALL-OUTER
G1 F2700 E12.78133
G1 F1200 X108.385 Y110.612 E12.78456
G1 X108.047 Y110.506 E12.80105
G1 X107.778 Y110.406 E12.81441
G1 X107.312 Y110.206 E12.83803
G1 X107.287 Y110.273 E12.84136
G1 X107.264 Y110.189 E12.84541
G1 X106.973 Y110.016 E12.86118
G1 X106.671 Y109.833 E12.87762
G1 X106.591 Y109.782 E12.88204
G1 X106.333 Y109.599 E12.89676
G1 X106.085 Y109.405 E12.91143
G1 X105.802 Y109.159 E12.92889
G1 X105.578 Y109.062 E12.94025
G1 X105.433 Y108.779 E12.95506
