;FLAVOR:Marlin
;TIME:230
;Filament used: 0.0991403m
;Layer height: 0.28
;MINX:105.919
;MINY:110.478
;MINZ:0.28
;MAXX:129.08
;MAXY:122.122
;MAXZ:4.48
;Generated with Cura_SteamEngine 4.8.0
M140 S60
M105
M190 S60
M104 S200
M105
M109 S200
M82 ;absolute extrusion mode
; Ender 3 Custom Start G-code
M117 PRINT PRINT PRINT
G92 E0 ; Reset Extruder
G28 ; Home all axes
G1 Z2.0 F3000 ; Move Z Axis up little to prevent scratching of Heat Bed
G1 X0.1 Y20 Z0.3 F5000.0 ; Move to start position
G1 X0.1 Y200.0 Z0.3 F1500.0 E15 ; Draw the first line
G1 X0.4 Y200.0 Z0.3 F5000.0 ; Move to side a little
G1 X0.4 Y20 Z0.3 F1500.0 E30 ; Draw the second line
G92 E0 ; Reset Extruder
G1 Z2.0 F3000 ; Move Z Axis up little to prevent scratching of Heat Bed
G1 X5 Y20 Z0.3 F5000.0 ; Move over to prevent blob squish
G92 E0
G92 E0
G1 F2700 E-5
;LAYER_COUNT:16
;LAYER:0
M107
M204 S500
M205 X8 Y8
G0 F6000 X107.638 Y110.846 Z0.28
;TYPE:SUPPORT
G1 F2700 E0
G1 F729.6 X108.144 Y110.478 E0.02913
G1 X108.764 Y110.478 E0.058
G1 X109.27 Y110.846 E0.08714
G1 X109.463 Y111.437 E0.11609
G1 X109.27 Y112.028 E0.14504
G1 X108.764 Y112.396 E0.17417
G1 X108.144 Y112.396 E0.20304
G1 X107.638 Y112.028 E0.23217
G1 X107.445 Y111.437 E0.26112
G1 X107.638 Y110.846 E0.29007
G0 F6000 X108.672 Y110.758
G1 F729.6 X108.236 Y110.758 E0.31038
G1 X108 Y110.929 E0.32395
G1 X108 Y111.944 E0.37121
G1 X108.236 Y112.116 E0.38481
G1 X108.672 Y112.116 E0.40511
G1 X108.831 Y112 E0.41427
G1 X108.076 Y112 E0.44943
G1 F2700 E-4.55057
G0 F6000 X110.085 Y117.407
G1 F2700 E0.44943
G1 F729.6 X110.788 Y117.753 E0.48591
G1 X110.923 Y118.426 E0.51788
G1 X110.37 Y118.5 E0.54386
G1 X109.884 Y117.962 E0.57761
G1 X110.085 Y117.407 E0.6051
G1 F2700 E-4.3949
G0 F6000 X106.483 Y118.486
G1 F2700 E0.6051
G1 F729.6 X106.103 Y118.299 E0.62482
G1 X105.953 Y117.553 E0.66025
G1 X105.958 Y117.55 E0.66052
G1 X106.11 Y118.156 E0.68962
G1 X106.483 Y118.486 E0.71281
G1 F2700 E-4.28719
G0 F6000 X116.559 Y117.126
G1 F2700 E0.71281
G1 F729.6 X117.095 Y116.315 E0.75807
G1 X116.942 Y115.389 E0.80178
G1 X116.522 Y114.671 E0.84051
G1 X116.141 Y113.528 E0.89661
G1 X116.728 Y112.719 E0.94315
G1 X117.156 Y112.719 E0.96308
G1 X117.804 Y113.611 E1.01442
G1 X118.253 Y114.375 E1.05568
G1 X118.253 Y115.42 E1.10434
G1 X117.953 Y115.764 E1.1256
G1 X118.122 Y116.777 E1.17342
G1 X118.783 Y117.13 E1.20831
G1 X118.783 Y118.04 E1.25069
G1 X117.885 Y118.332 E1.29466
G1 X117.143 Y117.929 E1.33397
G1 X116.559 Y117.126 E1.38021
G0 F6000 X117.326 Y116
G1 F729.6 X117.709 Y116 E1.39804
G1 X117.869 Y116.959 E1.44331
G1 X118.503 Y117.298 E1.47679
G1 X118.503 Y117.837 E1.50189
G1 X117.913 Y118.028 E1.53076
G1 X117.334 Y117.714 E1.56144
G1 X116.901 Y117.118 E1.59574
G1 X117.389 Y116.378 E1.63701
G1 X117.21 Y115.292 E1.68826
G1 X116.779 Y114.555 E1.72802
G1 X116.452 Y113.576 E1.77608
G1 X116.871 Y112.999 E1.80929
G1 X117.013 Y112.999 E1.8159
G1 F2700 E-3.1841
G0 F6000 X124.788 Y119.494
G1 F2700 E1.8159
G1 F729.6 X125.202 Y119.494 E1.83518
G1 X125.773 Y120.281 E1.88045
G1 X125.605 Y120.802 E1.90594
G1 X124.772 Y120.974 E1.94555
G1 X124.243 Y120.245 E1.98749
G1 X124.788 Y119.494 E2.0307
G1 F2700 E-2.9693
G0 F6000 X125.739 Y120.853
G1 F2700 E2.0307
G1 F729.6 X126.651 Y120.664 E2.07407
G1 X127.18 Y121.393 E2.11601
G1 X126.66 Y122.109 E2.15721
G1 X125.808 Y121.831 E2.19894
G1 X125.739 Y120.853 E2.24459
G0 F6000 X125.059 Y119.774
G1 F729.6 X124.931 Y119.774 E2.25056
G1 X124.589 Y120.245 E2.27766
G1 X124.893 Y120.664 E2.30176
G1 X125.389 Y120.561 E2.32535
G1 X125.463 Y120.331 E2.3366
G1 X125.223 Y120 E2.35564
G1 X124.766 Y120 E2.37692
G1 F2700 E-2.62308
G0 F6000 X128.64 Y114.452
G1 F2700 E2.37692
G1 F729.6 X128.507 Y114.185 E2.39081
G1 X128.086 Y113.949 E2.41328
G1 X128.588 Y114.196 E2.43933
G1 X128.64 Y114.452 E2.4515
G1 F2700 E-2.5485
;MESH:lower-robotic-arm.STL
G0 F6000 X127.518 Y115.209
G0 X127.098 Y116.979
;TYPE:WALL-INNER
G1 F2700 E2.4515
G1 F729.6 X127.097 Y116.646 E2.467
G1 X127.036 Y116.646 E2.46985
G1 X127.038 Y115.312 E2.53196
G1 X127.152 Y115.274 E2.53756
G1 X127.336 Y115.309 E2.54628
G1 X127.335 Y116.646 E2.60854
G1 X127.275 Y116.646 E2.61133
G1 X127.274 Y116.979 E2.62683
G1 X127.098 Y116.979 E2.63503
G0 F6000 X126.699 Y117.379
;TYPE:WALL-OUTER
G1 F729.6 X126.698 Y117.046 E2.65054
G1 X126.636 Y117.046 E2.65342
G1 X126.638 Y115.149 E2.74176
G1 X126.741 Y115 E2.75019
G1 X127.019 Y114.887 E2.76416
G1 X127.167 Y114.87 E2.7711
G1 X127.54 Y114.94 E2.78877
G1 X127.729 Y115.104 E2.80042
G1 X127.736 Y115.121 E2.80128
G1 X127.735 Y117.046 E2.89092
G1 X127.674 Y117.046 E2.89376
G1 X127.673 Y117.379 E2.90926
G1 X126.699 Y117.379 E2.95462
G0 F6000 X127.298 Y116.896
G1 F2700 E-2.04538
G0 F6000 X126.85 Y116.832
G0 X108.515 Y116.832
G0 X108.335 Y117.414
;TYPE:WALL-INNER
G1 F2700 E2.95462
G1 F729.6 X108.103 Y117.502 E2.96617
G1 X107.802 Y117.497 E2.98019
G1 X107.593 Y117.394 E2.99104
G1 X107.591 Y115.48 E3.08016
G1 X107.593 Y114.87 E3.10857
G1 X107.795 Y114.87 E3.11797
G1 X107.796 Y114.537 E3.13348
G1 X108.13 Y114.537 E3.14903
G1 X108.131 Y114.87 E3.16454
G1 X108.334 Y114.87 E3.17399
G1 X108.335 Y117.414 E3.29245
G0 F6000 X108.463 Y114.74
G0 X108.733 Y114.47
;TYPE:WALL-OUTER
G1 F729.6 X108.735 Y115.283 E3.3303
G1 X108.735 Y117.607 E3.43852
G1 X108.65 Y117.71 E3.44474
G1 X108.417 Y117.816 E3.45666
G1 X108.19 Y117.895 E3.46785
G1 X107.968 Y117.915 E3.47823
G1 X107.688 Y117.888 E3.49133
G1 X107.465 Y117.774 E3.50299
G1 X107.215 Y117.667 E3.51565
G1 X107.193 Y117.632 E3.51758
G1 X107.191 Y115.479 E3.61783
G1 X107.194 Y114.47 E3.66481
G1 X107.396 Y114.47 E3.67422
G1 X107.397 Y114.137 E3.68972
G1 X108.529 Y114.137 E3.74243
G1 X108.53 Y114.47 E3.75794
G1 X108.733 Y114.47 E3.76739
G0 F6000 X108.463 Y114.74
G0 X107.702 Y115.104
G0 X107.751 Y115.104
;TYPE:SKIN
G1 F729.6 X108.174 Y115.528 E3.79528
G0 F6000 X107.751 Y115.67
G1 F729.6 X108.174 Y116.094 E3.82317
G0 F6000 X107.751 Y116.236
G1 F729.6 X108.174 Y116.659 E3.85102
G0 F6000 X107.751 Y116.802
G1 F729.6 X108.174 Y117.225 E3.87888
G0 F6000 X108.135 Y117.226
G1 F2700 E-1.12112
;MESH:NONMESH
G0 F300 X108.135 Y117.226 Z0.56
G0 F6000 X108.225 Y117.227
G0 X108.152 Y115.052
G0 X107.615 Y114.357
G0 X107.615 Y110.86
;TIME_ELAPSED:17.807543
;LAYER:1
M106 S85
;TYPE:SUPPORT
G1 F2700 E3.87888
G1 F712.1 X108.108 Y110.501 E3.90728
G1 X108.714 Y110.501 E3.9355
G1 X109.207 Y110.86 E3.96389
G1 X109.396 Y111.437 E3.99217
G1 X109.207 Y112.014 E4.02044
G1 X108.714 Y112.373 E4.04884
G1 X108.108 Y112.373 E4.07705
G1 X107.615 Y112.014 E4.10545
G1 X107.426 Y111.437 E4.13372
G1 X107.615 Y110.86 E4.162
G0 F7500 X108.622 Y110.781
G1 F712.1 X108.2 Y110.781 E4.18165
G1 X108 Y110.926 E4.19315
G1 X108 Y111.947 E4.24069
G1 X108.2 Y112.093 E4.25222
G1 X108.622 Y112.093 E4.27187
G1 X108.749 Y112 E4.2792
G1 X108.072 Y112 E4.31072
G1 F2700 E-0.68928
G0 F7500 X116.052 Y113.305
G1 F2700 E4.31072
G1 F712.1 X116.597 Y112.554 E4.35393
G1 X117.014 Y112.554 E4.37335
G1 X117.61 Y113.329 E4.41887
G1 X117.996 Y113.963 E4.45344
G1 X118.147 Y114.552 E4.48175
G1 X116.669 Y114.551 E4.55057
G1 X116.701 Y114.199 E4.56703
G1 X116.052 Y113.305 E4.61847
G1 F2700 E-0.38153
G0 F7500 X117.453 Y116.616
G1 F2700 E4.61847
G1 F712.1 X118.092 Y116.616 E4.64823
G1 X118.71 Y117.514 E4.69899
G1 X118.187 Y118.234 E4.74042
G1 X117.286 Y117.94 E4.78455
G1 X116.951 Y117.3 E4.81819
G1 X117.453 Y116.616 E4.8577
G1 F2700 E-0.1423
G0 F7500 X124.561 Y119.958
G1 F2700 E4.8577
G1 F712.1 X125.402 Y119.684 E4.89888
G1 X125.922 Y120.4 E4.94009
G1 X125.402 Y121.116 E4.98129
G1 X124.561 Y120.842 E5.02248
G1 X124.561 Y119.958 E5.06364
G0 F7500 X125.662 Y118.929
G1 F712.1 X125.388 Y118.485 E5.08794
G1 X125.43 Y118.399 E5.09239
G1 X125.783 Y118.821 E5.11801
G1 X125.844 Y118.863 E5.12146
G1 X125.662 Y118.929 E5.13048
G1 F2700 E0.13048
G0 F7500 X126.598 Y121.011
G1 F2700 E5.13048
G1 F712.1 X127.145 Y121.084 E5.15617
G1 X127.01 Y121.757 E5.18813
G1 X126.27 Y122.122 E5.22656
G1 X126.022 Y121.72 E5.24855
G1 X126.598 Y121.011 E5.29109
G1 F2700 E0.29109
;MESH:lower-robotic-arm.STL
G0 F7500 X108.949 Y117.639
G0 X108.668 Y117.597
;TYPE:WALL-INNER
G1 F2700 E5.29109
G1 F712.1 X108.483 Y117.702 E5.30099
G1 X108.04 Y117.758 E5.32178
G1 X107.731 Y117.75 E5.33618
G1 X107.363 Y117.675 E5.35366
G1 X107.26 Y117.58 E5.36019
G1 X107.258 Y115.479 E5.45802
G1 X107.26 Y114.537 E5.50188
G1 X108.666 Y114.537 E5.56735
G1 X108.668 Y115.417 E5.60833
G1 X108.668 Y117.597 E5.70984
G0 F7500 X108.94 Y115.588
G0 X126.432 Y115.588
G0 X126.766 Y117.312
G1 F712.1 X126.765 Y116.979 E5.72535
G1 X126.703 Y116.979 E5.72823
G1 X126.705 Y115.154 E5.81321
G1 X126.856 Y115.005 E5.82309
G1 X127.169 Y114.936 E5.83801
G1 X127.488 Y114.994 E5.85311
G1 X127.669 Y115.154 E5.86436
G1 X127.668 Y116.979 E5.94934
G1 X127.607 Y116.979 E5.95218
G1 X127.606 Y117.312 E5.96769
G1 X126.766 Y117.312 E6.0068
G0 F7500 X126.367 Y117.712
;TYPE:WALL-OUTER
G1 F712.1 X126.366 Y117.379 E6.02231
G1 X126.303 Y117.379 E6.02524
G1 X126.305 Y115.11 E6.13089
G1 X126.338 Y114.963 E6.13791
G1 X126.52 Y114.746 E6.1511
G1 X126.688 Y114.638 E6.1604
G1 X126.954 Y114.559 E6.17332
G1 X127.167 Y114.534 E6.1833
G1 X127.45 Y114.566 E6.19657
G1 X127.676 Y114.632 E6.20753
G1 X127.905 Y114.818 E6.22127
G1 X128.015 Y114.928 E6.22851
G1 X128.069 Y115.088 E6.23637
G1 X128.068 Y117.379 E6.34305
G1 X128.006 Y117.379 E6.34594
G1 X128.005 Y117.712 E6.36144
G1 X126.367 Y117.712 E6.43772
G0 F7500 X126.537 Y117.542
G0 X126.432 Y115.588
G0 X108.94 Y115.579
G0 X108.895 Y114.307
G0 X109.065 Y114.137
G1 F712.1 X109.068 Y115.416 E6.49727
G1 X109.068 Y117.658 E6.60167
G1 X109.014 Y117.832 E6.61015
G1 X108.83 Y117.997 E6.62166
G1 X108.597 Y118.088 E6.63331
G1 X108.342 Y118.137 E6.6454
G1 X108.048 Y118.158 E6.65912
G1 X107.699 Y118.149 E6.67538
G1 X107.412 Y118.105 E6.6889
G1 X107.208 Y118.047 E6.69878
G1 X106.98 Y117.915 E6.71104
G1 X106.86 Y117.673 E6.72362
G1 X106.858 Y115.478 E6.82583
G1 X106.861 Y114.137 E6.88827
G1 X109.065 Y114.137 E6.9909
G1 F2700 E1.9909
G0 F7500 X108.895 Y114.337
G0 X108.94 Y115.579
G0 X109.59 Y115.571
G0 X109.559 Y115.582
;TYPE:SKIN
G1 F2700 E6.9909
G1 F712.1 X109.842 Y115.582 E6.99304
G1 X119.741 Y115.583 E7.06804
G1 X125.964 Y115.583 E7.11518
G1 F2700 E2.11518
G0 F7500 X125.996 Y115.551
G0 X127.297 Y117.927
G0 X127.177 Y118.047
G1 F2700 E7.11518
G1 F712.1 X127.188 Y118.318 E7.12343
G1 X127.186 Y120.017 E7.17507
G1 F2700 E2.17507
G0 F7500 X127.101 Y120.103
G0 X127.071 Y117.584
G0 X126.874 Y116.922
G0 X127.154 Y116.922
;TYPE:SKIN
G1 F2700 E7.17507
G1 F712.1 X127.153 Y116.589 E7.19058
G1 X127.093 Y116.589 E7.19337
G1 X127.095 Y115.351 E7.25102
G1 X127.279 Y115.353 E7.25959
G1 X127.278 Y116.589 E7.31714
G1 X127.219 Y116.589 E7.31989
G1 X127.218 Y116.922 E7.33539
G1 X127.154 Y116.922 E7.33837
G0 F7500 X126.874 Y116.922
G0 X126.432 Y115.588
G0 X108.94 Y115.588
G0 X108.558 Y117.336
G0 X108.278 Y117.336
G1 F712.1 X108.027 Y117.368 E7.35016
G1 X107.773 Y117.36 E7.36199
G1 X107.65 Y117.336 E7.36782
G1 X107.649 Y114.927 E7.48
G1 X108.277 Y114.927 E7.50924
G1 X108.278 Y117.336 E7.62141
G0 F7500 X108.117 Y117.025
G1 F712.1 X107.937 Y117.205 E7.63327
G0 F7500 X107.809 Y116.767
G1 F712.1 X108.117 Y116.459 E7.65355
G0 F7500 X107.809 Y116.201
G1 F712.1 X108.117 Y115.894 E7.6738
G0 F7500 X107.809 Y115.636
G1 F712.1 X108.117 Y115.328 E7.69408
G0 F7500 X108.567 Y115.325
G1 F2700 E2.69408
;MESH:NONMESH
G0 F300 X108.567 Y115.325 Z0.84
G0 F7500 X108.484 Y114.719
G0 X107.405 Y114.257
G0 X107.405 Y110.913
;TIME_ELAPSED:33.848433
;LAYER:2
M106 S170
;TYPE:SUPPORT
G1 F2700 E7.69408
G1 F810.6 X107.887 Y110.563 E7.72182
G1 X108.477 Y110.563 E7.74929
G1 X108.959 Y110.913 E7.77703
G1 X109.142 Y111.476 E7.80459
G1 X108.959 Y112.039 E7.83216
G1 X108.477 Y112.389 E7.8599
G1 X107.887 Y112.389 E7.88737
G1 X107.405 Y112.039 E7.91511
G1 X107.222 Y111.476 E7.94267
G1 X107.405 Y110.913 E7.97024
G0 F9000 X108 Y110.843
G1 F810.6 X108 Y112.109 E8.02919
G1 X108.385 Y112.109 E8.04711
G1 X108.535 Y112 E8.05575
G1 X107.828 Y112 E8.08867
G1 X107.643 Y111.865 E8.09933
G1 X107.516 Y111.476 E8.11839
G1 X107.643 Y111.087 E8.13744
G1 X107.979 Y110.843 E8.15678
G1 X108.385 Y110.843 E8.17568
G1 F2700 E3.17568
G0 F9000 X116.274 Y113.333
G1 F2700 E8.17568
G1 F810.6 X116.83 Y112.567 E8.21976
G1 X117.244 Y112.567 E8.23903
G1 X117.817 Y113.357 E8.28448
G1 X117.565 Y114.219 E8.3263
G1 X116.755 Y114.218 E8.36401
G1 X116.274 Y113.333 E8.41092
G1 F2700 E3.41092
G0 F9000 X117.079 Y116.949
G1 F2700 E8.41092
G1 F810.6 X117.782 Y116.949 E8.44365
G1 X118.321 Y117.63 E8.48409
G1 X118.073 Y118.033 E8.50612
G1 X117.315 Y117.659 E8.54548
G1 X117.059 Y116.978 E8.57936
G1 X117.079 Y116.949 E8.581
G1 F2700 E3.581
G0 F9000 X124.746 Y120.383
G1 F2700 E8.581
G1 F810.6 X124.994 Y119.981 E8.60299
G1 X125.734 Y120.346 E8.64142
G1 X125.869 Y121.019 E8.67338
G1 X125.322 Y121.092 E8.69907
G1 X124.746 Y120.383 E8.74161
G1 F2700 E3.74161
;MESH:lower-robotic-arm.STL
G0 F9000 X126.184 Y117.498
G0 X126.37 Y117.312
;TYPE:WALL-INNER
G1 F2700 E8.74161
G1 F810.6 X126.372 Y115.116 E8.84386
G1 X126.452 Y114.919 E8.85376
G1 X126.685 Y114.775 E8.86652
G1 X126.918 Y114.718 E8.87769
G1 X127.177 Y114.698 E8.88978
G1 X127.407 Y114.71 E8.90051
G1 X127.747 Y114.802 E8.91691
G1 X127.944 Y114.947 E8.9283
G1 X128.002 Y115.131 E8.93728
G1 X128.001 Y117.312 E9.03884
G1 X126.37 Y117.312 E9.11479
G1 F2700 E4.11479
G0 F9000 X126.199 Y115.921
G0 X109.157 Y115.921
G0 X109.145 Y117.749
G0 X108.428 Y118.076
G0 X108.642 Y118.207
;TYPE:WALL-OUTER
G1 F2700 E9.11479
G1 F810.6 X108.669 Y117.481 E9.14862
G1 X108.711 Y116.194 E9.20858
G1 X108.754 Y114.137 E9.30438
G1 X109.386 Y114.137 E9.33381
G1 X109.386 Y115.418 E9.39346
G1 X125.972 Y115.419 E10.16577
G1 X125.972 Y115.071 E10.18197
G1 X126.027 Y114.83 E10.19348
G1 X126.17 Y114.622 E10.20524
G1 X126.529 Y114.401 E10.22487
G1 X126.853 Y114.322 E10.2404
G1 X127.166 Y114.297 E10.25502
G1 X127.473 Y114.313 E10.26933
G1 X127.905 Y114.43 E10.29017
G1 X128.164 Y114.588 E10.3043
G1 X128.301 Y114.751 E10.31421
G1 X128.402 Y115.071 E10.32984
G1 X128.401 Y117.712 E10.45282
G1 X127.461 Y117.712 E10.49659
G1 X127.443 Y118.324 E10.5251
G1 X127.401 Y120.178 E10.61145
G1 X127.365 Y120.24 E10.61479
G1 X127.142 Y120.274 E10.62529
G1 X126.985 Y120.215 E10.6331
G1 X126.97 Y120.184 E10.6347
G1 X126.931 Y118.398 E10.71789
G1 X126.914 Y117.712 E10.74984
G1 X125.97 Y117.712 E10.7938
G1 X125.971 Y115.749 E10.8852
G1 X109.385 Y115.749 E11.65752
G1 X109.391 Y117.665 E11.74673
G1 X109.345 Y117.85 E11.75561
G1 X109.211 Y118.01 E11.76533
G1 X108.945 Y118.148 E11.77928
G1 X108.642 Y118.207 E11.79366
G0 F9000 X108.337 Y118.196
G0 X107.454 Y118.08
G0 X107.283 Y118.205
G1 F810.6 X107.032 Y118.161 E11.80552
G1 X106.835 Y118.089 E11.81529
G1 X106.633 Y117.931 E11.82723
G1 X106.537 Y117.674 E11.84
G1 X106.541 Y115.931 E11.92117
G1 X106.541 Y114.137 E12.0047
G1 X107.172 Y114.137 E12.03408
G1 X107.215 Y116.192 E12.12979
G1 X107.283 Y118.205 E12.22358
G0 F9000 X107.59 Y118.338
;TYPE:SKIN
G1 F810.6 X107.781 Y118.246 E12.23543
G1 X108.293 Y118.192 E12.26419
G1 F2700 E7.26419
G0 F9000 X108.163 Y118.062
G0 X109.145 Y117.749
G0 X109.157 Y115.921
G0 X126.199 Y115.921
G0 X126.481 Y116.921
G0 X126.76 Y116.922
;TYPE:SKIN
G1 F2700 E12.26419
G1 F810.6 X126.762 Y115.19 E12.34484
G1 X126.986 Y115.103 E12.35603
G1 X127.172 Y115.088 E12.36472
G1 X127.573 Y115.158 E12.38368
G1 X127.612 Y115.19 E12.38603
G1 X127.611 Y116.922 E12.46668
G1 X126.76 Y116.922 E12.5063
G0 F9000 X127.451 Y116.703
G1 F810.6 X126.92 Y116.171 E12.5413
G0 F9000 X127.451 Y116.137
G1 F810.6 X126.92 Y115.607 E12.57624
G0 F9000 X127.131 Y115.252
G1 F810.6 X127.451 Y115.571 E12.59728
G0 F9000 X127.891 Y115.572
G0 X127.797 Y115.052
G0 X127.38 Y114.88
G0 X126.752 Y114.935
G0 X126.563 Y115.332
G0 X109.211 Y115.433
G0 X109.059 Y115.282
;TYPE:SKIN
G1 F810.6 X109.055 Y115.561 E12.60844
G1 X109.026 Y117.511 E12.6865
G1 X108.87 Y117.921 E12.70406
G1 F2700 E7.70406
G0 F9000 X108.922 Y117.821
G0 X107.064 Y117.946
G0 X106.902 Y117.65
G1 F2700 E12.70406
G1 F810.6 X106.898 Y117.363 E12.71626
G1 X106.861 Y114.498 E12.83811
G1 X106.979 Y114.333 E12.84673
G1 F2700 E7.84673
G0 F9000 X106.878 Y114.438
G0 X108.963 Y114.665
